%
(1001)
(T1  D=3.175 CR=0 - ZMIN=-9 - flat end mill)
G90 G94
G17
G21

(USB Port)
M9
T1 M6
S5000 M3
G54
G0 X46.993 Y9.754
Z10
Z5
G1 Z2.817 F1000
X47.023 Y9.77 Z2.674 F500
X47.106 Y9.817 Z2.562
X47.218 Y9.894 Z2.504
X47.251 Y9.919 Z2.5
G3 X45.375 Y12.281 Z2.335 I-0.938 J1.181
X47.251 Y9.919 Z2.169 I0.938 J-1.181
X45.375 Y12.281 Z2.004 I-0.938 J1.181
X47.251 Y9.919 Z1.838 I0.938 J-1.181
X45.375 Y12.281 Z1.673 I-0.938 J1.181
X47.251 Y9.919 Z1.507 I0.938 J-1.181
X45.375 Y12.281 Z1.342 I-0.938 J1.181
X47.251 Y9.919 Z1.176 I0.938 J-1.181
X45.375 Y12.281 Z1.011 I-0.938 J1.181
X47.251 Y9.919 Z0.845 I0.938 J-1.181
X45.375 Y12.281 Z0.68 I-0.938 J1.181
X47.251 Y9.919 Z0.515 I0.938 J-1.181
X45.375 Y12.281 Z0.349 I-0.938 J1.181
X47.251 Y9.919 Z0.184 I0.938 J-1.181
X45.375 Y12.281 Z0.018 I-0.938 J1.181
X47.251 Y9.919 Z-0.147 I0.938 J-1.181
X45.375 Y12.281 Z-0.313 I-0.938 J1.181
X47.251 Y9.919 Z-0.478 I0.938 J-1.181
X45.375 Y12.281 Z-0.644 I-0.938 J1.181
X47.251 Y9.919 Z-0.809 I0.938 J-1.181
X45.375 Y12.281 Z-0.974 I-0.938 J1.181
X47.251 Y9.919 Z-1.14 I0.938 J-1.181
X45.375 Y12.281 Z-1.305 I-0.938 J1.181
X47.251 Y9.919 Z-1.471 I0.938 J-1.181
X45.375 Y12.281 Z-1.636 I-0.938 J1.181
X47.251 Y9.919 Z-1.802 I0.938 J-1.181
X45.375 Y12.281 Z-1.967 I-0.938 J1.181
X47.251 Y9.919 Z-2.133 I0.938 J-1.181
X45.375 Y12.281 Z-2.298 I-0.938 J1.181
X47.251 Y9.919 Z-2.464 I0.938 J-1.181
X45.375 Y12.281 Z-2.629 I-0.938 J1.181
X47.251 Y9.919 Z-2.794 I0.938 J-1.181
X45.375 Y12.281 Z-2.96 I-0.938 J1.181
X47.251 Y9.919 Z-3.125 I0.938 J-1.181
X45.375 Y12.281 Z-3.291 I-0.938 J1.181
X47.251 Y9.919 Z-3.456 I0.938 J-1.181
X45.375 Y12.281 Z-3.622 I-0.938 J1.181
X47.251 Y9.919 Z-3.787 I0.938 J-1.181
X45.375 Y12.281 Z-3.953 I-0.938 J1.181
X44.805 Y11.1 Z-4 I0.938 J-1.181
G1 Y11.054 F1400
G3 X45.124 Y10.735 I0.319
G1 X48.216
G3 X48.535 Y11.054 J0.319
G1 Y11.146
G3 X48.216 Y11.465 I-0.319
G1 X45.124
G3 X44.805 Y11.146 J-0.319
G1 Y11.1
G2 X44.032 Y9.714 I-1.63
G3 X44.466 Y8.188 I0.434 J-0.701
G1 X51.02
X51.044 Y8.192
X51.064 Y8.206
X51.078 Y8.226
X51.083 Y8.25
Y13.95
X51.078 Y13.974
X51.064 Y13.994
X51.044 Y14.008
X51.02 Y14.012
X42.32
X42.296 Y14.008
X42.276 Y13.994
X42.262 Y13.974
X42.257 Y13.95
Y8.25
X42.262 Y8.226
X42.276 Y8.206
X42.296 Y8.192
X42.32 Y8.188
X44.466
X44.498 Y8.193
X44.527 Y8.208
X44.549 Y8.232
X44.562 Y8.261
X44.564 Y8.294
X44.53 Y8.77
X45.158 Y11.591
X45.154 Y11.859
X45.148 Y11.887
X45.13 Y11.909
X45.105 Y11.922
X45.076 Y11.924
X45.05 Y11.914
X45.03 Y11.893
G3 X47.596 Y10.307 Z-4.165 I1.283 J-0.793 F500
X45.03 Y11.893 Z-4.331 I-1.283 J0.793
X47.596 Y10.307 Z-4.496 I1.283 J-0.793
X45.03 Y11.893 Z-4.662 I-1.283 J0.793
X47.596 Y10.307 Z-4.827 I1.283 J-0.793
X45.03 Y11.893 Z-4.993 I-1.283 J0.793
X47.596 Y10.307 Z-5.158 I1.283 J-0.793
X45.03 Y11.893 Z-5.324 I-1.283 J0.793
X47.596 Y10.307 Z-5.489 I1.283 J-0.793
X45.03 Y11.893 Z-5.655 I-1.283 J0.793
X47.596 Y10.307 Z-5.82 I1.283 J-0.793
X45.03 Y11.893 Z-5.985 I-1.283 J0.793
X47.596 Y10.307 Z-6.151 I1.283 J-0.793
X45.03 Y11.893 Z-6.316 I-1.283 J0.793
X47.596 Y10.307 Z-6.482 I1.283 J-0.793
X45.03 Y11.893 Z-6.647 I-1.283 J0.793
X47.596 Y10.307 Z-6.813 I1.283 J-0.793
X45.03 Y11.893 Z-6.978 I-1.283 J0.793
X47.596 Y10.307 Z-7.144 I1.283 J-0.793
X45.03 Y11.893 Z-7.309 I-1.283 J0.793
X47.596 Y10.307 Z-7.474 I1.283 J-0.793
X45.03 Y11.893 Z-7.64 I-1.283 J0.793
X47.596 Y10.307 Z-7.805 I1.283 J-0.793
X45.03 Y11.893 Z-7.971 I-1.283 J0.793
X44.805 Y11.1 Z-8 I1.283 J-0.793
G1 Y11.054 F1400
G3 X45.124 Y10.735 I0.319
G1 X48.216
G3 X48.535 Y11.054 J0.319
G1 Y11.146
G3 X48.216 Y11.465 I-0.319
G1 X45.124
G3 X44.805 Y11.146 J-0.319
G1 Y11.1
G2 X44.032 Y9.714 I-1.63
G3 X44.466 Y8.188 I0.434 J-0.701
G1 X51.02
X51.044 Y8.192
X51.064 Y8.206
X51.078 Y8.226
X51.083 Y8.25
Y13.95
X51.078 Y13.974
X51.064 Y13.994
X51.044 Y14.008
X51.02 Y14.012
X42.32
X42.296 Y14.008
X42.276 Y13.994
X42.262 Y13.974
X42.257 Y13.95
Y8.25
X42.262 Y8.226
X42.276 Y8.206
X42.296 Y8.192
X42.32 Y8.188
X44.466
X44.506 Y8.193
X44.544 Y8.208
X44.576 Y8.232
X44.602 Y8.263
X44.618 Y8.3
X45.192 Y10.196
X45.204 Y10.226
X45.223 Y10.253
X45.246 Y10.29
X45.259 Y10.332
Y10.376
X45.134 Y11.307
G3 X44.819 Y11.308 I-0.157 J-0.021
X47.807 Y10.892 Z-8.165 I1.494 J-0.208 F500
X44.819 Y11.308 Z-8.331 I-1.494 J0.208
X47.807 Y10.892 Z-8.496 I1.494 J-0.208
X44.819 Y11.308 Z-8.662 I-1.494 J0.208
X47.807 Y10.892 Z-8.827 I1.494 J-0.208
X46.417 Y12.605 Z-8.914 I-1.494 J0.208
X44.805 Y11.1 Z-9 I-0.104 J-1.505
G1 Y11.054 F1400
G3 X45.124 Y10.735 I0.319
G1 X48.216
G3 X48.535 Y11.054 J0.319
G1 Y11.146
G3 X48.216 Y11.465 I-0.319
G1 X45.124
G3 X44.805 Y11.146 J-0.319
G1 Y11.1
G2 X44.032 Y9.714 I-1.63
G3 X44.466 Y8.188 I0.434 J-0.701
G1 X51.02
X51.044 Y8.192
X51.064 Y8.206
X51.078 Y8.226
X51.083 Y8.25
Y13.95
X51.078 Y13.974
X51.064 Y13.994
X51.044 Y14.008
X51.02 Y14.012
X42.32
X42.296 Y14.008
X42.276 Y13.994
X42.262 Y13.974
X42.257 Y13.95
Y8.25
X42.262 Y8.226
X42.276 Y8.206
X42.296 Y8.192
X42.32 Y8.188
X44.466
X44.527 Y8.193 Z-8.988 F1000
X44.585 Y8.21 Z-8.976
X44.631 Y8.233 Z-8.941
X44.673 Y8.264 Z-8.907
X44.72 Y8.314 Z-8.804
X44.734 Y8.333 Z-8.682
G0 Z10
M30
%
