%
(1001)
(T1  D=6.35 CR=0 TAPER=30deg - ZMIN=-1.227 - chamfer mill)
G90 G94
G17
G21

(Engrave1)
M9
T1 M6
S5000 M3
G54
G0 X3.542 Y19.542
Z10
Z5
G1 Z-0.001 F762
X3.738 Y19.338 Z-0.34 F1000
X3.542 Y19.143 Z-0.001
X3.738 Y19.338 Z-0.34
X4.144 Y19.332 Z-0.326
X4.253 Y19.328
X4.329 Y19.324 Z-0.331
X4.406 Y19.316 Z-0.341
X4.487 Y19.304 Z-0.357
X4.542 Y19.294 Z-0.373
X4.617 Y19.276 Z-0.401
X4.704 Y19.252 Z-0.441
X4.785 Y19.225 Z-0.485
X4.918 Y19.177 Z-0.565
X4.999 Y19.143 Z-0.622
X5.04 Y19.122 Z-0.658
X5.08 Y19.098 Z-0.699
X5.121 Y19.071 Z-0.745
X5.161 Y19.041 Z-0.796
X5.207 Y19.005 Z-0.858
X5.419 Y18.825 Z-1.167
X5.523 Y18.911 Z-1.018
X5.616 Y18.983 Z-0.893
X5.693 Y19.039 Z-0.797
X5.761 Y19.084 Z-0.72
X5.83 Y19.125 Z-0.65
X5.892 Y19.158 Z-0.594
X5.968 Y19.194 Z-0.533
X6.047 Y19.228 Z-0.477
X6.085 Y19.243 Z-0.452
X6.121 Y19.255 Z-0.431
X6.159 Y19.265 Z-0.414
X6.233 Y19.279 Z-0.394
X6.351 Y19.298 Z-0.366
X6.457 Y19.312 Z-0.346
X6.559 Y19.322 Z-0.333
X6.633 Y19.327 Z-0.328
X6.734 Y19.332 Z-0.326
X6.866 Y19.336 Z-0.33
X7.066 Y19.339 Z-0.339
X7.261 Y19.543 Z-0.001
X7.066 Y19.339 Z-0.339
X7.261 Y19.144 Z-0.001
X7.066 Y19.339 Z-0.339
X6.866 Y19.336 Z-0.33
X6.734 Y19.332 Z-0.326
X6.633 Y19.327 Z-0.328
X6.559 Y19.322 Z-0.333
X6.457 Y19.312 Z-0.346
X6.351 Y19.298 Z-0.366
X6.233 Y19.279 Z-0.394
X6.159 Y19.265 Z-0.414
X6.121 Y19.255 Z-0.431
X6.085 Y19.243 Z-0.452
X6.047 Y19.228 Z-0.477
X5.968 Y19.194 Z-0.533
X5.892 Y19.158 Z-0.594
X5.83 Y19.125 Z-0.65
X5.761 Y19.084 Z-0.72
X5.693 Y19.039 Z-0.797
X5.616 Y18.983 Z-0.893
X5.523 Y18.911 Z-1.018
X5.419 Y18.825 Z-1.167
X5.421 Y18.784 Z-1.157
X5.431 Y18.542 Z-1.11
X5.435 Y18.421 Z-1.089
X5.439 Y18.266 Z-1.067
X5.441 Y18.092 Z-1.049
X5.443 Y17.901 Z-1.036
X5.444 Y17.75 Z-1.029
X5.443 Y17.502 Z-1.026
X5.442 Y17.248 Z-1.029
X5.44 Y17.022 Z-1.033
X5.441 Y15.588
X5.443 Y15.514 Z-1.037
X5.45 Y15.441 Z-1.049
X5.461 Y15.367 Z-1.069
X5.477 Y15.293 Z-1.097
X5.461 Y15.219 Z-1.069
X5.45 Y15.145 Z-1.049
X5.443 Y15.072 Z-1.037
X5.441 Y14.998 Z-1.033
Y13.224
X5.443 Y13.083
X5.448 Y12.809 Z-1.032
X5.451 Y12.596 Z-1.037
X5.455 Y12.392 Z-1.045
X5.456 Y12.21 Z-1.057
X5.455 Y11.967 Z-1.076
X5.452 Y11.763 Z-1.097
X5.447 Y11.59 Z-1.122
X5.442 Y11.416 Z-1.153
X5.438 Y11.24 Z-1.191
X5.221 Y11.053 Z-0.872
X5.177 Y11.017 Z-0.81
X5.133 Y10.984 Z-0.755
X5.09 Y10.955 Z-0.705
X5.045 Y10.929 Z-0.66
X5.001 Y10.906 Z-0.621
X4.956 Y10.886 Z-0.588
X4.868 Y10.854 Z-0.536
X4.767 Y10.82 Z-0.48
X4.679 Y10.793 Z-0.436
X4.586 Y10.768 Z-0.397
X4.506 Y10.751 Z-0.37
X4.45 Y10.742 Z-0.356
X4.364 Y10.731 Z-0.341
X4.28 Y10.723 Z-0.332
X4.199 Y10.719 Z-0.328
X4.081 Y10.716 Z-0.329
X3.741 Y10.713 Z-0.341
X3.545 Y10.51 Z-0.001
X3.741 Y10.713 Z-0.341
X3.545 Y10.909 Z-0.001
X3.741 Y10.713 Z-0.341
X4.081 Y10.716 Z-0.329
X4.199 Y10.719 Z-0.328
X4.28 Y10.723 Z-0.332
X4.364 Y10.731 Z-0.341
X4.45 Y10.742 Z-0.356
X4.506 Y10.751 Z-0.37
X4.586 Y10.768 Z-0.397
X4.679 Y10.793 Z-0.436
X4.767 Y10.82 Z-0.48
X4.868 Y10.854 Z-0.536
X4.956 Y10.886 Z-0.588
X5.001 Y10.906 Z-0.621
X5.045 Y10.929 Z-0.66
X5.09 Y10.955 Z-0.705
X5.133 Y10.984 Z-0.755
X5.177 Y11.017 Z-0.81
X5.221 Y11.053 Z-0.872
X5.438 Y11.24 Z-1.191
X5.577 Y11.116 Z-0.974
X5.622 Y11.079 Z-0.909
X5.674 Y11.04 Z-0.84
X5.765 Y10.98 Z-0.738
X5.856 Y10.927 Z-0.648
X5.913 Y10.897 Z-0.597
X5.976 Y10.868 Z-0.548
X6.04 Y10.843 Z-0.505
X6.106 Y10.82 Z-0.467
X6.191 Y10.795 Z-0.426
X6.229 Y10.786 Z-0.411
X6.35 Y10.762 Z-0.374
X6.429 Y10.748 Z-0.354
X6.512 Y10.737 Z-0.338
X6.592 Y10.73 Z-0.33
X6.674 Y10.725 Z-0.327
X6.786 Y10.721 Z-0.328
X7.007 Y10.717 Z-0.336
X7.069 Y10.715 Z-0.338
X7.264 Y10.511 Z-0.001
X7.069 Y10.715 Z-0.338
X7.263 Y10.91 Z-0.001
X7.069 Y10.715 Z-0.338
X7.007 Y10.717 Z-0.336
X6.786 Y10.721 Z-0.328
X6.674 Y10.725 Z-0.327
X6.592 Y10.73 Z-0.33
X6.512 Y10.737 Z-0.338
X6.429 Y10.748 Z-0.354
X6.35 Y10.762 Z-0.374
X6.229 Y10.786 Z-0.411
X6.191 Y10.795 Z-0.426
X6.106 Y10.82 Z-0.467
X6.04 Y10.843 Z-0.505
X5.976 Y10.868 Z-0.548
X5.913 Y10.897 Z-0.597
X5.856 Y10.927 Z-0.648
X5.765 Y10.98 Z-0.738
X5.674 Y11.04 Z-0.84
X5.622 Y11.079 Z-0.909
X5.577 Y11.116 Z-0.974
X5.438 Y11.24 Z-1.191
X5.442 Y11.416 Z-1.153
X5.447 Y11.59 Z-1.122
X5.452 Y11.763 Z-1.097
X5.455 Y11.967 Z-1.076
X5.456 Y12.21 Z-1.057
X5.455 Y12.392 Z-1.045
X5.451 Y12.596 Z-1.037
X5.448 Y12.809 Z-1.032
X5.443 Y13.083 Z-1.033
X5.441 Y13.224
Y14.998
X5.443 Y15.072 Z-1.037
X5.45 Y15.145 Z-1.049
X5.461 Y15.219 Z-1.069
X5.477 Y15.293 Z-1.097
X5.577 Z-0.947
X5.664 Z-0.825
X5.739 Z-0.727
X5.807 Z-0.649
X5.868 Z-0.59
X5.924 Z-0.548
X5.95 Z-0.533
X5.977 Z-0.522
X6.003 Z-0.515
X6.028 Z-0.512
X6.779 Z-0.474
X7.231 Y15.294 Z-0.456
X7.657 Z-0.445
X8.193 Z-0.437
X8.913 Z-0.434
X9.516 Z-0.437
X9.989 Y15.295 Z-0.445
X10.323 Z-0.455
X10.661 Z-0.471
X11.139 Z-0.499
X11.355 Z-0.515
X11.381 Z-0.523
X11.407 Z-0.534
X11.434 Z-0.549
X11.461 Z-0.568
X11.52 Z-0.619
X11.551 Z-0.65
X11.618 Z-0.728
X11.693 Z-0.826
X11.779 Z-0.948
X11.879 Z-1.097
X11.895 Y15.369 Z-1.069
X11.906 Y15.442 Z-1.049
X11.913 Y15.516 Z-1.037
X11.915 Y15.59 Z-1.034
Y16.82 Z-1.033
X11.913 Y17.199 Z-1.035
X11.91 Y17.506 Z-1.04
X11.908 Y17.738 Z-1.047
X11.904 Y17.971 Z-1.06
X11.9 Y18.205 Z-1.078
X11.893 Y18.59 Z-1.116
X11.891 Y18.708 Z-1.129
Y18.736 Z-1.134
Y18.832 Z-1.157
X11.787 Y18.917 Z-1.01
X11.697 Y18.986 Z-0.892
X11.623 Y19.038 Z-0.803
X11.546 Y19.087 Z-0.72
X11.469 Y19.13 Z-0.646
X11.39 Y19.171 Z-0.577
X11.296 Y19.214 Z-0.504
X11.239 Y19.238 Z-0.464
X11.206 Y19.249 Z-0.446
X11.146 Y19.263 Z-0.422
X11.031 Y19.288 Z-0.384
X10.938 Y19.305 Z-0.358
X10.872 Y19.314 Z-0.344
X10.785 Y19.324 Z-0.333
X10.72 Y19.328 Z-0.328
X10.623 Y19.332 Z-0.326
X10.497 Y19.335 Z-0.329
X10.212 Y19.34 Z-0.339
X10.017 Y19.543 Z-0.001
X10.212 Y19.34 Z-0.339
X10.017 Y19.145 Z-0.001
X10.212 Y19.34 Z-0.339
X10.497 Y19.335 Z-0.329
X10.623 Y19.332 Z-0.326
X10.72 Y19.328 Z-0.328
X10.785 Y19.324 Z-0.333
X10.872 Y19.314 Z-0.344
X10.938 Y19.305 Z-0.358
X11.031 Y19.288 Z-0.384
X11.146 Y19.263 Z-0.422
X11.206 Y19.249 Z-0.446
X11.239 Y19.238 Z-0.464
X11.296 Y19.214 Z-0.504
X11.39 Y19.171 Z-0.577
X11.469 Y19.13 Z-0.646
X11.546 Y19.087 Z-0.72
X11.623 Y19.038 Z-0.803
X11.697 Y18.986 Z-0.892
X11.787 Y18.917 Z-1.01
X11.891 Y18.832 Z-1.157
X11.969 Y18.898 Z-1.045
X12.054 Y18.965 Z-0.929
X12.132 Y19.022 Z-0.832
X12.21 Y19.073 Z-0.744
X12.283 Y19.117 Z-0.669
X12.355 Y19.156 Z-0.602
X12.449 Y19.203 Z-0.524
X12.513 Y19.232 Z-0.474
X12.553 Y19.248 Z-0.449
X12.61 Y19.263 Z-0.424
X12.758 Y19.293 Z-0.377
X12.853 Y19.309 Z-0.353
X12.921 Y19.318 Z-0.34
X13.009 Y19.326 Z-0.33
X13.085 Y19.331 Z-0.326
X13.166 Y19.334 Z-0.325
X13.278 Y19.335 Z-0.328
X13.494 Y19.339 Z-0.336
X13.616 Y19.341 Z-0.34
X13.812 Y19.146 Z-0.001
X13.616 Y19.341 Z-0.34
X13.811 Y19.544 Z-0.001
X13.616 Y19.341 Z-0.34
X13.494 Y19.339 Z-0.336
X13.278 Y19.335 Z-0.328
X13.166 Y19.334 Z-0.325
X13.085 Y19.331 Z-0.326
X13.009 Y19.326 Z-0.33
X12.921 Y19.318 Z-0.34
X12.853 Y19.309 Z-0.353
X12.758 Y19.293 Z-0.377
X12.61 Y19.263 Z-0.424
X12.553 Y19.248 Z-0.449
X12.513 Y19.232 Z-0.474
X12.449 Y19.203 Z-0.524
X12.355 Y19.156 Z-0.602
X12.283 Y19.117 Z-0.669
X12.21 Y19.073 Z-0.744
X12.132 Y19.022 Z-0.832
X12.054 Y18.965 Z-0.929
X11.969 Y18.898 Z-1.045
X11.891 Y18.832 Z-1.157
Y18.736 Z-1.134
Y18.708 Z-1.129
X11.893 Y18.59 Z-1.116
X11.9 Y18.205 Z-1.078
X11.904 Y17.971 Z-1.06
X11.908 Y17.738 Z-1.047
X11.91 Y17.506 Z-1.04
X11.913 Y17.199 Z-1.035
X11.915 Y16.82 Z-1.033
Y15.59 Z-1.034
X11.913 Y15.516 Z-1.037
X11.906 Y15.442 Z-1.049
X11.895 Y15.369 Z-1.069
X11.879 Y15.295 Z-1.097
X11.895 Y15.221 Z-1.069
X11.906 Y15.147 Z-1.049
X11.913 Y15.073 Z-1.037
X11.915 Y15 Z-1.033
X11.916 Y13.347 Z-1.034
X11.915 Y13.232 Z-1.032
X11.911 Y12.864 Z-1.029
X11.909 Y12.62 Z-1.031
X11.908 Y12.391 Z-1.039
X11.907 Y12.208 Z-1.05
Y12.042 Z-1.064
X11.908 Y11.81 Z-1.09
X11.91 Y11.632 Z-1.115
X11.913 Y11.47 Z-1.142
X11.916 Y11.357 Z-1.162
Y11.242 Z-1.189
X11.836 Y11.175 Z-1.073
X11.743 Y11.102 Z-0.947
X11.667 Y11.046 Z-0.851
X11.588 Y10.993 Z-0.761
X11.505 Y10.943 Z-0.676
X11.422 Y10.898 Z-0.599
X11.339 Y10.857 Z-0.53
X11.301 Y10.839 Z-0.499
X11.256 Y10.82 Z-0.467
X11.216 Y10.806 Z-0.444
X11.149 Y10.79 Z-0.418
X11.03 Y10.766 Z-0.38
X10.94 Y10.75 Z-0.356
X10.868 Y10.74 Z-0.342
X10.803 Y10.733 Z-0.334
X10.711 Y10.727 Z-0.327
X10.622 Y10.723 Z-0.326
X10.48 Y10.72 Z-0.33
X10.342 Y10.718 Z-0.335
X10.215 Y10.715 Z-0.339
X10.02 Y10.512 Z-0.001
X10.215 Y10.715 Z-0.339
X10.019 Y10.911 Z-0.001
X10.215 Y10.715 Z-0.339
X10.342 Y10.718 Z-0.335
X10.48 Y10.72 Z-0.33
X10.622 Y10.723 Z-0.326
X10.711 Y10.727 Z-0.327
X10.803 Y10.733 Z-0.334
X10.868 Y10.74 Z-0.342
X10.94 Y10.75 Z-0.356
X11.03 Y10.766 Z-0.38
X11.149 Y10.79 Z-0.418
X11.216 Y10.806 Z-0.444
X11.256 Y10.82 Z-0.467
X11.301 Y10.839 Z-0.499
X11.339 Y10.857 Z-0.53
X11.422 Y10.898 Z-0.599
X11.505 Y10.943 Z-0.676
X11.588 Y10.993 Z-0.761
X11.667 Y11.046 Z-0.851
X11.743 Y11.102 Z-0.947
X11.836 Y11.175 Z-1.073
X11.916 Y11.242 Z-1.189
X12.084 Y11.097 Z-0.937
X12.159 Y11.032 Z-0.826
X12.234 Y10.977 Z-0.731
X12.273 Y10.952 Z-0.688
X12.31 Y10.931 Z-0.651
X12.348 Y10.911 Z-0.619
X12.385 Y10.895 Z-0.59
X12.435 Y10.875 Z-0.557
X12.537 Y10.837 Z-0.494
X12.612 Y10.811 Z-0.45
X12.675 Y10.792 Z-0.418
X12.75 Y10.772 Z-0.385
X12.807 Y10.759 Z-0.365
X12.879 Y10.747 Z-0.346
X12.96 Y10.736 Z-0.332
X13.038 Y10.73 Z-0.324
X13.113 Y10.726 Z-0.322
X13.619 Y10.717 Z-0.339
X13.814 Y10.912 Z-0.001
X13.619 Y10.717 Z-0.339
X13.814 Y10.513 Z-0.001
G0 Z5
X22.237 Y17.257
G1 Z-0.001 F762
X22.449 Y17.479 Z-0.386 F1000
X22.661 Y17.257 Z-0.001
X22.449 Y17.479 Z-0.386
X22.45 Y17.681 Z-0.404
X22.455 Y17.931 Z-0.431
X22.46 Y18.1 Z-0.454
X22.469 Y18.272 Z-0.482
X22.474 Y18.365 Z-0.499
X22.478 Y18.446 Z-0.519
X22.477 Y18.495 Z-0.539
X22.472 Y18.537 Z-0.562
X22.464 Y18.587 Z-0.596
X22.454 Y18.631 Z-0.631
X22.439 Y18.683 Z-0.677
X22.423 Y18.729 Z-0.723
X22.39 Y18.814 Z-0.818
X22.557 Y18.915 Z-0.587
X22.847 Y19.088 Z-0.193
X22.99 Y19.173 Z-0.001
X22.847 Y19.088 Z-0.193
X22.557 Y18.915 Z-0.587
X22.39 Y18.814 Z-0.818
X22.245 Y18.873 Z-0.774
X22.062 Y18.945 Z-0.722
X21.93 Y18.995 Z-0.689
X21.778 Y19.05 Z-0.655
X21.681 Y19.082 Z-0.636
X21.542 Y19.126 Z-0.614
X21.349 Y19.182 Z-0.587
X21.105 Y19.247 Z-0.554
X20.972 Y19.275 Z-0.542
X20.806 Y19.306 Z-0.526
X20.637 Y19.334 Z-0.51
X20.463 Y19.357 Z-0.495
X20.286 Y19.375 Z-0.485
X20.166 Y19.384 Z-0.481
X19.941 Y19.396 Z-0.479
X19.718 Y19.397 Z-0.467
X19.442 Y19.383 Z-0.472
X19.201 Y19.366 Z-0.477
X19.039 Y19.351 Z-0.48
X18.848 Y19.328 Z-0.484
X18.652 Y19.298 Z-0.489
X18.521 Y19.273 Z-0.492
X18.394 Y19.244 Z-0.497
X18.283 Y19.215 Z-0.502
X18.172 Y19.182 Z-0.507
X18.001 Y19.124 Z-0.519
X17.873 Y19.074 Z-0.533
X17.747 Y19.02 Z-0.549
X17.623 Y18.963 Z-0.568
X17.514 Y18.91 Z-0.588
X17.371 Y18.837 Z-0.617
X17.211 Y18.751 Z-0.654
X17.147 Y18.71 Z-0.661
X16.922 Y18.56 Z-0.689
X16.734 Y18.428 Z-0.711
X16.659 Y18.37 Z-0.722
X16.59 Y18.306 Z-0.746
X16.46 Y18.178 Z-0.79
X16.34 Y18.051 Z-0.824
X16.227 Y17.921 Z-0.85
X16.116 Y17.782 Z-0.871
X16.061 Y17.709 Z-0.881
X15.953 Y17.555 Z-0.9
X15.85 Y17.398 Z-0.922
X15.794 Y17.306 Z-0.937
X15.712 Y17.165 Z-0.964
X15.644 Y17.014 Z-0.976
X15.582 Y16.864 Z-0.994
X15.533 Y16.736 Z-1.013
X15.502 Y16.646 Z-1.028
X15.446 Y16.47 Z-1.057
X15.422 Y16.384 Z-1.071
X15.381 Y16.219 Z-1.095
X15.349 Y16.056 Z-1.114
X15.324 Y15.888 Z-1.127
X15.307 Y15.743 Z-1.135
X15.287 Y15.524 Z-1.143
X15.274 Y15.341 Z-1.145
X15.271 Y15.267 Z-1.149
X15.27 Y15.074 Z-1.167
X15.28 Y14.888 Z-1.169
X15.295 Y14.689 Z-1.171
X15.314 Y14.499 Z-1.173
X15.332 Y14.354 Z-1.175
X15.352 Y14.23 Z-1.177
X15.385 Y14.064
X15.404 Y13.984
X15.427 Y13.897 Z-1.175
X15.475 Y13.745 Z-1.17
X15.528 Y13.597 Z-1.163
X15.606 Y13.406 Z-1.154
X15.684 Y13.227 Z-1.146
X15.794 Y12.993 Z-1.136
X15.872 Y12.857 Z-1.109
X15.924 Y12.774 Z-1.098
X15.975 Y12.699 Z-1.093
X16.082 Y12.547 Z-1.081
X16.197 Y12.393 Z-1.065
X16.308 Y12.254 Z-1.047
X16.389 Y12.161 Z-1.032
X16.475 Y12.07 Z-1.014
X16.6 Y11.95 Z-0.986
X16.692 Y11.869 Z-0.966
X16.788 Y11.789 Z-0.947
X16.942 Y11.672 Z-0.92
X17.11 Y11.554 Z-0.896
X17.275 Y11.444 Z-0.878
X17.361 Y11.397 Z-0.859
X17.657 Y11.238 Z-0.798
X17.744 Y11.195 Z-0.783
X17.964 Y11.1 Z-0.76
X18.082 Y11.052 Z-0.746
X18.265 Y10.983 Z-0.722
X18.442 Y10.925 Z-0.697
X18.535 Y10.897 Z-0.683
X18.641 Y10.869 Z-0.668
X18.782 Y10.836 Z-0.649
X18.923 Y10.808 Z-0.631
X19.112 Y10.779 Z-0.613
X19.311 Y10.756 Z-0.598
X19.501 Y10.74 Z-0.587
X19.78 Y10.721 Z-0.577
X19.962 Y10.718 Z-0.562
X20.036 Y10.719 Z-0.56
X20.279 Y10.73 Z-0.555
X20.459 Y10.742 Z-0.549
X20.636 Y10.76 Z-0.539
X20.79 Y10.78 Z-0.528
X20.998 Y10.813 Z-0.515
X21.23 Y10.856 Z-0.504
X21.486 Y10.916 Z-0.484
X21.721 Y10.976 Z-0.464
X21.798 Y11 Z-0.463
X21.971 Y11.058 Z-0.458
X22.097 Y11.103 Z-0.453
X22.26 Y11.168 Z-0.448
X22.376 Y11.219
X22.492 Y11.274 Z-0.451
X22.595 Y11.326 Z-0.458
X22.802 Y11.131 Z-0.001
X22.595 Y11.326 Z-0.458
X22.672 Y11.415 Z-0.392
X22.773 Y11.535 Z-0.31
X22.892 Y11.677 Z-0.22
X22.904 Y11.692 Z-0.21
X23.049 Y11.721 Z-0.002
X22.904 Y11.692 Z-0.21
X22.917 Y11.847 Z-0.001
G0 Z5
X34.703 Y17.261
G1 Z-0.001 F762
X34.916 Y17.483 Z-0.386 F1000
X35.127 Y17.261 Z-0.001
X34.916 Y17.483 Z-0.386
X34.917 Y17.683 Z-0.404
X34.921 Y17.934 Z-0.431
X34.927 Y18.104 Z-0.454
X34.935 Y18.276 Z-0.482
X34.941 Y18.368 Z-0.499
X34.945 Y18.45 Z-0.519
X34.944 Y18.499 Z-0.539
X34.939 Y18.541 Z-0.562
X34.931 Y18.591 Z-0.596
X34.921 Y18.635 Z-0.631
X34.906 Y18.687 Z-0.677
X34.89 Y18.733 Z-0.723
X34.857 Y18.818 Z-0.818
X35.077 Y18.951 Z-0.513
X35.457 Y19.177 Z-0.001
X35.077 Y18.951 Z-0.513
X34.857 Y18.818 Z-0.818
X34.712 Y18.876 Z-0.774
X34.553 Y18.939 Z-0.728
X34.412 Y18.993 Z-0.692
X34.245 Y19.053 Z-0.655
X34.128 Y19.093 Z-0.633
X33.981 Y19.138 Z-0.61
X33.816 Y19.186 Z-0.587
X33.571 Y19.251 Z-0.554
X33.438 Y19.278 Z-0.542
X33.273 Y19.31 Z-0.526
X33.103 Y19.338 Z-0.51
X32.93 Y19.361 Z-0.495
X32.815 Y19.373 Z-0.488
X32.636 Y19.387 Z-0.481
X32.408 Y19.4 Z-0.479
X32.185 Y19.401 Z-0.467
X32.153 Y19.4
X31.788 Y19.379 Z-0.475
X31.641 Y19.367 Z-0.477
X31.431 Y19.346 Z-0.482
X31.315 Y19.332 Z-0.484
X31.119 Y19.302 Z-0.489
X30.988 Y19.276 Z-0.492
X30.86 Y19.248 Z-0.497
X30.749 Y19.218 Z-0.502
X30.639 Y19.185 Z-0.507
X30.468 Y19.127 Z-0.519
X30.34 Y19.078 Z-0.533
X30.214 Y19.024 Z-0.549
X30.09 Y18.967 Z-0.568
X29.981 Y18.914 Z-0.588
X29.871 Y18.858 Z-0.61
X29.762 Y18.801 Z-0.634
X29.677 Y18.755 Z-0.654
X29.614 Y18.714 Z-0.661
X29.389 Y18.563 Z-0.689
X29.201 Y18.432 Z-0.711
X29.126 Y18.374 Z-0.722
X29.057 Y18.31 Z-0.746
X28.926 Y18.181 Z-0.79
X28.806 Y18.055 Z-0.824
X28.694 Y17.925 Z-0.85
X28.583 Y17.786 Z-0.871
X28.528 Y17.713 Z-0.881
X28.42 Y17.559 Z-0.9
X28.317 Y17.401 Z-0.922
X28.261 Y17.31 Z-0.937
X28.178 Y17.169 Z-0.964
X28.111 Y17.018 Z-0.976
X28.049 Y16.868 Z-0.994
X28 Y16.74 Z-1.013
X27.968 Y16.65 Z-1.028
X27.912 Y16.473 Z-1.057
X27.889 Y16.388 Z-1.071
X27.848 Y16.222 Z-1.095
X27.816 Y16.06 Z-1.114
X27.791 Y15.892 Z-1.127
X27.773 Y15.746 Z-1.135
X27.753 Y15.527 Z-1.143
X27.74 Y15.344 Z-1.145
X27.738 Y15.27 Z-1.149
X27.737 Y15.078 Z-1.167
X27.747 Y14.892 Z-1.169
X27.762 Y14.693 Z-1.171
X27.78 Y14.502 Z-1.173
X27.799 Y14.359 Z-1.175
X27.818 Y14.234 Z-1.177
X27.852 Y14.068
X27.871 Y13.988
X27.894 Y13.901 Z-1.175
X27.942 Y13.749 Z-1.17
X27.995 Y13.601 Z-1.163
X28.072 Y13.41 Z-1.154
X28.151 Y13.231 Z-1.146
X28.261 Y12.997 Z-1.136
X28.339 Y12.861 Z-1.109
X28.391 Y12.778 Z-1.098
X28.442 Y12.703 Z-1.093
X28.549 Y12.551 Z-1.081
X28.664 Y12.396 Z-1.065
X28.775 Y12.258 Z-1.047
X28.856 Y12.165 Z-1.032
X28.943 Y12.073 Z-1.014
X29.067 Y11.953 Z-0.986
X29.158 Y11.873 Z-0.966
X29.255 Y11.793 Z-0.947
X29.409 Y11.676 Z-0.92
X29.577 Y11.558 Z-0.896
X29.742 Y11.448 Z-0.878
X29.827 Y11.401 Z-0.859
X30.124 Y11.242 Z-0.798
X30.211 Y11.199 Z-0.783
X30.329 Y11.147 Z-0.771
X30.532 Y11.063 Z-0.748
X30.725 Y10.989 Z-0.723
X30.835 Y10.952 Z-0.708
X31.002 Y10.901 Z-0.683
X31.143 Y10.864 Z-0.663
X31.291 Y10.831 Z-0.643
X31.4 Y10.81 Z-0.63
X31.579 Y10.783 Z-0.613
X31.778 Y10.76 Z-0.598
X31.968 Y10.743 Z-0.587
X32.247 Y10.725 Z-0.577
X32.429 Y10.721 Z-0.562
X32.503 Y10.723 Z-0.56
X32.746 Y10.734 Z-0.555
X32.926 Y10.746 Z-0.549
X33.103 Y10.763 Z-0.539
X33.257 Y10.783 Z-0.528
X33.465 Y10.816 Z-0.515
X33.697 Y10.86 Z-0.504
X33.953 Y10.92 Z-0.484
X34.188 Y10.98 Z-0.464
X34.265 Y11.004 Z-0.462
X34.438 Y11.061 Z-0.458
X34.556 Y11.104 Z-0.453
X34.726 Y11.172 Z-0.448
X34.843 Y11.223
X34.959 Y11.278 Z-0.451
X35.062 Y11.33 Z-0.458
X35.269 Y11.135 Z-0.001
X35.062 Y11.33 Z-0.458
X35.138 Y11.418 Z-0.393
X35.23 Y11.528 Z-0.317
X35.321 Y11.637 Z-0.247
X35.371 Y11.696 Z-0.21
X35.516 Y11.725 Z-0.002
X35.371 Y11.696 Z-0.21
X35.384 Y11.851 Z-0.001
G0 Z5
X36.042 Y19.551
G1 Z-0.001 F762
X36.236 Y19.347 Z-0.337 F1000
X36.042 Y19.153 Z-0.001
X36.236 Y19.347 Z-0.337
X36.391 Y19.343 Z-0.33
X36.495 Y19.34 Z-0.327
X36.592 Y19.335 Z-0.328
X36.65 Y19.33 Z-0.332
X36.72 Y19.323 Z-0.341
X36.793 Y19.312 Z-0.356
X36.869 Y19.297 Z-0.378
X36.984 Y19.271 Z-0.418
X37.046 Y19.255 Z-0.445
X37.161 Y19.216 Z-0.508
X37.241 Y19.186 Z-0.558
X37.31 Y19.158 Z-0.607
X37.385 Y19.125 Z-0.666
X37.511 Y19.064 Z-0.775
X37.577 Y19.028 Z-0.84
X37.659 Y18.977 Z-0.933
X37.794 Y18.887 Z-1.097
X37.886 Y18.822 Z-1.217
X37.826 Y18.745 Z-1.083
X37.779 Y18.681 Z-0.979
X37.725 Y18.603 Z-0.864
X37.683 Y18.536 Z-0.777
X37.649 Y18.476 Z-0.708
X37.623 Y18.423 Z-0.657
X37.601 Y18.374 Z-0.616
X37.585 Y18.328 Z-0.585
X37.577 Y18.302 Z-0.57
X37.567 Y18.265 Z-0.552
X37.56 Y18.228 Z-0.538
X37.555 Y18.191 Z-0.528
X37.552 Y18.155 Z-0.522
Y18.081 Z-0.519
X37.558 Y17.272 Z-0.509
X37.56 Y16.537 Z-0.506
X37.561 Y13.063 Z-0.508
Y12.744 Z-0.515
X37.562 Y12.502 Z-0.526
Y12.237 Z-0.544
Y11.972 Z-0.568
X37.561 Y11.616 Z-0.608
X37.562 Y11.451 Z-0.631
X37.564 Y11.356 Z-0.651
X37.566 Y11.28 Z-0.673
X37.568 Y11.22 Z-0.696
X37.57 Y11.156 Z-0.726
X37.572 Y11.099 Z-0.758
X37.573 Y11.025 Z-0.805
X37.494 Y10.974 Z-0.719
X37.404 Y10.921 Z-0.63
X37.289 Y10.859 Z-0.526
X37.225 Y10.829 Z-0.477
X37.191 Y10.817 Z-0.457
X37.13 Y10.8 Z-0.431
X37.025 Y10.775 Z-0.391
X36.943 Y10.758 Z-0.366
X36.874 Y10.747 Z-0.35
X36.815 Y10.74 Z-0.34
X36.734 Y10.733 Z-0.333
X36.649 Y10.729 Z-0.33
X36.547 Y10.727 Z-0.332
X36.241 Y10.722 Z-0.341
X36.045 Y10.52 Z-0.001
X36.241 Y10.722 Z-0.341
X36.045 Y10.919 Z-0.001
X36.241 Y10.722 Z-0.341
X36.547 Y10.727 Z-0.332
X36.649 Y10.729 Z-0.33
X36.734 Y10.733 Z-0.333
X36.815 Y10.74 Z-0.34
X36.874 Y10.747 Z-0.35
X36.943 Y10.758 Z-0.366
X37.025 Y10.775 Z-0.391
X37.13 Y10.8 Z-0.431
X37.191 Y10.817 Z-0.457
X37.225 Y10.829 Z-0.477
X37.289 Y10.859 Z-0.526
X37.404 Y10.921 Z-0.63
X37.494 Y10.974 Z-0.719
X37.573 Y11.025 Z-0.805
X37.692 Y10.953 Z-0.678
X37.783 Y10.902 Z-0.585
X37.829 Y10.88 Z-0.547
X37.881 Y10.859 Z-0.512
X37.944 Y10.841 Z-0.483
X38.09 Y10.809 Z-0.43
X38.178 Y10.793 Z-0.404
X38.25 Y10.781 Z-0.387
X38.344 Y10.77 Z-0.371
X38.434 Y10.762 Z-0.362
X38.548 Y10.754 Z-0.356
X38.829 Y10.737 Z-0.35
X38.877 Y10.734 Z-0.349
X39.078 Y10.521 Z-0.001
X38.877 Y10.734 Z-0.349
X39.078 Y10.919 Z-0.001
X38.877 Y10.734 Z-0.349
X38.829 Y10.737 Z-0.35
X38.548 Y10.754 Z-0.356
X38.434 Y10.762 Z-0.362
X38.344 Y10.77 Z-0.371
X38.25 Y10.781 Z-0.387
X38.178 Y10.793 Z-0.404
X38.09 Y10.809 Z-0.43
X37.944 Y10.841 Z-0.483
X37.881 Y10.859 Z-0.512
X37.829 Y10.88 Z-0.547
X37.783 Y10.902 Z-0.585
X37.692 Y10.953 Z-0.678
X37.573 Y11.025 Z-0.805
X37.572 Y11.099 Z-0.758
X37.57 Y11.156 Z-0.726
X37.568 Y11.22 Z-0.696
X37.566 Y11.28 Z-0.673
X37.564 Y11.356 Z-0.651
X37.562 Y11.451 Z-0.631
X37.561 Y11.616 Z-0.608
X37.562 Y11.972 Z-0.568
Y12.237 Z-0.544
Y12.502 Z-0.526
X37.561 Y12.744 Z-0.515
Y13.063 Z-0.508
X37.56 Y16.537 Z-0.506
X37.558 Y17.272 Z-0.509
X37.552 Y18.081 Z-0.519
Y18.155 Z-0.522
X37.555 Y18.191 Z-0.528
X37.56 Y18.228 Z-0.538
X37.567 Y18.265 Z-0.552
X37.577 Y18.302 Z-0.57
X37.585 Y18.328 Z-0.585
X37.601 Y18.374 Z-0.616
X37.623 Y18.423 Z-0.657
X37.649 Y18.476 Z-0.708
X37.683 Y18.536 Z-0.777
X37.725 Y18.603 Z-0.864
X37.779 Y18.681 Z-0.979
X37.826 Y18.745 Z-1.083
X37.886 Y18.822 Z-1.217
X37.895 Z-1.218
X37.958 Y18.821 Z-1.227
X38.168 Y19.303 Z-0.418
X38.276 Y19.552 Z-0.001
X38.168 Y19.303 Z-0.418
X37.958 Y18.821 Z-1.227
X37.984 Y18.805 Z-1.208
X38.054 Y18.76 Z-1.163
X38.12 Y18.712 Z-1.126
X38.182 Y18.661 Z-1.098
X38.24 Y18.607 Z-1.079
X38.293 Y18.55 Z-1.068
X38.343 Y18.49 Z-1.065
X38.637 Y18.122 Z-1.06
X39.173 Y17.444 Z-1.043
X39.514 Y17.015 Z-1.033
X39.858 Y16.586 Z-1.029
X40.153 Y16.221 Z-1.027
X42.737 Y13.042 Z-1.04
X43.088 Y12.616 Z-1.044
X43.373 Y12.277 Z-1.049
X43.67 Y11.932 Z-1.056
X44.023 Y11.53 Z-1.06
X44.041 Y11.51 Z-1.061
X44.107 Y11.444 Z-1.071
X44.18 Y11.382 Z-1.094
X44.258 Y11.324 Z-1.129
X44.341 Y11.272 Z-1.177
X44.409 Y11.235 Z-1.222
X44.412 Y11.229 Z-1.219
X44.427 Y11.195 Z-1.196
X44.575 Y11.017 Z-0.956
X44.701 Y10.871 Z-0.752
X44.872 Y10.678 Z-0.475
X45.129 Y10.397 Z-0.06
X45.165 Y10.358 Z-0.001
X45.129 Y10.397 Z-0.06
X44.872 Y10.678 Z-0.475
X44.701 Y10.871 Z-0.752
X44.575 Y11.017 Z-0.956
X44.427 Y11.195 Z-1.196
X44.412 Y11.229 Z-1.219
X44.409 Y11.235 Z-1.222
X44.478 Y11.303 Z-1.098
X44.534 Y11.365 Z-0.995
X44.584 Y11.425 Z-0.905
X44.628 Y11.486 Z-0.823
X44.667 Y11.545 Z-0.752
X44.7 Y11.606 Z-0.689
X44.728 Y11.665 Z-0.638
X44.75 Y11.724 Z-0.596
X44.766 Y11.782 Z-0.564
X44.777 Y11.842 Z-0.541
X44.782 Y11.89 Z-0.53
X44.783 Y11.958 Z-0.525
X44.777 Y12.422 Z-0.515
X44.772 Y13.118 Z-0.506
X44.771 Y16.125 Z-0.503
X44.772 Y16.676 Z-0.496
Y16.948 Z-0.495
Y17.303 Z-0.501
X44.77 Y17.611 Z-0.513
X44.768 Y17.846 Z-0.528
X44.766 Y18.082 Z-0.548
X44.763 Y18.316 Z-0.573
X44.758 Y18.609 Z-0.609
X44.755 Y18.782 Z-0.632
X44.758 Y18.865 Z-0.651
X44.759 Y18.888 Z-0.661
X44.761 Y18.916 Z-0.676
X44.763 Y18.952 Z-0.699
X44.765 Y18.997 Z-0.733
X44.764 Y19.057 Z-0.784
X44.768 Y19.06 Z-0.781
X44.885 Y19.127 Z-0.667
X44.953 Y19.163 Z-0.606
X45.021 Y19.196 Z-0.549
X45.085 Y19.224 Z-0.502
X45.148 Y19.249 Z-0.46
X45.205 Y19.269 Z-0.429
X45.26 Y19.285 Z-0.403
X45.312 Y19.297 Z-0.383
X45.375 Y19.31 Z-0.363
X45.456 Y19.322 Z-0.346
X45.531 Y19.33 Z-0.336
X45.63 Y19.337 Z-0.329
X45.752 Y19.343 Z-0.327
X46.091 Y19.351 Z-0.339
X46.286 Y19.554 Z-0.001
X46.091 Y19.351 Z-0.339
X46.286 Y19.156 Z-0.001
X46.091 Y19.351 Z-0.339
X45.752 Y19.343 Z-0.327
X45.63 Y19.337 Z-0.329
X45.531 Y19.33 Z-0.336
X45.456 Y19.322 Z-0.346
X45.375 Y19.31 Z-0.363
X45.312 Y19.297 Z-0.383
X45.26 Y19.285 Z-0.403
X45.205 Y19.269 Z-0.429
X45.148 Y19.249 Z-0.46
X45.085 Y19.224 Z-0.502
X45.021 Y19.196 Z-0.549
X44.953 Y19.163 Z-0.606
X44.885 Y19.127 Z-0.667
X44.768 Y19.06 Z-0.781
X44.764 Y19.057 Z-0.784
X44.758 Y19.06 Z-0.779
X44.678 Y19.099 Z-0.713
X44.525 Y19.162 Z-0.608
X44.437 Y19.196 Z-0.552
X44.362 Y19.221 Z-0.51
X44.294 Y19.241 Z-0.477
X44.229 Y19.258 Z-0.45
X44.15 Y19.275 Z-0.424
X44.094 Y19.284 Z-0.409
X44.01 Y19.296 Z-0.393
X43.93 Y19.305 Z-0.382
X43.816 Y19.313 Z-0.373
X43.697 Y19.32 Z-0.369
X43.565 Y19.328 Z-0.363
X43.381 Y19.341 Z-0.354
X43.177 Y19.155 Z-0.001
X43.381 Y19.341 Z-0.354
X43.177 Y19.553 Z-0.001
G0 Z5
X54.724 Y17.267
G1 Z-0.001 F762
X54.936 Y17.489 Z-0.386 F1000
X55.148 Y17.267 Z-0.001
X54.936 Y17.489 Z-0.386
X54.938 Y17.689 Z-0.404
X54.942 Y17.941 Z-0.431
X54.948 Y18.11 Z-0.454
X54.956 Y18.282 Z-0.482
X54.962 Y18.375 Z-0.499
X54.966 Y18.456 Z-0.519
X54.964 Y18.505 Z-0.54
X54.96 Y18.547 Z-0.563
X54.952 Y18.597 Z-0.596
X54.941 Y18.641 Z-0.63
X54.927 Y18.693 Z-0.677
X54.911 Y18.739 Z-0.723
X54.877 Y18.824 Z-0.818
X55.093 Y18.954 Z-0.52
X55.335 Y19.098 Z-0.193
X55.478 Y19.183 Z-0.001
X55.335 Y19.098 Z-0.193
X55.093 Y18.954 Z-0.52
X54.877 Y18.824 Z-0.818
X54.653 Y18.914 Z-0.75
X54.489 Y18.978 Z-0.706
X54.318 Y19.041 Z-0.666
X54.168 Y19.092 Z-0.637
X54.03 Y19.136 Z-0.614
X53.836 Y19.192 Z-0.587
X53.589 Y19.257 Z-0.553
X53.506 Y19.275 Z-0.546
X53.292 Y19.316 Z-0.526
X53.12 Y19.344 Z-0.51
X52.945 Y19.367 Z-0.495
X52.773 Y19.385 Z-0.485
X52.654 Y19.394 Z-0.481
X52.483 Y19.404 Z-0.479
X52.41 Y19.407
X52.178 Z-0.466
X51.919 Y19.392 Z-0.472
X51.657 Y19.373 Z-0.477
X51.452 Y19.352 Z-0.482
X51.27 Y19.329 Z-0.485
X51.13 Y19.306 Z-0.489
X50.993 Y19.279 Z-0.493
X50.866 Y19.25 Z-0.497
X50.735 Y19.215 Z-0.503
X50.604 Y19.174 Z-0.51
X50.439 Y19.115 Z-0.525
X50.329 Y19.071 Z-0.537
X50.219 Y19.023 Z-0.551
X50.099 Y18.968 Z-0.57
X49.978 Y18.908 Z-0.592
X49.783 Y18.807 Z-0.634
X49.698 Y18.761 Z-0.654
X49.515 Y18.641 Z-0.676
X49.3 Y18.493 Z-0.702
X49.196 Y18.419 Z-0.713
X49.146 Y18.38 Z-0.722
X49.077 Y18.316 Z-0.746
X48.947 Y18.188 Z-0.79
X48.827 Y18.061 Z-0.824
X48.714 Y17.931 Z-0.85
X48.603 Y17.792 Z-0.871
X48.549 Y17.719 Z-0.881
X48.44 Y17.565 Z-0.9
X48.387 Y17.484 Z-0.911
X48.326 Y17.389 Z-0.925
X48.23 Y17.228 Z-0.953
X48.199 Y17.175 Z-0.964
X48.173 Y17.118 Z-0.967
X48.116 Y16.989 Z-0.979
X48.055 Y16.838 Z-0.999
X47.989 Y16.656 Z-1.028
X47.96 Y16.567 Z-1.042
X47.909 Y16.394 Z-1.071
X47.869 Y16.229 Z-1.095
X47.837 Y16.066 Z-1.114
X47.811 Y15.898 Z-1.127
X47.791 Y15.72 Z-1.137
X47.774 Y15.533 Z-1.143
X47.76 Y15.338 Z-1.145
X47.758 Y15.237 Z-1.153
X47.757 Y15.067 Z-1.169
X47.776 Y14.776 Z-1.17
X47.795 Y14.566 Z-1.172
X47.812 Y14.416 Z-1.175
X47.839 Y14.24 Z-1.177
X47.872 Y14.074
X47.891 Y13.994
X47.936 Y13.836 Z-1.173
X47.978 Y13.71 Z-1.168
X48.023 Y13.589 Z-1.163
X48.101 Y13.397 Z-1.153
X48.184 Y13.21 Z-1.144
X48.281 Y13.003 Z-1.136
X48.362 Y12.862 Z-1.108
X48.413 Y12.782 Z-1.098
X48.523 Y12.622 Z-1.087
X48.632 Y12.471 Z-1.073
X48.752 Y12.317 Z-1.054
X48.85 Y12.201 Z-1.037
X48.947 Y12.096 Z-1.017
X49.024 Y12.019 Z-1
X49.112 Y11.937 Z-0.981
X49.225 Y11.84 Z-0.957
X49.298 Y11.782 Z-0.943
X49.43 Y11.682 Z-0.92
X49.535 Y11.607 Z-0.905
X49.704 Y11.493 Z-0.884
X49.769 Y11.451 Z-0.877
X50.018 Y11.315 Z-0.824
X50.181 Y11.229 Z-0.791
X50.247 Y11.198 Z-0.782
X50.486 Y11.096 Z-0.756
X50.662 Y11.026 Z-0.734
X50.855 Y10.958 Z-0.708
X51.032 Y10.904 Z-0.682
X51.163 Y10.87 Z-0.663
X51.312 Y10.837 Z-0.643
X51.421 Y10.816 Z-0.63
X51.615 Y10.787 Z-0.611
X51.805 Y10.765 Z-0.597
X51.993 Y10.749 Z-0.587
X52.269 Y10.731 Z-0.577
X52.283 Y10.73
X52.481 Y10.728 Z-0.56
X52.707 Y10.737 Z-0.557
X52.914 Y10.75 Z-0.55
X53.064 Y10.763 Z-0.542
X53.243 Y10.785 Z-0.531
X53.43 Y10.813 Z-0.518
X53.648 Y10.852 Z-0.507
X53.725 Y10.867 Z-0.504
X54.001 Y10.933 Z-0.482
X54.233 Y10.993 Z-0.463
X54.406 Y11.049 Z-0.459
X54.584 Y11.113 Z-0.453
X54.751 Y11.18 Z-0.448
X54.882 Y11.237
X55 Y11.294 Z-0.452
X55.083 Y11.336 Z-0.458
X55.29 Y11.141 Z-0.001
X55.083 Y11.336 Z-0.458
X55.159 Y11.425 Z-0.392
X55.26 Y11.545 Z-0.31
X55.392 Y11.702 Z-0.21
X55.537 Y11.731 Z-0.002
X55.392 Y11.702 Z-0.21
X55.404 Y11.857 Z-0.001
G0 Z5
X59.313 Y19.16
G1 Z-0.001 F762
X59.509 Y19.356 Z-0.341 F1000
X59.313 Y19.558 Z-0.001
X59.509 Y19.356 Z-0.341
X59.726 Y19.354 Z-0.334
X59.845 Y19.352 Z-0.332
X59.96 Y19.347 Z-0.336
X60.04 Y19.341 Z-0.343
X60.122 Y19.332 Z-0.355
X60.207 Y19.319 Z-0.374
X60.293 Y19.303 Z-0.401
X60.384 Y19.282 Z-0.434
X60.533 Y19.243 Z-0.499
X60.611 Y19.22 Z-0.538
X60.651 Y19.205 Z-0.564
X60.693 Y19.185 Z-0.597
X60.735 Y19.163 Z-0.635
X60.788 Y19.13 Z-0.692
X60.923 Y19.039 Z-0.848
X61.071 Y18.936 Z-1.026
X61.179 Y18.857 Z-1.163
X61.218 Y18.894 Z-1.097
X61.282 Y18.952 Z-0.998
X61.324 Y18.987 Z-0.937
X61.394 Y19.04 Z-0.846
X61.46 Y19.083 Z-0.773
X61.527 Y19.119 Z-0.711
X61.593 Y19.149 Z-0.661
X61.66 Y19.172 Z-0.622
X61.726 Y19.188 Z-0.595
X61.755 Y19.193 Z-0.587
X61.987 Y19.228 Z-0.533
X62.165 Y19.253 Z-0.496
X62.328 Y19.275 Z-0.466
X62.462 Y19.291 Z-0.447
X62.591 Y19.303 Z-0.433
X62.712 Y19.313 Z-0.424
X62.892 Y19.325 Z-0.416
X63.182 Y19.34 Z-0.411
X63.219 Y19.341 Z-0.412
X63.471 Y19.34 Z-0.428
X63.651 Y19.335 Z-0.442
X63.793 Y19.328 Z-0.457
X63.904 Y19.319 Z-0.47
X64.057 Y19.302 Z-0.494
X64.083 Y19.299 Z-0.499
X64.178 Y19.284 Z-0.519
X64.272 Y19.267 Z-0.542
X64.364 Y19.247 Z-0.567
X64.474 Y19.219 Z-0.601
X64.627 Y19.173 Z-0.651
X64.789 Y19.115 Z-0.705
X64.873 Y19.082 Z-0.731
X65.013 Y19.02 Z-0.772
X65.081 Y18.986 Z-0.789
X65.156 Y18.944 Z-0.812
X65.198 Y18.915 Z-0.831
X65.294 Y18.843 Z-0.878
X65.421 Y18.743 Z-0.939
X65.54 Y18.643 Z-0.999
X65.654 Y18.54 Z-1.062
X65.714 Y18.462 Z-1.081
X65.767 Y18.389 Z-1.1
X65.825 Y18.3 Z-1.125
X65.875 Y18.215 Z-1.148
X65.912 Y18.14 Z-1.164
X65.937 Y18.082 Z-1.174
X65.958 Y18.02 Z-1.179
X65.979 Y17.938 Z-1.181
X65.998 Y17.844 Z-1.18
X66.019 Y17.709 Z-1.178
X66.031 Y17.603 Z-1.176
X66.039 Y17.519 Z-1.175
X66.038 Y17.306 Z-1.144
X66.033 Y17.212 Z-1.13
X66.022 Y17.113 Z-1.119
X66.012 Y17.043 Z-1.108
X65.998 Y16.97 Z-1.093
X65.981 Y16.895 Z-1.074
X65.96 Y16.814 Z-1.051
X65.915 Y16.663 Z-1.005
X65.863 Y16.512 Z-0.961
X65.855 Y16.491 Z-0.956
X65.795 Y16.365 Z-0.909
X65.754 Y16.286 Z-0.882
X65.699 Y16.188 Z-0.851
X65.646 Y16.103 Z-0.825
X65.586 Y16.017 Z-0.8
X65.517 Y15.928 Z-0.77
X65.458 Y15.859 Z-0.745
X65.359 Y15.755 Z-0.702
X65.302 Y15.699 Z-0.678
X65.151 Y15.557 Z-0.611
X65.12 Y15.531 Z-0.6
X65.069 Y15.493 Z-0.589
X65.026 Y15.464 Z-0.583
X64.848 Y15.357 Z-0.54
X64.704 Y15.277 Z-0.509
X64.592 Y15.221 Z-0.487
X64.467 Y15.167 Z-0.466
X64.385 Y15.137 Z-0.454
X64.31 Y15.113 Z-0.445
X64.192 Y15.083 Z-0.432
X64.11 Y15.067 Z-0.424
X64.006 Y15.05 Z-0.417
X63.877 Y15.034 Z-0.41
X63.745 Y15.023 Z-0.406
X63.595 Y15.013 Z-0.401
X63.465 Z-0.389
X63.285 Y15.026 Z-0.387
X63.136 Y15.041 Z-0.382
X62.985 Y15.062 Z-0.378
X62.849 Y15.087 Z-0.376
X62.846
X62.71 Y15.216 Z-0.206
X62.545 Y15.376 Z-0.001
X62.71 Y15.216 Z-0.206
X62.846 Y15.087 Z-0.376
X62.672 Y14.901 Z-0.001
X62.846 Y15.087 Z-0.376
X62.849
X62.985 Y15.062 Z-0.378
X63.136 Y15.041 Z-0.382
X63.285 Y15.026 Z-0.387
X63.465 Y15.013 Z-0.389
X63.595 Z-0.401
X63.745 Y15.023 Z-0.406
X63.877 Y15.034 Z-0.41
X64.006 Y15.05 Z-0.417
X64.11 Y15.067 Z-0.424
X64.192 Y15.083 Z-0.432
X64.31 Y15.113 Z-0.445
X64.385 Y15.137 Z-0.454
X64.467 Y15.167 Z-0.466
X64.592 Y15.221 Z-0.487
X64.704 Y15.277 Z-0.509
X64.848 Y15.357 Z-0.54
X65.026 Y15.464 Z-0.583
X65.069 Y15.493 Z-0.589
X65.12 Y15.531 Z-0.6
X65.151 Y15.557 Z-0.611
X65.302 Y15.699 Z-0.678
X65.359 Y15.755 Z-0.702
X65.458 Y15.859 Z-0.745
X65.517 Y15.928 Z-0.77
X65.586 Y16.017 Z-0.8
X65.646 Y16.103 Z-0.825
X65.699 Y16.188 Z-0.851
X65.754 Y16.286 Z-0.882
X65.795 Y16.365 Z-0.909
X65.855 Y16.491 Z-0.956
X65.863 Y16.512 Z-0.961
X65.915 Y16.663 Z-1.005
X65.96 Y16.814 Z-1.051
X65.981 Y16.895 Z-1.074
X65.998 Y16.97 Z-1.093
X66.012 Y17.043 Z-1.108
X66.022 Y17.113 Z-1.119
X66.033 Y17.212 Z-1.13
X66.038 Y17.306 Z-1.144
X66.039 Y17.519 Z-1.175
X66.031 Y17.603 Z-1.176
X66.019 Y17.709 Z-1.178
X65.998 Y17.844 Z-1.18
X65.979 Y17.938 Z-1.181
X65.958 Y18.02 Z-1.179
X65.937 Y18.082 Z-1.174
X65.912 Y18.14 Z-1.164
X65.875 Y18.215 Z-1.148
X65.825 Y18.3 Z-1.125
X65.767 Y18.389 Z-1.1
X65.714 Y18.462 Z-1.081
X65.654 Y18.54 Z-1.062
X65.54 Y18.643 Z-0.999
X65.421 Y18.743 Z-0.939
X65.294 Y18.843 Z-0.878
X65.198 Y18.915 Z-0.831
X65.156 Y18.944 Z-0.812
X65.081 Y18.986 Z-0.789
X65.013 Y19.02 Z-0.772
X64.873 Y19.082 Z-0.731
X64.789 Y19.115 Z-0.705
X64.627 Y19.173 Z-0.651
X64.474 Y19.219 Z-0.601
X64.364 Y19.247 Z-0.567
X64.272 Y19.267 Z-0.542
X64.178 Y19.284 Z-0.519
X64.083 Y19.299 Z-0.499
X64.057 Y19.302 Z-0.494
X63.904 Y19.319 Z-0.47
X63.793 Y19.328 Z-0.457
X63.651 Y19.335 Z-0.442
X63.471 Y19.34 Z-0.428
X63.219 Y19.341 Z-0.412
X63.182 Y19.34 Z-0.411
X62.892 Y19.325 Z-0.416
X62.712 Y19.313 Z-0.424
X62.591 Y19.303 Z-0.433
X62.462 Y19.291 Z-0.447
X62.328 Y19.275 Z-0.466
X62.165 Y19.253 Z-0.496
X61.987 Y19.228 Z-0.533
X61.755 Y19.193 Z-0.587
X61.726 Y19.188 Z-0.595
X61.66 Y19.172 Z-0.622
X61.593 Y19.149 Z-0.661
X61.527 Y19.119 Z-0.711
X61.46 Y19.083 Z-0.773
X61.394 Y19.04 Z-0.846
X61.324 Y18.987 Z-0.937
X61.282 Y18.952 Z-0.998
X61.218 Y18.894 Z-1.097
X61.179 Y18.857 Z-1.163
X61.188 Y18.778 Z-1.142
X61.195 Y18.694 Z-1.123
X61.204 Y18.567 Z-1.1
X61.208 Y18.459 Z-1.086
X61.21 Y18.321 Z-1.073
Y18.196 Z-1.066
X61.207 Y17.99 Z-1.061
Y17.906 Z-1.058
Y17.411 Z-1.046
X61.211 Y16.667 Z-1.034
Y16.659 Z-1.033
X61.21 Y13.179
X61.202 Y12.758 Z-1.037
X61.199 Y12.478 Z-1.045
X61.198 Y12.246 Z-1.056
X61.199 Y12.089 Z-1.068
X61.2 Y11.902 Z-1.086
X61.204 Y11.696 Z-1.111
X61.211 Y11.463 Z-1.146
X61.215 Y11.324 Z-1.171
X61.216 Y11.255 Z-1.187
X61.419 Y11.08 Z-0.883
X61.492 Y11.021 Z-0.782
X61.566 Y10.971 Z-0.697
X61.603 Y10.95 Z-0.66
X61.639 Y10.93 Z-0.628
X61.713 Y10.899 Z-0.575
X61.865 Y10.844 Z-0.483
X61.952 Y10.816 Z-0.437
X62.029 Y10.794 Z-0.402
X62.088 Y10.78 Z-0.38
X62.165 Y10.765 Z-0.357
X62.231 Y10.755 Z-0.343
X62.305 Y10.747 Z-0.332
X62.381 Y10.742 Z-0.326
X62.459 Y10.738 Z-0.324
X62.571 Y10.736 Z-0.327
X62.823 Y10.733 Z-0.337
X62.915 Y10.731 Z-0.34
X63.11 Y10.528 Z-0.001
X62.915 Y10.731 Z-0.34
X63.11 Y10.927 Z-0.001
X62.915 Y10.731 Z-0.34
X62.823 Y10.733 Z-0.337
X62.571 Y10.736 Z-0.327
X62.459 Y10.738 Z-0.324
X62.381 Y10.742 Z-0.326
X62.305 Y10.747 Z-0.332
X62.231 Y10.755 Z-0.343
X62.165 Y10.765 Z-0.357
X62.088 Y10.78 Z-0.38
X62.029 Y10.794 Z-0.402
X61.952 Y10.816 Z-0.437
X61.865 Y10.844 Z-0.483
X61.713 Y10.899 Z-0.575
X61.639 Y10.93 Z-0.628
X61.603 Y10.95 Z-0.66
X61.566 Y10.971 Z-0.697
X61.492 Y11.021 Z-0.782
X61.419 Y11.08 Z-0.883
X61.216 Y11.255 Z-1.187
X61.114 Y11.168 Z-1.037
X61.032 Y11.101 Z-0.925
X60.961 Y11.048 Z-0.834
X60.889 Y10.998 Z-0.749
X60.822 Y10.956 Z-0.678
X60.74 Y10.909 Z-0.598
X60.636 Y10.853 Z-0.505
X60.575 Y10.826 Z-0.459
X60.539 Y10.813 Z-0.439
X60.48 Y10.798 Z-0.415
X60.379 Y10.776 Z-0.38
X60.294 Y10.76 Z-0.356
X60.237 Y10.752 Z-0.344
X60.159 Y10.744 Z-0.334
X60.1 Y10.74 Z-0.329
X60.025 Y10.737 Z-0.328
X59.906 Y10.735 Z-0.331
X59.731 Y10.733 Z-0.335
X59.512 Y10.729 Z-0.341
X59.315 Y10.926 Z-0.001
X59.512 Y10.729 Z-0.341
X59.315 Y10.527 Z-0.001
G0 Z5
X72.346 Y11.013
G1 Z-0.001 F762
X72.151 Y11.184 Z-0.422 F1000
X72.23 Y11.274 Z-0.35
X72.345 Y11.411 Z-0.248
X72.432 Y11.517 Z-0.172
X72.442 Y11.64 Z-0.001
X72.432 Y11.517 Z-0.172
X72.549 Y11.546 Z-0.001
X72.432 Y11.517 Z-0.172
X72.345 Y11.411 Z-0.248
X72.23 Y11.274 Z-0.35
X72.151 Y11.184 Z-0.422
X72.058 Y11.137 Z-0.425
X71.937 Y11.078 Z-0.432
X71.818 Y11.025 Z-0.439
X71.677 Y10.968 Z-0.444
X71.61 Y10.944 Z-0.448
X71.458 Y10.895 Z-0.457
X71.321 Y10.856 Z-0.466
X71.223 Y10.831 Z-0.475
X71.103 Y10.806 Z-0.485
X71.01 Y10.79 Z-0.494
X70.858 Y10.768 Z-0.512
X70.706 Y10.751 Z-0.529
X70.607 Y10.747 Z-0.545
X70.475 Y10.746 Z-0.566
X70.291 Y10.751 Z-0.591
X70.12 Y10.76 Z-0.618
X70.105 Y10.762 Z-0.619
X69.947 Y10.784 Z-0.638
X69.862 Y10.799 Z-0.651
X69.775 Y10.816 Z-0.667
X69.686 Y10.837 Z-0.686
X69.596 Y10.861 Z-0.708
X69.509 Y10.888 Z-0.731
X69.431 Y10.916 Z-0.753
X69.334 Y10.954 Z-0.781
X69.252 Y10.992 Z-0.805
X69.172 Y11.032 Z-0.827
X69.097 Y11.073 Z-0.845
X69.037 Y11.11 Z-0.858
X68.915 Y11.192 Z-0.88
X68.787 Y11.287 Z-0.896
X68.722 Y11.339 Z-0.904
X68.659 Y11.399 Z-0.922
X68.597 Y11.464 Z-0.945
X68.453 Y11.62 Z-1
X68.38 Y11.725 Z-1.007
X68.303 Y11.842 Z-1.016
X68.229 Y11.959 Z-1.027
X68.185 Y12.034 Z-1.035
X68.109 Y12.178 Z-1.049
X68.059 Y12.286 Z-1.058
X68.022 Y12.379 Z-1.065
X68.018 Y12.39
X67.985 Y12.493 Z-1.069
X67.961 Y12.581 Z-1.071
X67.934 Y12.701 Z-1.07
X67.914 Y12.813 Z-1.068
X67.89 Y12.985 Z-1.065
X67.872 Y13.169 Z-1.061
X67.854 Y13.434 Z-1.057
X67.852 Y13.561 Z-1.045
X67.854 Y13.633 Z-1.042
X67.861 Y13.713 Z-1.046
X67.873 Y13.785 Z-1.057
X67.888 Y13.854 Z-1.074
X67.881 Y13.927 Z-1.049
X67.878 Y13.996 Z-1.03
X67.88 Y14.063 Z-1.018
X67.885 Y14.127 Z-1.01
X67.899 Y14.241 Z-0.993
X67.919 Y14.375 Z-0.968
X67.937 Y14.47 Z-0.947
X67.972 Y14.628 Z-0.908
X68.013 Y14.783 Z-0.87
X68.044 Y14.884 Z-0.847
X68.093 Y15.032 Z-0.818
X68.125 Y15.099 Z-0.794
X68.173 Y15.192 Z-0.761
X68.223 Y15.283 Z-0.732
X68.287 Y15.385 Z-0.698
X68.342 Y15.468 Z-0.669
X68.401 Y15.545 Z-0.638
X68.453 Y15.609 Z-0.61
X68.537 Y15.706 Z-0.562
X68.654 Y15.831 Z-0.493
X68.697 Y15.872 Z-0.471
X68.743 Y15.909 Z-0.459
X68.882 Y16.014 Z-0.425
X68.998 Y16.092 Z-0.394
X69.099 Y16.155 Z-0.372
X69.163 Y16.192 Z-0.362
X69.265 Y16.245 Z-0.351
X69.322 Y16.271 Z-0.347
X69.385 Y16.297 Z-0.346
X69.499 Y16.336 Z-0.348
X69.617 Y16.368 Z-0.353
X69.735 Y16.391 Z-0.358
X69.851 Y16.409 Z-0.363
X70.021 Y16.429 Z-0.368
X70.16 Y16.433 Z-0.385
X70.277 Z-0.402
X70.357 Y16.428 Z-0.408
X70.472 Y16.414 Z-0.419
X70.556 Y16.4 Z-0.431
X70.647 Y16.382 Z-0.449
X70.752 Y16.356 Z-0.473
X70.893 Y16.314 Z-0.507
X70.98 Y16.284 Z-0.526
X71.047 Y16.256 Z-0.545
X71.104 Y16.229 Z-0.562
X71.165 Y16.198 Z-0.577
X71.253 Y16.147 Z-0.599
X71.325 Y16.099 Z-0.616
X71.392 Y16.048 Z-0.634
X71.459 Y15.992 Z-0.655
X71.522 Y15.934 Z-0.678
X71.605 Y15.848 Z-0.715
X71.702 Y15.74 Z-0.762
X71.748 Y15.686 Z-0.788
X71.787 Y15.617 Z-0.806
X71.875 Y15.452 Z-0.85
X71.94 Y15.32 Z-0.885
X71.994 Y15.196 Z-0.915
X72.036 Y15.082 Z-0.941
X72.065 Y14.98 Z-0.959
X72.089 Y14.868 Z-0.974
X72.108 Y14.753 Z-0.984
X72.124 Y14.606 Z-0.994
X72.135 Y14.463 Z-1
X72.142 Y14.267 Z-1.011
X72.279 Y14.157 Z-0.785
X72.469 Y13.995 Z-0.447
X72.719 Y13.787 Z-0.002
X72.469 Y13.995 Z-0.447
X72.279 Y14.157 Z-0.785
X72.142 Y14.267 Z-1.011
X72.034 Y14.144 Z-0.823
X71.946 Y14.047 Z-0.674
X71.894 Y13.997 Z-0.598
X71.86 Y13.971 Z-0.555
X71.827 Y13.947 Z-0.518
X71.789 Y13.924 Z-0.481
X71.751 Y13.904 Z-0.45
X71.713 Y13.887 Z-0.425
X71.674 Y13.874 Z-0.406
X71.635 Y13.865 Z-0.393
X71.577 Y13.857 Z-0.385
X71.208 Y13.834 Z-0.374
X71.029 Y13.827 Z-0.371
X70.756 Y13.821
X70.508 Y13.819 Z-0.373
X69.912 Y13.82 Z-0.378
X69.456 Y13.823 Z-0.384
X68.911 Y13.831 Z-0.398
X68.454 Y13.84 Z-0.413
X68.429 Z-0.416
X68.404 Y13.841 Z-0.424
X68.378 Y13.842 Z-0.437
X68.351 Z-0.454
X68.323 Y13.843 Z-0.476
X68.265 Y13.845 Z-0.534
X68.233 Z-0.57
X68.165 Y13.847 Z-0.659
X68.086 Y13.849 Z-0.769
X67.995 Y13.852 Z-0.907
X67.888 Y13.854 Z-1.074
G0 Z5
X73.266 Y16.173
G1 Z-0.001 F762
X73.461 Y16.001 Z-0.339 F1000
X73.266 Y15.806 Z-0.001
X73.461 Y16.001 Z-0.339
X73.58 Y16.01 Z-0.353
X73.783 Y16.026 Z-0.38
X73.878 Y16.035 Z-0.394
X73.954 Y16.04 Z-0.41
X74.013 Y16.043 Z-0.426
X74.094 Y16.045 Z-0.452
X74.18 Y16.044 Z-0.487
X74.267 Y16.039 Z-0.527
X74.343 Y16.034 Z-0.567
X74.419 Y16.027 Z-0.615
X74.465 Y16.018 Z-0.651
X74.514 Y16.006 Z-0.694
X74.565 Y15.991 Z-0.744
X74.637 Y15.967 Z-0.819
X74.722 Y15.937 Z-0.913
X74.815 Y15.9 Z-1.022
X74.931 Y16.059 Z-0.824
X75.087 Y16.281 Z-0.559
X75.3 Y16.584 Z-0.2
X75.303 Y16.587 Z-0.194
X75.34 Y16.618 Z-0.12
X75.343 Y16.619 Z-0.115
X75.34 Y16.618 Z-0.12
X75.303 Y16.587 Z-0.194
X75.3 Y16.584 Z-0.2
X75.087 Y16.281 Z-0.559
X74.931 Y16.059 Z-0.824
X74.815 Y15.9 Z-1.022
X74.828 Y15.836 Z-0.997
X74.841 Y15.756 Z-0.972
X74.85 Y15.689 Z-0.956
X74.856 Y15.617 Z-0.944
X74.86 Y15.535 Z-0.934
X74.862 Y15.441 Z-0.929
X74.865 Y15.396 Z-0.93
X74.872 Y15.325 Z-0.94
X74.884 Y15.254 Z-0.957
X74.901 Y15.184 Z-0.983
X74.932 Y15.087 Z-1.031
X74.925 Y15.042 Z-1.017
X74.918 Y14.97 Z-1.001
X74.911 Y14.834 Z-0.984
X74.9 Y14.61 Z-0.959
X74.894 Y14.429 Z-0.944
X74.89 Y14.251 Z-0.934
X74.887 Y14.076 Z-0.929
X74.892 Y13.127 Z-0.924
X74.893 Y12.766 Z-0.926
X74.892 Y12.423 Z-0.932
X74.889 Y12.132 Z-0.943
X74.884 Y11.861 Z-0.957
X74.875 Y11.513 Z-0.982
X74.869 Y11.323 Z-0.998
X74.868 Y11.241 Z-1.008
X74.869 Y11.164 Z-1.022
X74.953 Y11.095 Z-0.902
X75.023 Y11.04 Z-0.809
X75.106 Y10.982 Z-0.71
X75.182 Y10.933 Z-0.627
X75.256 Y10.889 Z-0.552
X75.304 Y10.863 Z-0.508
X75.339 Y10.847 Z-0.481
X75.398 Y10.826 Z-0.447
X75.528 Y10.789 Z-0.387
X75.616 Y10.767 Z-0.353
X75.678 Y10.754 Z-0.335
X75.738 Y10.745 Z-0.321
X75.804 Y10.737 Z-0.311
X75.879 Y10.731 Z-0.305
X75.982 Y10.726 Z-0.303
X76.09 Y10.724 Z-0.305
X76.33 Y10.719 Z-0.312
X76.51 Y10.532 Z-0.001
X76.33 Y10.719 Z-0.312
X76.51 Y10.899 Z-0.001
X76.33 Y10.719 Z-0.312
X76.09 Y10.724 Z-0.305
X75.982 Y10.726 Z-0.303
X75.879 Y10.731 Z-0.305
X75.804 Y10.737 Z-0.311
X75.738 Y10.745 Z-0.321
X75.678 Y10.754 Z-0.335
X75.616 Y10.767 Z-0.353
X75.528 Y10.789 Z-0.387
X75.398 Y10.826 Z-0.447
X75.339 Y10.847 Z-0.481
X75.304 Y10.863 Z-0.508
X75.256 Y10.889 Z-0.552
X75.182 Y10.933 Z-0.627
X75.106 Y10.982 Z-0.71
X75.023 Y11.04 Z-0.809
X74.953 Y11.095 Z-0.902
X74.869 Y11.164 Z-1.022
X74.731 Y11.039 Z-0.805
X74.667 Y10.989 Z-0.719
X74.604 Y10.946 Z-0.646
X74.52 Y10.901 Z-0.569
X74.394 Y10.844 Z-0.474
X74.322 Y10.815 Z-0.425
X74.26 Y10.793 Z-0.389
X74.205 Y10.776 Z-0.361
X74.142 Y10.76 Z-0.336
X74.092 Y10.75 Z-0.321
X74.023 Y10.74 Z-0.307
X73.958 Y10.733 Z-0.3
X73.896 Y10.729 Z-0.297
X73.805 Y10.726
X73.447 Y10.719 Z-0.311
X73.268 Y10.531 Z-0.001
X73.447 Y10.719 Z-0.311
X73.267 Y10.898 Z-0.001
X73.447 Y10.719 Z-0.311
X73.805 Y10.726 Z-0.297
X73.896 Y10.729
X73.958 Y10.733 Z-0.3
X74.023 Y10.74 Z-0.307
X74.092 Y10.75 Z-0.321
X74.142 Y10.76 Z-0.336
X74.205 Y10.776 Z-0.361
X74.26 Y10.793 Z-0.389
X74.322 Y10.815 Z-0.425
X74.394 Y10.844 Z-0.474
X74.52 Y10.901 Z-0.569
X74.604 Y10.946 Z-0.646
X74.667 Y10.989 Z-0.719
X74.731 Y11.039 Z-0.805
X74.869 Y11.164 Z-1.022
X74.868 Y11.241 Z-1.008
X74.869 Y11.323 Z-0.998
X74.875 Y11.513 Z-0.982
X74.884 Y11.861 Z-0.957
X74.889 Y12.132 Z-0.943
X74.892 Y12.423 Z-0.932
X74.893 Y12.766 Z-0.926
X74.892 Y13.127 Z-0.924
X74.887 Y14.076 Z-0.929
X74.89 Y14.251 Z-0.934
X74.894 Y14.429 Z-0.944
X74.9 Y14.61 Z-0.959
X74.911 Y14.834 Z-0.984
X74.918 Y14.97 Z-1.001
X74.925 Y15.042 Z-1.017
X74.932 Y15.087 Z-1.031
X75.034 Y15.104 Z-0.879
X75.102 Y15.118 Z-0.779
X75.165 Y15.134 Z-0.691
X75.227 Y15.152 Z-0.606
X75.284 Y15.172 Z-0.531
X75.336 Y15.195 Z-0.467
X75.382 Y15.218 Z-0.414
X75.425 Y15.244 Z-0.372
X75.462 Y15.272 Z-0.339
X75.496 Y15.302 Z-0.318
X75.517 Y15.323 Z-0.31
X75.556 Y15.366 Z-0.299
X75.616 Y15.427 Z-0.289
X75.676 Y15.484 Z-0.284
X75.767 Y15.565 Z-0.283
X75.886 Y15.666 Z-0.289
X75.933 Y15.705 Z-0.293
X76.049 Y15.788 Z-0.318
X76.17 Y15.873 Z-0.347
X76.255 Y15.93 Z-0.372
X76.344 Y15.985 Z-0.402
X76.44 Y16.041 Z-0.44
X76.54 Y16.094 Z-0.486
X76.599 Y16.122 Z-0.513
X76.676 Y16.155 Z-0.548
X76.729 Y16.173 Z-0.568
X76.838 Y16.203 Z-0.601
X76.887 Y16.212 Z-0.61
X77.044 Y16.238 Z-0.638
X77.119 Y16.246 Z-0.655
X77.227 Y16.253 Z-0.677
X77.322 Y16.255 Z-0.693
X77.44 Y16.252 Z-0.713
X77.543 Y16.246 Z-0.732
X77.641 Y16.233 Z-0.75
X77.736 Y16.216 Z-0.77
X77.847 Y16.192 Z-0.797
X77.948 Y16.165 Z-0.823
X78.057 Y16.13 Z-0.849
X78.123 Y16.105 Z-0.861
X78.193 Y16.075 Z-0.874
X78.265 Y16.037 Z-0.892
X78.364 Y15.981 Z-0.915
X78.466 Y15.919 Z-0.943
X78.511 Y15.886 Z-0.952
X78.573 Y15.837 Z-0.965
X78.643 Y15.776 Z-0.982
X78.704 Y15.717 Z-0.998
X78.75 Y15.665 Z-1.009
X78.793 Y15.607 Z-1.015
X78.843 Y15.532 Z-1.021
X78.907 Y15.424 Z-1.027
X78.947 Y15.33 Z-1.013
X78.973 Y15.254 Z-1.008
X79.007 Y15.133 Z-1.01
X79.039 Y15.004 Z-1.007
X79.057 Y14.912 Z-1.001
X79.078 Y14.779 Z-0.99
X79.091 Y14.668 Z-0.98
X79.103 Y14.521 Z-0.968
X79.109 Y14.409 Z-0.961
X79.113 Y14.252 Z-0.954
X79.114 Y14.035 Z-0.948
X79.112 Y13.736 Z-0.945
X79.105 Y13.033 Z-0.941
X79.097 Y12.468 Z-0.943
X79.086 Y11.995 Z-0.95
X79.083 Y11.83 Z-0.958
Y11.66 Z-0.971
X79.084 Y11.543 Z-0.984
X79.087 Y11.422 Z-1.001
X79.094 Y11.254 Z-1.032
X79.098 Y11.175 Z-1.048
X78.84 Y10.924 Z-0.632
X78.567 Y10.653 Z-0.194
X78.447 Y10.532 Z-0.001
X78.567 Y10.653 Z-0.194
X78.84 Y10.924 Z-0.632
X79.098 Y11.175 Z-1.048
X79.3 Y11.012 Z-0.758
X79.343 Y10.979 Z-0.701
X79.388 Y10.949 Z-0.647
X79.431 Y10.924 Z-0.602
X79.499 Y10.89 Z-0.543
X79.627 Y10.835 Z-0.45
X79.688 Y10.811 Z-0.412
X79.752 Y10.79 Z-0.376
X79.799 Y10.776 Z-0.354
X79.855 Y10.763 Z-0.333
X79.897 Y10.755 Z-0.321
X79.957 Y10.746 Z-0.308
X80.022 Y10.739 Z-0.3
X80.093 Y10.734 Z-0.296
X80.195 Y10.73
X80.471 Y10.722 Z-0.309
X80.649 Y10.9 Z-0.001
X80.471 Y10.722 Z-0.309
X80.649 Y10.533 Z-0.001
G0 Z5
X85.046 Y19.573
G1 Z-0.001 F762
X85.246 Y19.392 Z-0.347 F1000
X85.046 Y19.193 Z-0.001
X85.246 Y19.392 Z-0.347
X85.338 Y19.397 Z-0.355
X85.59 Y19.412 Z-0.38
X85.686 Y19.418 Z-0.391
X85.753 Y19.421 Z-0.402
X85.81 Y19.422 Z-0.415
X85.881 Y19.421 Z-0.436
X85.94 Y19.417 Z-0.46
X85.991 Y19.412 Z-0.484
X86.067 Y19.402 Z-0.525
X86.179 Y19.383 Z-0.596
X86.248 Y19.368 Z-0.647
X86.297 Y19.354 Z-0.691
X86.356 Y19.333 Z-0.749
X86.408 Y19.312 Z-0.807
X86.479 Y19.279 Z-0.894
X86.614 Y19.213 Z-1.067
X86.762 Y19.401 Z-0.827
X86.921 Y19.606 Z-0.573
X87.141 Y19.895 Z-0.222
X87.273 Y19.96 Z-0.002
X87.141 Y19.895 Z-0.222
X87.159 Y20.037 Z-0.001
X87.141 Y19.895 Z-0.222
X86.921 Y19.606 Z-0.573
X86.762 Y19.401 Z-0.827
X86.614 Y19.213 Z-1.067
X86.627 Y19.125 Z-1.037
X86.636 Y19.042 Z-1.015
X86.643 Y18.963 Z-0.998
X86.647 Y18.876 Z-0.984
X86.649 Y18.786 Z-0.975
X86.648 Y18.673 Z-0.969
X86.642 Y18.407 Z-0.962
X86.63 Y16.719 Z-0.94
X86.625 Y16.273 Z-0.931
X86.623 Y16.224 Z-0.933
X86.617 Y16.162 Z-0.941
X86.604 Y16.079 Z-0.964
X86.585 Y15.995 Z-0.997
X86.559 Y15.912 Z-1.042
X86.527 Y15.828 Z-1.098
X86.488 Y15.745 Z-1.165
X86.534 Y15.633 Z-1.086
X86.566 Y15.545 Z-1.029
X86.592 Y15.457 Z-0.985
X86.61 Y15.369 Z-0.954
X86.621 Y15.281 Z-0.935
X86.624 Y15.193 Z-0.929
X86.625 Y13.642
X86.624 Y13.518 Z-0.93
X86.622 Y13.265 Z-0.934
X86.617 Y13.066 Z-0.942
X86.611 Y12.928 Z-0.953
X86.603 Y12.788 Z-0.968
X86.591 Y12.644 Z-0.989
X86.576 Y12.501 Z-1.015
X86.56 Y12.376 Z-1.041
X86.534 Y12.192 Z-1.082
X86.557 Y12.13 Z-1.04
X86.574 Y12.077 Z-1.01
X86.589 Y12.025 Z-0.985
X86.601 Y11.972 Z-0.964
X86.61 Y11.919 Z-0.948
X86.618 Y11.866 Z-0.937
X86.623 Y11.812 Z-0.93
X86.625 Y11.773 Z-0.929
X86.627 Y11.648 Z-0.937
X86.631 Y11.48 Z-0.954
X86.635 Y11.361 Z-0.97
X86.644 Y11.161 Z-1.002
X86.763 Y11.067 Z-0.828
X86.828 Y11.023 Z-0.746
X86.885 Y10.987 Z-0.686
X86.942 Y10.956 Z-0.635
X87.015 Y10.925 Z-0.582
X87.129 Y10.881 Z-0.509
X87.206 Y10.854 Z-0.465
X87.279 Y10.832 Z-0.43
X87.349 Y10.814 Z-0.403
X87.417 Y10.801 Z-0.383
X87.479 Y10.79 Z-0.369
X87.568 Y10.779 Z-0.355
X87.652 Y10.77 Z-0.348
X87.928 Y10.745 Z-0.332
X88.014 Y10.737 Z-0.327
X88.203 Y10.535 Z-0.001
X88.014 Y10.737 Z-0.327
X88.202 Y10.903 Z-0.001
X88.014 Y10.737 Z-0.327
X87.928 Y10.745 Z-0.332
X87.652 Y10.77 Z-0.348
X87.568 Y10.779 Z-0.355
X87.479 Y10.79 Z-0.369
X87.417 Y10.801 Z-0.383
X87.349 Y10.814 Z-0.403
X87.279 Y10.832 Z-0.43
X87.206 Y10.854 Z-0.465
X87.129 Y10.881 Z-0.509
X87.015 Y10.925 Z-0.582
X86.942 Y10.956 Z-0.635
X86.885 Y10.987 Z-0.686
X86.828 Y11.023 Z-0.746
X86.763 Y11.067 Z-0.828
X86.644 Y11.161 Z-1.002
X86.395 Y10.911 Z-0.596
X86.05 Y10.565 Z-0.049
X86.02 Y10.535 Z-0.001
X86.05 Y10.565 Z-0.049
X86.395 Y10.911 Z-0.596
X86.644 Y11.161 Z-1.002
X86.635 Y11.361 Z-0.97
X86.631 Y11.48 Z-0.954
X86.627 Y11.648 Z-0.937
X86.625 Y11.773 Z-0.929
X86.623 Y11.812 Z-0.93
X86.618 Y11.866 Z-0.937
X86.61 Y11.919 Z-0.948
X86.601 Y11.972 Z-0.964
X86.589 Y12.025 Z-0.985
X86.574 Y12.077 Z-1.01
X86.557 Y12.13 Z-1.04
X86.534 Y12.192 Z-1.082
X86.479 Y12.178 Z-0.998
X86.373 Y12.145 Z-0.838
X86.28 Y12.11 Z-0.7
X86.224 Y12.086 Z-0.622
X86.185 Y12.07 Z-0.573
X86.137 Y12.048 Z-0.516
X86.092 Y12.024 Z-0.468
X86.05 Y11.997 Z-0.426
X86.013 Y11.968 Z-0.394
X85.979 Y11.937 Z-0.369
X85.949 Y11.903 Z-0.353
X85.888 Y11.835 Z-0.327
X85.826 Y11.768 Z-0.305
X85.76 Y11.702 Z-0.287
X85.695 Y11.64 Z-0.275
X85.628 Y11.581 Z-0.269
X85.529 Y11.497 Z-0.266
X85.406 Y11.397 Z-0.269
X85.346 Y11.35 Z-0.274
X85.209 Y11.254 Z-0.303
X85.094 Y11.178 Z-0.332
X85.017 Y11.129 Z-0.355
X84.934 Y11.079 Z-0.385
X84.847 Y11.03 Z-0.423
X84.758 Y10.984 Z-0.466
X84.669 Y10.941 Z-0.513
X84.544 Y10.885 Z-0.584
X84.461 Y10.869 Z-0.599
X84.349 Y10.849 Z-0.619
X84.299 Y10.844 Z-0.632
X84.172 Y10.837 Z-0.669
X84.085 Y10.836 Z-0.691
X83.935 Y10.838 Z-0.724
X83.778 Y10.848 Z-0.761
X83.722 Y10.857 Z-0.768
X83.639 Y10.872 Z-0.78
X83.559 Y10.889 Z-0.794
X83.483 Y10.907 Z-0.809
X83.359 Y10.942 Z-0.837
X83.272 Y10.972 Z-0.86
X83.208 Y10.997 Z-0.877
X83.149 Y11.022 Z-0.894
X83.044 Y11.074 Z-0.922
X82.951 Y11.129 Z-0.942
X82.857 Y11.194 Z-0.959
X82.757 Y11.272 Z-0.972
X82.651 Y11.363 Z-0.982
X82.539 Y11.466 Z-0.99
X82.482 Y11.522 Z-0.997
X82.442 Y11.567 Z-1.007
X82.414 Y11.6 Z-1.017
X82.295 Y11.781 Z-1.022
X82.199 Y11.933 Z-1.027
X82.143 Y12.03 Z-1.029
X82.081 Y12.144 Z-1.032
X82.018 Y12.276 Z-1.031
X81.992 Y12.34 Z-1.03
X81.946 Y12.469 Z-1.023
X81.925 Y12.539 Z-1.018
X81.889 Y12.685 Z-1.007
X81.873 Y12.767 Z-1.001
X81.859 Y12.849 Z-0.995
X81.84 Y12.987 Z-0.986
X81.821 Y13.181 Z-0.977
X81.807 Y13.369 Z-0.972
X81.805 Y13.591 Z-0.955
X81.806 Y13.725 Z-0.942
X81.813 Y13.845 Z-0.935
X81.819 Y13.925 Z-0.928
X81.833 Y14.056 Z-0.913
X81.847 Y14.152 Z-0.898
X81.869 Y14.273 Z-0.876
X81.906 Y14.438 Z-0.844
X81.951 Y14.615 Z-0.813
X81.961 Y14.643 Z-0.807
X82.006 Y14.766 Z-0.779
X82.036 Y14.843 Z-0.762
X82.083 Y14.947 Z-0.74
X82.131 Y15.04 Z-0.717
X82.165 Y15.097 Z-0.701
X82.225 Y15.187 Z-0.67
X82.291 Y15.278 Z-0.636
X82.392 Y15.406 Z-0.586
X82.415 Y15.43 Z-0.573
X82.619 Y15.64 Z-0.453
X82.661 Y15.68 Z-0.432
X82.687 Y15.701 Z-0.423
X82.84 Y15.817 Z-0.386
X82.956 Y15.899 Z-0.359
X83.07 Y15.976 Z-0.336
X83.171 Y16.038 Z-0.322
X83.22 Y16.067 Z-0.317
X83.31 Y16.116 Z-0.313
X83.372 Y16.147 Z-0.314
X83.448 Y16.182 Z-0.319
X83.57 Y16.23 Z-0.332
X83.703 Y16.276 Z-0.354
X83.797 Y16.303 Z-0.372
X83.905 Y16.33 Z-0.392
X84.019 Y16.354 Z-0.411
X84.105 Y16.369 Z-0.422
X84.17 Y16.379 Z-0.428
X84.25 Y16.384 Z-0.441
X84.428 Y16.388 Z-0.47
X84.561 Y16.387 Z-0.493
X84.605 Y16.383 Z-0.497
X84.695 Y16.373 Z-0.507
X84.809 Y16.357 Z-0.523
X84.913 Y16.336 Z-0.539
X85.013 Y16.31 Z-0.553
X85.189 Y16.258 Z-0.581
X85.315 Y16.214 Z-0.597
X85.428 Y16.167 Z-0.62
X85.543 Y16.114 Z-0.643
X85.674 Y16.049 Z-0.666
X85.797 Y15.982 Z-0.687
X85.914 Y15.913 Z-0.712
X85.965 Y15.884 Z-0.727
X86.015 Y15.859 Z-0.75
X86.07 Y15.835 Z-0.781
X86.126 Y15.815 Z-0.818
X86.183 Y15.797 Z-0.862
X86.243 Y15.781 Z-0.914
X86.305 Y15.768 Z-0.972
X86.369 Y15.757 Z-1.037
X86.436 Y15.749 Z-1.107
X86.488 Y15.745 Z-1.165
G0 Z5
X89.522 Y15.81
G1 Z-0.001 F762
X89.839 Y15.629 Z-0.544 F1000
X89.787 Y15.344 Z-0.448
X89.743 Y15.114 Z-0.378
X89.877 Y14.853 Z-0.001
X89.743 Y15.114 Z-0.378
X89.523 Y14.947 Z-0.001
X89.743 Y15.114 Z-0.378
X89.787 Y15.344 Z-0.448
X89.839 Y15.629 Z-0.544
X89.995 Y15.809 Z-0.408
X90.029 Y15.845 Z-0.383
X90.067 Y15.875 Z-0.369
X90.106 Y15.902 Z-0.363
X90.167 Y15.937 Z-0.362
X90.273 Y15.997
X90.349 Y16.037 Z-0.366
X90.435 Y16.08 Z-0.374
X90.549 Y16.13 Z-0.389
X90.647 Y16.17 Z-0.403
X90.778 Y16.215 Z-0.427
X90.901 Y16.25 Z-0.448
X90.988 Y16.272 Z-0.464
X91.116 Y16.299 Z-0.493
X91.256 Y16.318 Z-0.517
X91.314 Y16.324 Z-0.529
X91.419 Y16.33 Z-0.551
X91.531 Y16.332 Z-0.571
X91.671 Y16.328 Z-0.592
X91.786 Y16.321 Z-0.611
X91.886 Y16.308 Z-0.626
X92.013 Y16.287 Z-0.651
X92.071 Y16.275 Z-0.665
X92.126 Y16.262 Z-0.679
X92.23 Y16.233 Z-0.709
X92.279 Y16.217 Z-0.724
X92.37 Y16.182 Z-0.753
X92.449 Y16.147 Z-0.777
X92.513 Y16.114 Z-0.795
X92.584 Y16.074 Z-0.814
X92.69 Y16.007 Z-0.841
X92.845 Y15.9 Z-0.877
X92.893 Y15.864 Z-0.891
X92.936 Y15.821 Z-0.902
X92.967 Y15.785 Z-0.914
X93.03 Y15.709 Z-0.937
X93.091 Y15.63 Z-0.958
X93.125 Y15.581 Z-0.968
X93.143 Y15.554 Z-0.971
X93.175 Y15.498 Z-0.974
X93.214 Y15.416 Z-0.971
X93.256 Y15.309 Z-0.963
X93.3 Y15.179 Z-0.956
X93.318 Y15.083 Z-0.938
X93.339 Y14.953 Z-0.922
X93.355 Y14.824 Z-0.912
X93.368 Y14.693 Z-0.907
X93.378 Y14.562 Z-0.905
X93.391 Y14.335 Z-0.907
Y14.313 Z-0.908
X93.39 Y14.222 Z-0.918
X93.379 Y14.126 Z-0.943
X93.285 Z-0.792
X93.206 Z-0.67
X93.139 Z-0.571
X93.081 Z-0.491
X93.03 Z-0.429
X92.984 Z-0.382
X92.941 Z-0.348
X92.92 Z-0.337
X92.9 Z-0.329
X92.868 Y14.125 Z-0.322
X92.836 Y14.121 Z-0.32
X92.733 Y14.101 Z-0.322
X92.346 Y14.027 Z-0.334
X92.05 Y13.965 Z-0.346
X91.908 Y13.933 Z-0.354
X91.691 Y13.881 Z-0.368
X91.476 Y13.824 Z-0.385
X91.265 Y13.761 Z-0.406
X91.071 Y13.698 Z-0.43
X90.879 Y13.631 Z-0.455
X90.528 Y13.501 Z-0.504
X90.463 Y13.475 Z-0.516
X90.425 Y13.455 Z-0.53
X90.348 Y13.411 Z-0.566
X90.229 Y13.326 Z-0.607
X90.142 Y13.26 Z-0.639
X90.061 Y13.19 Z-0.671
X90.011 Y13.141 Z-0.69
X89.967 Y13.094 Z-0.707
X89.925 Y13.042 Z-0.724
X89.883 Y12.983 Z-0.741
X89.84 Y12.916 Z-0.761
X89.798 Y12.842 Z-0.785
X89.756 Y12.761 Z-0.814
X89.735 Y12.707 Z-0.827
X89.691 Y12.58 Z-0.86
X89.658 Y12.462 Z-0.891
X89.636 Y12.365 Z-0.912
X89.625 Y12.305 Z-0.922
X89.613 Y12.205 Z-0.933
X89.611 Y12.162 Z-0.938
X89.609 Y12.011 Z-0.96
X89.611 Y11.91 Z-0.975
X89.622 Y11.811 Z-0.983
X89.639 Y11.708 Z-0.994
X89.66 Y11.613 Z-1.006
X89.678 Y11.556 Z-1.012
X89.688 Y11.528 Z-1.014
X89.708 Y11.482 Z-1.015
X89.746 Y11.413 Z-1.01
X89.796 Y11.336 Z-1.001
X89.867 Y11.239 Z-0.991
X89.939 Y11.169 Z-0.96
X90.03 Y11.087 Z-0.923
X90.095 Y11.04 Z-0.905
X90.154 Y11.003 Z-0.89
X90.218 Y10.968 Z-0.869
X90.275 Y10.941 Z-0.847
X90.351 Y10.909 Z-0.817
X90.447 Y10.876 Z-0.78
X90.531 Y10.852 Z-0.75
X90.603 Y10.835 Z-0.729
X90.689 Y10.819 Z-0.708
X90.782 Y10.807 Z-0.689
X90.854 Y10.801 Z-0.676
X90.944 Y10.799 Z-0.659
X91.017 Y10.801 Z-0.643
X91.101 Y10.807 Z-0.621
X91.123 Y10.81 Z-0.613
X91.198 Y10.828 Z-0.59
X91.26 Y10.846 Z-0.567
X91.361 Y10.882 Z-0.522
X91.49 Y10.935 Z-0.461
X91.576 Y10.974 Z-0.423
X91.663 Y11.016 Z-0.39
X91.747 Y11.06 Z-0.363
X91.827 Y11.105 Z-0.341
X91.94 Y11.173 Z-0.316
X92.117 Y11.286 Z-0.284
X92.252 Y11.384 Z-0.279
X92.37 Y11.474 Z-0.277
X92.489 Y11.567 Z-0.281
X92.568 Y11.631 Z-0.287
X92.646 Y11.698 Z-0.297
X92.757 Y11.799 Z-0.319
X92.8 Y11.834 Z-0.335
X92.846 Y11.861 Z-0.364
X92.896 Y11.884 Z-0.405
X92.952 Y11.904 Z-0.459
X93.013 Y11.919 Z-0.525
X93.081 Y11.929 Z-0.604
X93.15 Y11.935 Z-0.692
X93.228 Y11.938 Z-0.795
X93.373 Z-1.004
X93.38 Y11.97 Z-0.989
X93.395 Y12.053 Z-0.958
X93.403 Y12.136 Z-0.939
X93.406 Y12.217 Z-0.931
X93.404 Y12.38 Z-0.93
X93.401 Y12.782 Z-0.932
X93.4 Y13.108 Z-0.936
X93.395 Y13.62
X93.398 Y13.854 Z-0.924
Y13.946 Z-0.919
X93.392 Y14.038 Z-0.925
X93.379 Y14.126 Z-0.943
X93.392 Y14.038 Z-0.925
X93.398 Y13.946 Z-0.919
Y13.854 Z-0.924
X93.395 Y13.62 Z-0.936
X93.4 Y13.108
X93.401 Y12.782 Z-0.932
X93.404 Y12.38 Z-0.93
X93.406 Y12.217 Z-0.931
X93.403 Y12.136 Z-0.939
X93.395 Y12.053 Z-0.958
X93.38 Y11.97 Z-0.989
X93.373 Y11.938 Z-1.004
X93.386 Y11.888 Z-0.985
X93.403 Y11.806 Z-0.963
X93.414 Y11.722 Z-0.952
X93.418 Y11.664
X93.428 Y11.453 Z-0.963
X93.443 Y11.17 Z-0.984
X93.444 Y11.141 Z-0.986
X93.244 Y10.933 Z-0.642
X92.906 Y10.576 Z-0.063
X92.869 Y10.537 Z-0.001
X92.906 Y10.576 Z-0.063
X93.244 Y10.933 Z-0.642
X93.444 Y11.141 Z-0.986
X93.57 Y11.034 Z-0.794
X93.613 Y11.002 Z-0.737
X93.653 Y10.975 Z-0.688
X93.713 Y10.94 Z-0.625
X93.818 Y10.885 Z-0.526
X93.874 Y10.858 Z-0.481
X93.933 Y10.832 Z-0.439
X93.985 Y10.813 Z-0.408
X94.038 Y10.797 Z-0.383
X94.081 Y10.787 Z-0.367
X94.135 Y10.777 Z-0.353
X94.185 Y10.771 Z-0.345
X94.25 Y10.765 Z-0.34
X94.335 Y10.761 Z-0.338
X94.627 Y10.753 Z-0.352
X94.829 Y10.955 Z-0.001
X94.627 Y10.753 Z-0.352
X94.83 Y10.537 Z0
G0 Z5
X95.273 Y15.813
G1 Z-0.001 F762
X95.469 Y16.008 Z-0.339 F1000
X95.274 Y16.179 Z-0.002
X95.469 Y16.008 Z-0.339
X95.588 Y16.016 Z-0.353
X95.757 Y16.03 Z-0.375
X95.863 Y16.04 Z-0.39
X95.96 Y16.047 Z-0.41
X96.021 Y16.05 Z-0.426
X96.102 Y16.052 Z-0.452
X96.188 Y16.05 Z-0.487
X96.3 Y16.044 Z-0.54
X96.379 Y16.039 Z-0.583
X96.426 Y16.033 Z-0.615
X96.474 Y16.025 Z-0.652
X96.521 Y16.013 Z-0.694
X96.571 Y15.998 Z-0.743
X96.624 Y15.981 Z-0.798
X96.727 Y15.944 Z-0.909
X96.822 Y15.906 Z-1.022
X96.938 Y16.065 Z-0.826
X97.095 Y16.287 Z-0.559
X97.276 Y16.547 Z-0.257
X97.301 Y16.583 Z-0.212
X97.31 Y16.594 Z-0.195
X97.345 Y16.622 Z-0.127
X97.351 Y16.627 Z-0.112
X97.345 Y16.622 Z-0.127
X97.31 Y16.594 Z-0.195
X97.301 Y16.583 Z-0.212
X97.276 Y16.547 Z-0.257
X97.095 Y16.287 Z-0.559
X96.938 Y16.065 Z-0.826
X96.822 Y15.906 Z-1.022
X96.836 Y15.843 Z-0.997
X96.849 Y15.764 Z-0.972
X96.857 Y15.695 Z-0.956
X96.863 Y15.624 Z-0.944
X96.867 Y15.542 Z-0.934
X96.87 Y15.448 Z-0.929
X96.872 Y15.403 Z-0.93
X96.879 Y15.332 Z-0.94
X96.892 Y15.261 Z-0.957
X96.909 Y15.19 Z-0.983
X96.939 Y15.094 Z-1.031
X96.932 Y15.048 Z-1.017
X96.923 Y14.95 Z-0.997
X96.91 Y14.668 Z-0.964
X96.902 Y14.472 Z-0.947
X96.898 Y14.312 Z-0.937
X96.895 Y14.115 Z-0.93
X96.894 Y13.901 Z-0.928
X96.897 Y13.545 Z-0.927
X96.9 Y12.988 Z-0.924
Y12.591 Z-0.929
X96.898 Y12.313 Z-0.936
X96.894 Y11.971 Z-0.951
X96.887 Y11.687 Z-0.97
X96.877 Y11.343 Z-0.997
X96.875 Y11.248 Z-1.008
X96.876 Y11.171 Z-1.022
X96.739 Y11.046 Z-0.806
X96.675 Y10.996 Z-0.719
X96.611 Y10.953 Z-0.646
X96.528 Y10.908 Z-0.569
X96.402 Y10.851 Z-0.474
X96.33 Y10.822 Z-0.425
X96.266 Y10.799 Z-0.388
X96.213 Y10.783 Z-0.362
X96.148 Y10.766 Z-0.336
X96.099 Y10.757 Z-0.321
X96.03 Y10.746 Z-0.307
X95.965 Y10.74 Z-0.3
X95.902 Y10.736 Z-0.296
X95.813 Y10.733 Z-0.297
X95.454 Y10.726 Z-0.311
X95.275 Y10.538 Z-0.001
X95.454 Y10.726 Z-0.311
X95.275 Y10.905 Z-0.001
X95.454 Y10.726 Z-0.311
X95.813 Y10.733 Z-0.297
X95.902 Y10.736 Z-0.296
X95.965 Y10.74 Z-0.3
X96.03 Y10.746 Z-0.307
X96.099 Y10.757 Z-0.321
X96.148 Y10.766 Z-0.336
X96.213 Y10.783 Z-0.362
X96.266 Y10.799 Z-0.388
X96.33 Y10.822 Z-0.425
X96.402 Y10.851 Z-0.474
X96.528 Y10.908 Z-0.569
X96.611 Y10.953 Z-0.646
X96.675 Y10.996 Z-0.719
X96.739 Y11.046 Z-0.806
X96.876 Y11.171 Z-1.022
X96.961 Y11.101 Z-0.901
X97.033 Y11.045 Z-0.805
X97.113 Y10.989 Z-0.71
X97.189 Y10.94 Z-0.627
X97.264 Y10.895 Z-0.552
X97.311 Y10.869 Z-0.508
X97.347 Y10.853 Z-0.481
X97.406 Y10.832 Z-0.447
X97.536 Y10.795 Z-0.387
X97.624 Y10.774 Z-0.353
X97.685 Y10.761 Z-0.335
X97.746 Y10.751 Z-0.321
X97.811 Y10.744 Z-0.311
X97.886 Y10.738 Z-0.305
X97.965 Y10.734 Z-0.303
X98.097 Y10.73 Z-0.305
X98.338 Y10.726 Z-0.312
X98.517 Y10.906 Z-0.001
X98.338 Y10.726 Z-0.312
X98.517 Y10.539 Z-0.001
X98.338 Y10.726 Z-0.312
X98.097 Y10.73 Z-0.305
X97.965 Y10.734 Z-0.303
X97.886 Y10.738 Z-0.305
X97.811 Y10.744 Z-0.311
X97.746 Y10.751 Z-0.321
X97.685 Y10.761 Z-0.335
X97.624 Y10.774 Z-0.353
X97.536 Y10.795 Z-0.387
X97.406 Y10.832 Z-0.447
X97.347 Y10.853 Z-0.481
X97.311 Y10.869 Z-0.508
X97.264 Y10.895 Z-0.552
X97.189 Y10.94 Z-0.627
X97.113 Y10.989 Z-0.71
X97.033 Y11.045 Z-0.805
X96.961 Y11.101 Z-0.901
X96.876 Y11.171 Z-1.022
X96.875 Y11.248 Z-1.008
X96.877 Y11.343 Z-0.997
X96.887 Y11.687 Z-0.97
X96.894 Y11.971 Z-0.951
X96.898 Y12.313 Z-0.936
X96.9 Y12.591 Z-0.929
Y12.988 Z-0.924
X96.897 Y13.545 Z-0.927
X96.894 Y13.901 Z-0.928
X96.895 Y14.115 Z-0.93
X96.898 Y14.312 Z-0.937
X96.902 Y14.472 Z-0.947
X96.91 Y14.668 Z-0.964
X96.923 Y14.95 Z-0.997
X96.932 Y15.048 Z-1.017
X96.939 Y15.094 Z-1.031
X97.041 Y15.11 Z-0.88
X97.109 Y15.124 Z-0.781
X97.174 Y15.141 Z-0.689
X97.234 Y15.159 Z-0.606
X97.292 Y15.179 Z-0.531
X97.342 Y15.201 Z-0.468
X97.39 Y15.225 Z-0.414
X97.432 Y15.251 Z-0.371
X97.47 Y15.278 Z-0.34
X97.504 Y15.308 Z-0.318
X97.508 Y15.313 Z-0.316
X97.563 Y15.372 Z-0.299
X97.623 Y15.433 Z-0.289
X97.683 Y15.491 Z-0.284
X97.774 Y15.572 Z-0.283
X97.922 Y15.697 Z-0.291
X98.056 Y15.795 Z-0.318
X98.177 Y15.88 Z-0.347
X98.262 Y15.936 Z-0.372
X98.351 Y15.992 Z-0.402
X98.447 Y16.048 Z-0.44
X98.547 Y16.101 Z-0.486
X98.607 Y16.129 Z-0.514
X98.684 Y16.161 Z-0.548
X98.737 Y16.18 Z-0.568
X98.846 Y16.21 Z-0.601
X98.894 Y16.219 Z-0.61
X99.052 Y16.245 Z-0.638
X99.126 Y16.253 Z-0.655
X99.234 Y16.26 Z-0.677
X99.336 Y16.262 Z-0.694
X99.448 Y16.259 Z-0.713
X99.55 Y16.253 Z-0.732
X99.572 Y16.251 Z-0.737
X99.672 Y16.236 Z-0.754
X99.771 Y16.217 Z-0.776
X99.876 Y16.193 Z-0.803
X99.987 Y16.162 Z-0.831
X100.063 Y16.137 Z-0.848
X100.167 Y16.097 Z-0.867
X100.236 Y16.063 Z-0.883
X100.351 Y16 Z-0.911
X100.471 Y15.927 Z-0.942
X100.516 Y15.894 Z-0.951
X100.58 Y15.843 Z-0.964
X100.657 Y15.778 Z-0.983
X100.708 Y15.727 Z-0.997
X100.759 Y15.67 Z-1.009
X100.799 Y15.616 Z-1.015
X100.851 Y15.537 Z-1.021
X100.914 Y15.432 Z-1.028
X100.954 Y15.337 Z-1.013
X100.978 Y15.268 Z-1.008
X101.001 Y15.19 Z-1.01
X101.041 Y15.031 Z-1.008
X101.055 Y14.969 Z-1.005
X101.075 Y14.858 Z-0.996
X101.092 Y14.735 Z-0.986
X101.104 Y14.623 Z-0.975
X101.113 Y14.488 Z-0.965
X101.12 Y14.302 Z-0.957
X101.121 Y14.201 Z-0.952
Y13.935 Z-0.947
X101.116 Y13.322 Z-0.942
X101.109 Y12.756 Z-0.941
X101.097 Y12.164 Z-0.947
X101.092 Y11.953 Z-0.952
X101.09 Y11.764 Z-0.963
X101.091 Y11.608 Z-0.977
X101.093 Y11.446 Z-0.999
X101.098 Y11.311 Z-1.022
X101.106 Y11.182 Z-1.048
X100.907 Y10.988 Z-0.727
X100.656 Y10.741 Z-0.324
X100.455 Y10.54 Z-0.001
X100.656 Y10.741 Z-0.324
X100.907 Y10.988 Z-0.727
X101.106 Y11.182 Z-1.048
X101.262 Y11.055 Z-0.823
X101.35 Y10.987 Z-0.701
X101.395 Y10.957 Z-0.648
X101.438 Y10.931 Z-0.602
X101.481 Y10.908 Z-0.563
X101.572 Y10.868 Z-0.494
X101.661 Y10.831 Z-0.433
X101.725 Y10.808 Z-0.394
X101.771 Y10.793 Z-0.371
X101.829 Y10.777 Z-0.345
X101.874 Y10.767 Z-0.329
X101.928 Y10.758 Z-0.315
X101.986 Y10.75 Z-0.305
X102.069 Y10.743 Z-0.298
X102.172 Y10.738 Z-0.296
X102.478 Y10.729 Z-0.309
X102.656 Y10.907 Z-0.001
X102.478 Y10.729 Z-0.309
X102.657 Y10.54 Z-0.001
G0 Z5
X102.96 Y15.7
G1 Z-0.001 F762
X103.115 Y15.595 Z-0.269 F1000
X102.961 Y15.428 Z-0.001
X103.115 Y15.595 Z-0.269
X103.283 Y15.633 Z-0.315
X103.468 Y15.675 Z-0.371
X103.654 Y15.716 Z-0.432
X103.965 Y15.787 Z-0.546
X104.028 Y15.799 Z-0.575
X104.076 Y15.803 Z-0.603
X104.129 Y15.805 Z-0.64
X104.164 Z-0.669
X104.2 Z-0.702
X104.278 Z-0.787
X104.371 Z-0.905
X104.489 Z-1.07
X104.492 Y15.76 Z-1.034
X104.494 Y15.719 Z-1.005
X104.496 Y15.682 Z-0.982
X104.499 Y15.616 Z-0.952
X104.502 Y15.558 Z-0.936
X104.504 Y15.529 Z-0.932
X104.506 Y15.472 Z-0.929
X104.505 Y12.933 Z-0.931
X104.502 Y12.558 Z-0.939
X104.503 Y12.392 Z-0.946
X104.505 Y12.267 Z-0.954
X104.514 Y11.985 Z-0.98
X104.527 Y11.738 Z-1.007
X104.536 Y11.658 Z-1.016
X104.554 Y11.555 Z-1.034
X104.571 Y11.489 Z-1.044
X104.597 Y11.407 Z-1.051
X104.628 Y11.327 Z-1.057
X104.638 Y11.304 Z-1.06
X104.67 Y11.254 Z-1.054
X104.705 Y11.207 Z-1.045
X104.732 Y11.178 Z-1.034
X104.775 Y11.138 Z-1.016
X104.819 Y11.1 Z-0.999
X104.91 Y11.038 Z-0.957
X104.985 Y10.991 Z-0.923
X105.038 Y10.962 Z-0.899
X105.093 Y10.938 Z-0.876
X105.191 Y10.905 Z-0.837
X105.278 Y10.88 Z-0.802
X105.361 Y10.859 Z-0.772
X105.441 Y10.846 Z-0.744
X105.521 Y10.838 Z-0.719
X105.604 Y10.835 Z-0.693
X105.684 Y10.838 Z-0.671
X105.792 Y10.846 Z-0.642
X105.88 Y10.856 Z-0.619
X105.922 Y10.864 Z-0.61
X106.017 Y10.912 Z-0.541
X106.093 Y10.955 Z-0.488
X106.152 Y10.991 Z-0.451
X106.222 Y11.037 Z-0.411
X106.317 Y11.105 Z-0.36
X106.425 Y11.189 Z-0.314
X106.489 Y11.243 Z-0.29
X106.536 Y11.286 Z-0.275
X106.551 Y11.41 Z-0.119
X106.56 Y11.504 Z-0.001
X106.551 Y11.41 Z-0.119
X106.536 Y11.286 Z-0.275
X106.743 Y11.285 Z-0.001
X106.536 Y11.286 Z-0.275
X106.489 Y11.243 Z-0.29
X106.425 Y11.189 Z-0.314
X106.317 Y11.105 Z-0.36
X106.222 Y11.037 Z-0.411
X106.152 Y10.991 Z-0.451
X106.093 Y10.955 Z-0.488
X106.017 Y10.912 Z-0.541
X105.922 Y10.864 Z-0.61
X105.88 Y10.856 Z-0.619
X105.792 Y10.846 Z-0.642
X105.684 Y10.838 Z-0.671
X105.604 Y10.835 Z-0.693
X105.521 Y10.838 Z-0.719
X105.441 Y10.846 Z-0.744
X105.361 Y10.859 Z-0.772
X105.278 Y10.88 Z-0.802
X105.191 Y10.905 Z-0.837
X105.093 Y10.938 Z-0.876
X105.038 Y10.962 Z-0.899
X104.985 Y10.991 Z-0.923
X104.91 Y11.038 Z-0.957
X104.819 Y11.1 Z-0.999
X104.775 Y11.138 Z-1.016
X104.732 Y11.178 Z-1.034
X104.705 Y11.207 Z-1.045
X104.67 Y11.254 Z-1.054
X104.638 Y11.304 Z-1.06
X104.628 Y11.327 Z-1.057
X104.597 Y11.407 Z-1.051
X104.571 Y11.489 Z-1.044
X104.554 Y11.555 Z-1.034
X104.536 Y11.658 Z-1.016
X104.527 Y11.738 Z-1.007
X104.514 Y11.985 Z-0.98
X104.505 Y12.267 Z-0.954
X104.503 Y12.392 Z-0.946
X104.502 Y12.558 Z-0.939
X104.505 Y12.933 Z-0.931
X104.506 Y15.472 Z-0.929
X104.504 Y15.529 Z-0.932
X104.502 Y15.558 Z-0.936
X104.499 Y15.616 Z-0.952
X104.496 Y15.682 Z-0.982
X104.494 Y15.719 Z-1.005
X104.492 Y15.76 Z-1.034
X104.489 Y15.805 Z-1.07
X104.506 Y15.834 Z-1.068
X104.602 Z-0.927
X104.686 Z-0.811
X104.76 Z-0.719
X104.826 Z-0.647
X104.856 Z-0.618
X104.913 Z-0.573
X104.94 Z-0.557
X104.966 Z-0.544
X104.992 Z-0.535
X105.017 Z-0.53
X105.253 Z-0.528
X105.677 Y15.837 Z-0.529
X106.209 Y15.845 Z-0.537
X106.461 Y15.851 Z-0.545
X106.49 Y15.819 Z-0.489
X106.742 Y15.531 Z-0.001
X106.49 Y15.819 Z-0.489
X106.461 Y15.851 Z-0.545
X106.812 Y16.183 Z-0.001
X106.461 Y15.851 Z-0.545
X106.209 Y15.845 Z-0.537
X105.677 Y15.837 Z-0.529
X105.253 Y15.834 Z-0.528
X105.017 Z-0.53
X104.992 Z-0.535
X104.966 Z-0.544
X104.94 Z-0.557
X104.913 Z-0.573
X104.856 Z-0.618
X104.826 Z-0.647
X104.76 Z-0.719
X104.686 Z-0.811
X104.602 Z-0.927
X104.506 Z-1.068
Y15.884 Z-1.029
Y15.929 Z-0.998
Y15.97 Z-0.974
Y16.007 Z-0.957
Y16.042 Z-0.944
Y16.075 Z-0.936
Y16.107 Z-0.931
Y16.139 Z-0.929
X104.508 Y16.448 Z-0.94
X104.51 Y16.742 Z-0.952
X104.512 Y17.041 Z-0.966
X104.513 Y17.236 Z-0.977
X104.516 Y17.727 Z-1.012
X104.136 Y17.968 Z-0.368
X103.919 Y18.106 Z-0.001
X104.136 Y17.968 Z-0.368
X104.516 Y17.727 Z-1.012
X104.654 Y17.927 Z-0.794
X104.817 Y18.171 Z-0.538
X104.966 Y18.398 Z-0.307
X105.148 Y18.481 Z-0.001
X104.966 Y18.398 Z-0.307
X104.983 Y18.607 Z-0.001
G0 Z5
X110.434 Y10.542
G1 Z-0.001 F762
X110.682 Y10.797 Z-0.431 F1000
X110.434 Y10.897 Z-0.001
X110.682 Y10.797 Z-0.431
X111.49 Y11.152 Z-1.014
X111.542 Y11.138 Z-0.987
X111.595 Y11.126 Z-0.965
X111.661 Y11.115 Z-0.943
X111.726 Y11.107 Z-0.928
X111.775 Y11.104 Z-0.921
X111.823 Z-0.919
X112.514 Y11.108 Z-0.912
X113.43 Y11.111 Z-0.907
X114.143 Y11.11 Z-0.909
X114.607 Y11.109 Z-0.913
X114.966 Z-0.921
X115.269 Y11.111 Z-0.933
X115.554 Y11.114 Z-0.95
X115.802 Y11.119 Z-0.969
X115.876 Y11.197 Z-0.844
X116.115 Y11.436 Z-0.463
X116.274 Y11.587 Z-0.225
X116.325 Y11.634 Z-0.151
X116.418 Y11.667 Z0
X116.325 Y11.634 Z-0.151
X116.355 Y11.724 Z-0.001
X116.325 Y11.634 Z-0.151
X116.274 Y11.587 Z-0.225
X116.115 Y11.436 Z-0.463
X115.876 Y11.197 Z-0.844
X115.802 Y11.119 Z-0.969
X116.129 Y10.809 Z-0.448
X116.334 Y10.622 Z-0.135
X116.417 Y10.582 Z-0.002
X116.334 Y10.622 Z-0.135
X116.129 Y10.809 Z-0.448
X115.802 Y11.119 Z-0.969
X115.554 Y11.114 Z-0.95
X115.269 Y11.111 Z-0.933
X114.966 Y11.109 Z-0.921
X114.607 Z-0.913
X114.143 Y11.11 Z-0.909
X113.43 Y11.111 Z-0.907
X112.514 Y11.108 Z-0.912
X111.823 Y11.104 Z-0.919
X111.775 Z-0.921
X111.726 Y11.107 Z-0.928
X111.661 Y11.115 Z-0.943
X111.595 Y11.126 Z-0.965
X111.542 Y11.138 Z-0.987
X111.49 Y11.152 Z-1.014
X111.483 Y11.239 Z-0.902
X111.482 Y11.32 Z-0.803
X111.485 Y11.397 Z-0.714
X111.493 Y11.47 Z-0.638
X111.506 Y11.537 Z-0.573
X111.524 Y11.6 Z-0.52
X111.547 Y11.658 Z-0.479
X111.575 Y11.712 Z-0.45
X111.608 Y11.76 Z-0.432
X111.645 Y11.804 Z-0.426
X112.873 Y13.074 Z-0.437
X112.889 Y13.089 Z-0.438
X113.21 Y13.409 Z-0.462
X113.45 Y13.654 Z-0.483
X113.686 Y13.905 Z-0.508
X113.843 Y14.08 Z-0.529
X113.985 Y14.245 Z-0.551
X114.07 Y14.35 Z-0.565
X114.231 Y14.552 Z-0.593
X114.39 Y14.762 Z-0.622
X114.623 Y15.083 Z-0.662
X114.647 Y15.119 Z-0.669
X114.721 Y15.236 Z-0.696
X114.829 Y15.411 Z-0.739
X114.895 Y15.52 Z-0.768
X114.922 Y15.573 Z-0.776
X114.998 Y15.729 Z-0.805
X115.063 Y15.873 Z-0.835
X115.121 Y16.018 Z-0.869
X115.169 Y16.159 Z-0.902
X115.207 Y16.289 Z-0.93
X115.231 Y16.386 Z-0.948
X115.248 Y16.468 Z-0.961
X115.272 Y16.606 Z-0.977
X115.29 Y16.737 Z-0.987
X115.297 Y16.825 Z-0.997
Y16.831 Z-0.998
X115.302 Y17.073 Z-1.037
X115.303 Y17.19 Z-1.057
X115.289 Y17.316 Z-1.063
X115.27 Y17.459 Z-1.073
X115.254 Y17.551 Z-1.082
X115.23 Y17.664 Z-1.094
X115.196 Y17.788 Z-1.108
X115.16 Y17.892 Z-1.119
X115.12 Y17.984 Z-1.126
X115.074 Y18.073 Z-1.127
X115.009 Y18.179 Z-1.125
X114.956 Y18.259 Z-1.122
X114.869 Y18.378 Z-1.116
X114.75 Y18.533 Z-1.109
X114.673 Y18.605 Z-1.089
X114.579 Y18.679 Z-1.08
X114.42 Y18.796 Z-1.066
X114.303 Y18.874 Z-1.053
X114.211 Y18.928 Z-1.041
X114.14 Y18.966 Z-1.031
X114.032 Y19.014 Z-1.012
X113.973 Y19.037 Z-1.001
X113.85 Y19.077 Z-0.978
X113.773 Y19.097 Z-0.965
X113.659 Y19.121 Z-0.948
X113.522 Y19.145 Z-0.931
X113.376 Y19.163 Z-0.918
X113.227 Y19.176 Z-0.91
X113.092 Y19.18 Z-0.895
X112.945 Y19.181 Z-0.879
X112.808 Y19.173 Z-0.872
X112.688 Y19.161 Z-0.862
X112.594 Y19.148 Z-0.852
X112.466 Y19.124 Z-0.837
X112.348 Y19.096 Z-0.822
X112.246 Y19.069 Z-0.813
X112.18 Y19.049 Z-0.809
X112.103 Y19.021 Z-0.798
X111.97 Y18.965 Z-0.779
X111.824 Y18.899 Z-0.758
X111.772 Y18.873 Z-0.75
X111.678 Y18.818 Z-0.738
X111.601 Y18.769 Z-0.727
X111.525 Y18.715 Z-0.716
X111.456 Y18.659 Z-0.708
X111.388 Y18.599 Z-0.705
X111.345 Y18.558 Z-0.706
X110.952 Y18.743 Z-0.001
X111.345 Y18.558 Z-0.706
X111.294 Y18.44 Z-0.634
X111.253 Y18.337 Z-0.577
X111.24 Y18.302 Z-0.56
X111.228 Y18.261 Z-0.546
X111.19 Y18.115 Z-0.505
X111.147 Y17.944 Z-0.46
X111.107 Y17.782 Z-0.426
X111.079 Y17.662 Z-0.404
X111.034 Y17.464 Z-0.376
X110.979 Y17.205 Z-0.349
X110.968 Y17.152 Z-0.344
X111.122 Y16.954 Z-0.001
X110.968 Y17.152 Z-0.344
X110.735 Y16.953 Z0
G0 Z5
X117.68 Y16.399
G1 Z-0.911 F762
X117.676 Y16.346 Z-0.914 F1000
X117.659 Y16.095 Z-0.928
X117.649 Y15.804 Z-0.939
X117.644 Y15.506 Z-0.948
X117.642 Y15.072 Z-0.956
Y14.838 Z-0.955
X117.644 Y14.526 Z-0.956
X117.651 Y14.221 Z-0.955
X117.66 Y14.017 Z-0.956
X117.673 Y13.809 Z-0.954
X117.69 Y13.625 Z-0.953
X117.712 Y13.43 Z-0.951
X117.726 Y13.327 Z-0.949
X117.757 Y13.131 Z-0.948
X117.793 Y12.929 Z-0.949
X117.834 Y12.726 Z-0.954
X117.849 Y12.657 Z-0.957
X117.901 Y12.481 Z-0.945
X117.967 Y12.283 Z-0.931
X118.011 Y12.159 Z-0.919
X118.057 Y12.041 Z-0.905
X118.104 Y11.931 Z-0.886
X118.152 Y11.827 Z-0.863
X118.208 Y11.718 Z-0.832
X118.273 Y11.6 Z-0.792
X118.344 Y11.478 Z-0.747
X118.387 Y11.419 Z-0.734
X118.499 Y11.278 Z-0.713
X118.571 Y11.207 Z-0.684
X118.678 Y11.106 Z-0.644
X118.765 Y11.031 Z-0.616
X118.813 Y10.992 Z-0.601
X118.909 Y10.923 Z-0.574
X118.957 Y10.892 Z-0.561
X119.013 Y10.859 Z-0.545
X119.105 Y10.814 Z-0.523
X119.164 Y10.789 Z-0.509
X119.271 Y10.753 Z-0.487
X119.331 Y10.736 Z-0.475
X119.393 Y10.721 Z-0.464
X119.523 Y10.695 Z-0.445
X119.603 Y10.682 Z-0.435
X119.777 Y10.66 Z-0.419
X119.948 Y10.658 Z-0.379
X119.973 Y10.659 Z-0.374
X120.007 Y10.662 Z-0.372
X120.201 Y10.69 Z-0.371
X120.333 Y10.713
X120.466 Y10.744 Z-0.374
X120.532 Y10.762 Z-0.377
X120.602 Y10.784 Z-0.38
X120.668 Y10.809 Z-0.386
X120.745 Y10.842 Z-0.395
X120.825 Y10.884 Z-0.406
X120.865 Y10.907 Z-0.412
X120.929 Y10.949 Z-0.423
X120.982 Y10.988 Z-0.434
X121.041 Y11.035 Z-0.446
X121.109 Y11.096 Z-0.46
X121.191 Y11.179 Z-0.479
X121.278 Y11.275 Z-0.5
X121.364 Y11.376 Z-0.519
X121.404 Y11.425 Z-0.527
X121.431 Y11.461 Z-0.536
X121.454 Y11.498 Z-0.549
X121.539 Y11.644 Z-0.608
X121.621 Y11.788 Z-0.663
X121.711 Y12.02 Z-0.687
X121.783 Y12.215 Z-0.708
X121.862 Y12.442 Z-0.735
X121.939 Y12.685 Z-0.767
X121.983 Y12.84 Z-0.788
X121.994 Y12.881 Z-0.792
X122.031 Y13.027 Z-0.813
X122.063 Y13.175 Z-0.832
X122.092 Y13.324 Z-0.85
X122.116 Y13.474 Z-0.866
X122.136 Y13.621 Z-0.881
X122.153 Y13.769 Z-0.895
X122.166 Y13.917 Z-0.906
X122.186 Y14.224 Z-0.925
X122.198 Y14.548 Z-0.941
X122.204 Y14.932 Z-0.952
X122.206 Y15.388 Z-0.955
X122.203 Y15.764 Z-0.957
X122.198 Y16.009 Z-0.96
X122.192 Y16.169 Z-0.963
X122.18 Y16.363 Z-0.966
X122.165 Y16.554 Z-0.969
X122.145 Y16.738 Z-0.971
X122.119 Y16.925 Z-0.97
X122.104 Y17.014 Z-0.969
X122.068 Y17.199 Z-0.965
X122.047 Y17.295 Z-0.963
X122.001 Y17.485 Z-0.961
X121.929 Y17.754
X121.905 Y17.841 Z-0.964
X121.807 Y18.097 Z-0.934
X121.765 Y18.202 Z-0.919
X121.722 Y18.3 Z-0.903
X121.678 Y18.391 Z-0.883
X121.635 Y18.475 Z-0.859
X121.585 Y18.565 Z-0.827
X121.558 Y18.61 Z-0.809
X121.528 Y18.655 Z-0.793
X121.49 Y18.704 Z-0.779
X121.397 Y18.811 Z-0.753
X121.288 Y18.931 Z-0.723
X121.271 Y18.95 Z-0.719
X121.176 Y19.03 Z-0.677
X121.061 Y19.12 Z-0.634
X120.975 Y19.182 Z-0.605
X120.884 Y19.239 Z-0.578
X120.835 Y19.266 Z-0.563
X120.747 Y19.309 Z-0.541
X120.68 Y19.336 Z-0.523
X120.599 Y19.364 Z-0.505
X120.491 Y19.393 Z-0.483
X120.434 Y19.406 Z-0.472
X120.315 Y19.429 Z-0.452
X120.233 Y19.441 Z-0.441
X120.09 Y19.458 Z-0.425
X119.882 Y19.463 Z-0.377
X119.817 Y19.459 Z-0.371
X119.683 Y19.439 Z-0.374
X119.547 Y19.415 Z-0.377
X119.409 Y19.385 Z-0.381
X119.338 Y19.367 Z-0.384
X119.268 Y19.346 Z-0.388
X119.199 Y19.322 Z-0.393
X119.123 Y19.291 Z-0.401
X119.042 Y19.253 Z-0.41
X118.965 Y19.21 Z-0.422
X118.926 Y19.185 Z-0.427
X118.864 Y19.141 Z-0.438
X118.807 Y19.097 Z-0.449
X118.749 Y19.048 Z-0.461
X118.65 Y18.952 Z-0.484
X118.594 Y18.894 Z-0.497
X118.488 Y18.774 Z-0.524
X118.414 Y18.686 Z-0.543
X118.359 Y18.616 Z-0.557
X118.321 Y18.558 Z-0.577
X118.219 Y18.384 Z-0.653
X118.123 Y18.146 Z-0.689
X118.032 Y17.911 Z-0.725
X117.966 Y17.726 Z-0.754
X117.891 Y17.497 Z-0.788
X117.848 Y17.353 Z-0.81
X117.838 Y17.318 Z-0.815
X117.804 Y17.184 Z-0.834
X117.774 Y17.052 Z-0.852
X117.748 Y16.921 Z-0.867
X117.724 Y16.777 Z-0.882
X117.704 Y16.63 Z-0.894
X117.688 Y16.487 Z-0.905
X117.68 Y16.399 Z-0.911
G0 Z5
X123.434 Y10.546
G1 Z-0.001 F762
X123.682 Y10.801 Z-0.431 F1000
X123.434 Y10.901 Z-0.001
X123.682 Y10.801 Z-0.431
X124.49 Y11.156 Z-1.014
X124.542 Y11.142 Z-0.987
X124.596 Y11.13 Z-0.964
X124.661 Y11.118 Z-0.942
X124.727 Y11.111 Z-0.928
X124.775 Y11.108 Z-0.921
X124.859 Z-0.918
X125.515 Y11.112 Z-0.912
X126.299 Y11.114 Z-0.908
X126.913
X127.515 Y11.113 Z-0.912
X127.891 Z-0.919
X128.202 Y11.114 Z-0.93
X128.463 Y11.117 Z-0.944
X128.788 Y11.123 Z-0.968
X128.802 Z-0.969
X129.13 Y10.813 Z-0.448
X129.335 Y10.626 Z-0.134
X129.418 Y10.586 Z-0.002
X129.335 Y10.626 Z-0.134
X129.13 Y10.813 Z-0.448
X128.802 Y11.123 Z-0.969
X128.875 Y11.201 Z-0.844
X129.115 Y11.44 Z-0.463
X129.274 Y11.591 Z-0.225
X129.325 Y11.638 Z-0.151
X129.355 Y11.727 Z-0.001
X129.325 Y11.638 Z-0.151
X129.417 Y11.671 Z-0.001
X129.325 Y11.638 Z-0.151
X129.274 Y11.591 Z-0.225
X129.115 Y11.44 Z-0.463
X128.875 Y11.201 Z-0.844
X128.802 Y11.123 Z-0.969
X128.788 Z-0.968
X128.463 Y11.117 Z-0.944
X128.202 Y11.114 Z-0.93
X127.891 Y11.113 Z-0.919
X127.515 Z-0.912
X126.913 Y11.114 Z-0.908
X126.299
X125.515 Y11.112 Z-0.912
X124.859 Y11.108 Z-0.918
X124.775 Z-0.921
X124.727 Y11.111 Z-0.928
X124.661 Y11.118 Z-0.942
X124.596 Y11.13 Z-0.964
X124.542 Y11.142 Z-0.987
X124.49 Y11.156 Z-1.014
X124.483 Y11.243 Z-0.902
X124.482 Y11.324 Z-0.802
X124.485 Y11.401 Z-0.714
X124.493 Y11.474 Z-0.638
X124.506 Y11.541 Z-0.573
X124.524 Y11.604 Z-0.52
X124.547 Y11.662 Z-0.479
X124.575 Y11.716 Z-0.45
X124.608 Y11.764 Z-0.432
X124.645 Y11.808 Z-0.426
X125.81 Y13.012 Z-0.437
X125.882 Y13.087 Z-0.438
X126.21 Y13.413 Z-0.462
X126.45 Y13.658 Z-0.483
X126.609 Y13.825 Z-0.5
X126.724 Y13.95 Z-0.513
X126.899 Y14.148 Z-0.538
X127.068 Y14.35 Z-0.564
X127.213 Y14.533 Z-0.589
X127.39 Y14.766 Z-0.622
X127.623 Y15.087 Z-0.662
X127.647 Y15.123 Z-0.669
X127.697 Y15.202 Z-0.687
X127.829 Y15.415 Z-0.739
X127.896 Y15.526 Z-0.769
X127.923 Y15.579 Z-0.777
X127.998 Y15.733 Z-0.805
X128.063 Y15.877 Z-0.835
X128.121 Y16.022 Z-0.869
X128.169 Y16.163 Z-0.902
X128.207 Y16.293 Z-0.93
X128.231 Y16.39 Z-0.948
X128.248 Y16.471 Z-0.961
X128.272 Y16.61 Z-0.977
X128.29 Y16.741 Z-0.987
X128.297 Y16.829 Z-0.997
Y16.835 Z-0.998
X128.302 Y17.077 Z-1.037
X128.303 Y17.194 Z-1.057
X128.3 Y17.227 Z-1.058
X128.281 Y17.386 Z-1.068
X128.265 Y17.495 Z-1.076
X128.244 Y17.604 Z-1.087
X128.215 Y17.727 Z-1.101
X128.197 Y17.788 Z-1.108
X128.16 Y17.896 Z-1.119
X128.12 Y17.988 Z-1.125
X128.074 Y18.077 Z-1.127
X128.009 Y18.183 Z-1.125
X127.956 Y18.263 Z-1.122
X127.87 Y18.382 Z-1.117
X127.75 Y18.537 Z-1.109
X127.672 Y18.61 Z-1.089
X127.628 Y18.646 Z-1.084
X127.48 Y18.757 Z-1.071
X127.361 Y18.84 Z-1.059
X127.285 Y18.889 Z-1.05
X127.194 Y18.942 Z-1.039
X127.095 Y18.991 Z-1.023
X127.032 Y19.018 Z-1.012
X126.973 Y19.041 Z-1.001
X126.849 Y19.081 Z-0.978
X126.773 Y19.101 Z-0.965
X126.659 Y19.125 Z-0.948
X126.522 Y19.148 Z-0.931
X126.376 Y19.167 Z-0.918
X126.227 Y19.18 Z-0.91
X126.092 Y19.184 Z-0.895
X125.945 Y19.185 Z-0.879
X125.819 Y19.177 Z-0.872
X125.686 Y19.164 Z-0.862
X125.598 Y19.152 Z-0.853
X125.49 Y19.133 Z-0.839
X125.376 Y19.107 Z-0.826
X125.246 Y19.072 Z-0.813
X125.159 Y19.046 Z-0.807
X125.056 Y19.005 Z-0.791
X124.908 Y18.942 Z-0.771
X124.81 Y18.896 Z-0.755
X124.71 Y18.842 Z-0.743
X124.606 Y18.777 Z-0.728
X124.545 Y18.734 Z-0.718
X124.468 Y18.673 Z-0.709
X124.389 Y18.604 Z-0.705
X124.345 Y18.562 Z-0.706
X123.952 Y18.747 Z-0.001
X124.345 Y18.562 Z-0.706
X124.294 Y18.443 Z-0.633
X124.252 Y18.341 Z-0.577
X124.24 Y18.306 Z-0.56
X124.228 Y18.265 Z-0.546
X124.188 Y18.111 Z-0.503
X124.148 Y17.953 Z-0.462
X124.12 Y17.841 Z-0.437
X124.083 Y17.684 Z-0.407
X124.057 Y17.574 Z-0.39
X124.023 Y17.417 Z-0.37
X123.98 Y17.211 Z-0.35
X123.968 Y17.156 Z-0.344
X124.122 Y16.958 Z-0.001
X123.968 Y17.156 Z-0.344
X123.735 Y16.957 Z0
G0 Z5
X130.678 Y16.384
G1 Z-0.913 F762
X130.665 Y16.202 Z-0.922 F1000
X130.657 Y16.061 Z-0.929
X130.648 Y15.778 Z-0.94
X130.644 Y15.498 Z-0.949
X130.642 Y15.076 Z-0.956
X130.641 Y14.842 Z-0.955
X130.644 Y14.53 Z-0.956
X130.651 Y14.225 Z-0.955
X130.66 Y14.021 Z-0.956
X130.673 Y13.813 Z-0.954
X130.69 Y13.629 Z-0.953
X130.713 Y13.434 Z-0.95
X130.741 Y13.234 Z-0.948
X130.774 Y13.035 Z-0.947
X130.779 Y13.006
X130.834 Y12.73 Z-0.954
X130.848 Y12.664 Z-0.957
X130.923 Y12.416 Z-0.94
X130.967 Y12.287 Z-0.931
X131.011 Y12.163 Z-0.919
X131.057 Y12.045 Z-0.905
X131.104 Y11.935 Z-0.886
X131.152 Y11.831 Z-0.863
X131.208 Y11.722 Z-0.832
X131.273 Y11.603 Z-0.791
X131.345 Y11.482 Z-0.747
X131.387 Y11.423 Z-0.734
X131.499 Y11.282 Z-0.713
X131.575 Y11.207 Z-0.682
X131.687 Y11.102 Z-0.641
X131.765 Y11.035 Z-0.616
X131.813 Y10.996 Z-0.601
X131.909 Y10.927 Z-0.574
X131.957 Y10.896 Z-0.56
X132.014 Y10.863 Z-0.545
X132.105 Y10.818 Z-0.523
X132.164 Y10.793 Z-0.509
X132.271 Y10.757 Z-0.486
X132.332 Y10.74 Z-0.475
X132.393 Y10.725 Z-0.464
X132.523 Y10.699 Z-0.445
X132.603 Y10.686 Z-0.435
X132.743 Y10.668 Z-0.421
X132.777 Y10.664 Z-0.419
X132.948 Y10.662 Z-0.379
X132.973 Y10.663 Z-0.374
X133.007 Y10.666 Z-0.372
X133.2 Y10.694 Z-0.371
X133.333 Y10.717
X133.465 Y10.747 Z-0.374
X133.532 Y10.766 Z-0.377
X133.602 Y10.788 Z-0.381
X133.668 Y10.813 Z-0.386
X133.745 Y10.846 Z-0.395
X133.825 Y10.887 Z-0.406
X133.865 Y10.911 Z-0.412
X133.928 Y10.952 Z-0.423
X133.982 Y10.992 Z-0.434
X134.041 Y11.039 Z-0.446
X134.109 Y11.1 Z-0.46
X134.191 Y11.183 Z-0.479
X134.278 Y11.279 Z-0.5
X134.364 Y11.38 Z-0.519
X134.404 Y11.428 Z-0.527
X134.431 Y11.465 Z-0.536
X134.455 Y11.502 Z-0.549
X134.54 Y11.649 Z-0.609
X134.62 Y11.791 Z-0.663
X134.711 Y12.024 Z-0.687
X134.783 Y12.219 Z-0.708
X134.862 Y12.446 Z-0.735
X134.939 Y12.689 Z-0.768
X134.983 Y12.843 Z-0.787
X134.994 Y12.885 Z-0.792
X135.031 Y13.031 Z-0.813
X135.063 Y13.179 Z-0.832
X135.092 Y13.328 Z-0.85
X135.116 Y13.478 Z-0.867
X135.136 Y13.625 Z-0.882
X135.153 Y13.773 Z-0.895
X135.178 Y14.07 Z-0.916
X135.193 Y14.389 Z-0.934
X135.2 Y14.65 Z-0.944
X135.204 Y14.935 Z-0.952
X135.206 Y15.392 Z-0.955
X135.205 Y15.702 Z-0.956
X135.196 Y16.071 Z-0.962
X135.186 Y16.271 Z-0.965
X135.172 Y16.486 Z-0.968
X135.156 Y16.65 Z-0.969
X135.133 Y16.837 Z-0.97
X135.104 Y17.017 Z-0.969
X135.068 Y17.203 Z-0.965
X135.047 Y17.299 Z-0.963
X135.001 Y17.488 Z-0.961
X134.93 Y17.758
X134.905 Y17.845 Z-0.963
X134.807 Y18.101 Z-0.934
X134.765 Y18.206 Z-0.919
X134.722 Y18.304 Z-0.903
X134.678 Y18.396 Z-0.883
X134.635 Y18.479 Z-0.859
X134.585 Y18.568 Z-0.827
X134.558 Y18.614 Z-0.809
X134.528 Y18.659 Z-0.793
X134.49 Y18.708 Z-0.779
X134.398 Y18.814 Z-0.754
X134.288 Y18.935 Z-0.723
X134.271 Y18.954 Z-0.718
X134.176 Y19.034 Z-0.677
X134.061 Y19.124 Z-0.634
X133.975 Y19.186 Z-0.605
X133.884 Y19.243 Z-0.578
X133.835 Y19.27 Z-0.564
X133.747 Y19.313 Z-0.54
X133.682 Y19.339 Z-0.524
X133.599 Y19.368 Z-0.505
X133.491 Y19.397 Z-0.482
X133.435 Y19.41 Z-0.472
X133.315 Y19.433 Z-0.452
X133.233 Y19.445 Z-0.441
X133.09 Y19.462 Z-0.424
X132.882 Y19.467 Z-0.377
X132.816 Y19.462 Z-0.371
X132.683 Y19.443 Z-0.374
X132.547 Y19.419 Z-0.377
X132.409 Y19.389 Z-0.381
X132.338 Y19.371 Z-0.384
X132.268 Y19.349 Z-0.388
X132.199 Y19.326 Z-0.393
X132.123 Y19.295 Z-0.401
X132.042 Y19.257 Z-0.41
X131.965 Y19.213 Z-0.422
X131.926 Y19.189 Z-0.427
X131.865 Y19.145 Z-0.438
X131.807 Y19.101 Z-0.449
X131.75 Y19.052 Z-0.461
X131.684 Y18.991 Z-0.476
X131.594 Y18.898 Z-0.497
X131.488 Y18.778 Z-0.524
X131.414 Y18.689 Z-0.543
X131.359 Y18.62 Z-0.557
X131.321 Y18.562 Z-0.577
X131.219 Y18.388 Z-0.653
X131.123 Y18.149 Z-0.689
X131.032 Y17.915 Z-0.725
X130.966 Y17.729 Z-0.754
X130.891 Y17.501 Z-0.788
X130.848 Y17.357 Z-0.81
X130.838 Y17.322 Z-0.815
X130.804 Y17.188 Z-0.834
X130.774 Y17.055 Z-0.852
X130.748 Y16.925 Z-0.867
X130.723 Y16.777 Z-0.882
X130.691 Y16.521 Z-0.904
X130.678 Y16.384 Z-0.913
G0 Z10
M30
%
