%
(1001)
(T1  D=18.745 CR=0 - ZMIN=-22.4 - flat end mill)
G90 G94
G17
G21

(Rough #2 - 3/4)
M9
T1 M6
S16000 M3
G54
G0 X46.229 Y45.892
Z10
Z5
Z-17.4
G3 X62.815 Y39.408 Z-18.377 I8.293 J-3.242 F670
X46.229 Y45.892 Z-19.354 I-8.293 J3.242
X62.815 Y39.408 Z-20.33 I8.293 J-3.242
X46.229 Y45.892 Z-21.307 I-8.293 J3.242
X62.815 Y39.408 Z-22.284 I8.293 J-3.242
X63.426 Y42.65 Z-22.4 I-8.293 J3.242
X45.618 I-8.904
X63.426 I8.904
G1 X63.428 Y43.049 F1400
X63.466 Y43.446
X63.54 Y43.838
X63.979 Y45.372
X64.042 Y45.5
X64.165 Y45.775
X64.277 Y46.09
X64.372 Y46.446
X64.444 Y46.842
X64.487 Y47.276
X64.496 Y47.746
X64.465 Y48.25
X64.389 Y48.785
X64.263 Y49.344
X64.082 Y49.925
X63.842 Y50.521
X63.541 Y51.125
X63.175 Y51.732
X62.742 Y52.333
X62.243 Y52.921
X61.677 Y53.488
X61.046 Y54.027
X60.351 Y54.529
X59.596 Y54.987
X58.785 Y55.394
X57.923 Y55.744
X57.015 Y56.029
X56.068 Y56.245
X55.088 Y56.387
X54.084 Y56.451
X53.063 Y56.434
X52.033 Y56.333
X51.002 Y56.148
X49.978 Y55.878
X48.97 Y55.524
X47.985 Y55.086
X47.032 Y54.566
X46.117 Y53.968
X45.248 Y53.294
X44.432 Y52.55
X43.676 Y51.738
X42.984 Y50.865
X42.362 Y49.936
X41.815 Y48.957
X41.347 Y47.934
X40.962 Y46.875
X40.662 Y45.787
X40.451 Y44.675
X40.329 Y43.549
X40.298 Y42.415
X40.358 Y41.28
X40.509 Y40.153
X40.75 Y39.041
X41.08 Y37.951
X41.497 Y36.89
X41.997 Y35.865
X42.579 Y34.884
X43.238 Y33.951
X43.97 Y33.075
X44.77 Y32.259
X45.634 Y31.51
X46.554 Y30.833
X47.527 Y30.232
X48.545 Y29.71
X49.601 Y29.272
X50.69 Y28.92
X51.803 Y28.657
X52.934 Y28.483
X54.076 Y28.401
X55.22 Y28.411
X56.361 Y28.513
X57.489 Y28.706
X58.598 Y28.988
X59.681 Y29.359
X60.731 Y29.816
X61.741 Y30.356
X62.704 Y30.974
X63.615 Y31.669
X64.467 Y32.434
X65.255 Y33.265
X65.973 Y34.156
X66.665 Y35.172
X67.455 Y36.559
X68.195 Y37.973
X68.86 Y39.423
X69.425 Y40.916
X69.83 Y42.309
X70.105 Y43.649
X70.266 Y44.957
X70.319 Y46.232
X70.271 Y47.481
X70.125 Y48.707
X69.882 Y49.911
X69.543 Y51.092
X69.109 Y52.245
X68.581 Y53.366
X67.96 Y54.45
X67.247 Y55.491
X66.445 Y56.481
X65.554 Y57.415
X64.578 Y58.287
X63.52 Y59.089
X62.385 Y59.813
X61.179 Y60.454
X59.908 Y61.002
X58.581 Y61.453
X57.205 Y61.8
X55.788 Y62.038
X54.342 Y62.163
X52.875 Y62.171
X51.4 Y62.061
X49.926 Y61.831
X48.464 Y61.481
X47.024 Y61.011
X45.616 Y60.423
X44.252 Y59.719
X42.94 Y58.903
X41.692 Y57.98
X40.516 Y56.954
X39.421 Y55.832
X38.415 Y54.621
X37.507 Y53.328
X36.703 Y51.963
X36.009 Y50.532
X35.43 Y49.047
X34.972 Y47.519
X34.638 Y45.958
X34.429 Y44.376
X34.348 Y42.783
X34.394 Y41.187
X34.567 Y39.601
X34.865 Y38.034
X35.287 Y36.495
X35.83 Y34.994
X36.49 Y33.541
X37.263 Y32.145
X38.144 Y30.814
X39.127 Y29.558
X40.207 Y28.383
X41.376 Y27.297
X42.628 Y26.307
X43.953 Y25.419
X45.345 Y24.638
X46.794 Y23.97
X48.291 Y23.418
X49.827 Y22.985
X51.393 Y22.676
X52.978 Y22.491
X54.572 Y22.431
X56.167 Y22.498
X57.751 Y22.69
X59.315 Y23.006
X60.849 Y23.445
X62.344 Y24.003
X63.79 Y24.678
X65.179 Y25.464
X66.501 Y26.358
X67.749 Y27.351
X68.92 Y28.436
X70.017 Y29.594
X71.04 Y30.819
X71.988 Y32.103
X72.857 Y33.441
X73.646 Y34.828
X74.349 Y36.261
X74.959 Y37.735
X75.471 Y39.247
X75.882 Y40.789
X76.187 Y42.355
X76.383 Y43.939
X76.468 Y45.532
X76.44 Y47.128
X76.299 Y48.717
X76.044 Y50.292
X75.676 Y51.845
X75.197 Y53.367
X74.608 Y54.85
X73.912 Y56.286
X73.113 Y57.668
X72.216 Y58.987
X71.226 Y60.239
X70.15 Y61.417
X68.994 Y62.517
X67.764 Y63.534
X66.465 Y64.461
X65.105 Y65.295
X63.689 Y66.032
X62.227 Y66.671
X60.725 Y67.21
X59.705 Y67.501
X59.407 Y67.571
X59.105 Y67.613
X58.799 Y67.627
X51.717
X50.123 Y67.548
X48.536 Y67.386
X46.966 Y67.102
X45.421 Y66.701
X43.91 Y66.187
X42.441 Y65.566
X41.017 Y64.844
X39.645 Y64.029
X38.33 Y63.125
X37.839 Y62.736
X37.542 Y62.471
X37.279 Y62.171
X37.054 Y61.842
X36.871 Y61.489
X36.712 Y61.133
X36.572 Y60.831
X36.09 Y60.013
X36.011 Y59.885
X35.238 Y58.893
X34.889 Y58.529
X34.68 Y58.332
X33.582 Y57.193
X32.579 Y55.967
X31.67 Y54.656
X30.866 Y53.278
X30.169 Y51.842
X29.578 Y50.36
X29.09 Y48.84
X28.706 Y47.292
X28.426 Y45.721
X28.252 Y44.134
X28.18 Y42.54
X28.208 Y40.945
X28.336 Y39.354
X28.566 Y37.775
X28.895 Y36.214
X29.317 Y34.675
X29.833 Y33.165
X30.442 Y31.69
X31.141 Y30.255
X31.433 Y29.737
X31.674 Y29.368
X31.959 Y29.031
X32.285 Y28.733
X32.645 Y28.478
X33.206 Y28.133
X33.767 Y27.742
X34.073 Y27.528
X34.328 Y27.298
X34.889 Y26.771
X35.238 Y26.407
X36.011 Y25.415
X36.035 Y25.377
X36.496 Y24.709
X37.415 Y23.584
X38.498 Y22.457
X39.692 Y21.398
X40.964 Y20.435
X42.303 Y19.567
X43.702 Y18.8
X45.152 Y18.132
X45.789 Y17.889
X46.171 Y17.769
X46.565 Y17.697
X46.964 Y17.673
X57.887
X59.481 Y17.752
X60.276 Y17.827
X61.747 Y18.028
X63.303 Y18.37
X64.829 Y18.836
X66.316 Y19.416
X67.756 Y20.102
X69.145 Y20.888
X70.48 Y21.763
X71.758 Y22.719
X72.977 Y23.748
X74.137 Y24.844
X75.234 Y26.003
X76.265 Y27.22
X77.23 Y28.492
X78.126 Y29.812
X78.953 Y31.176
X79.707 Y32.583
X80.383 Y34.028
X80.982 Y35.507
X81.502 Y37.016
X81.943 Y38.55
X82.298 Y40.105
X82.568 Y41.678
X82.752 Y43.263
X82.852 Y44.856
X82.863 Y46.452
X82.785 Y48.045
X82.618 Y49.632
X82.365 Y51.208
X82.026 Y52.767
X81.597 Y54.304
X81.083 Y55.815
X80.486 Y57.295
X79.808 Y58.739
X79.05 Y60.144
X78.214 Y61.503
X77.304 Y62.813
X76.323 Y64.072
X75.276 Y65.276
X74.162 Y66.419
X73.791 Y66.759
X73.407 Y67.062
X72.982 Y67.305
X72.526 Y67.483
X72.048 Y67.591
X71.56 Y67.627
X58.799
G3 X58.191 Y67.503 I0.065 J-1.873 F1000
G1 X58.04 Y67.445
X35.359 Y58.717 F1400
X35.242 Y58.672 F1000
G3 X34.68 Y58.332 I0.673 J-1.749
G1 X34.328 Y58.002 F1400
X34.073 Y57.772
X33.767 Y57.558
X33.206 Y57.167
X32.645 Y56.822
X32.084 Y56.537
X31.523 Y56.311
X30.962 Y56.096
X30.647 Y56.01
X30.139 Y55.843
X29.62 Y55.625
X29.064 Y55.337
X28.459 Y54.96
X27.831 Y54.494
X27.174 Y53.918
X26.493 Y53.219
X25.828 Y52.415
X25.149 Y51.446
X24.498 Y50.337
X23.897 Y49.094
X23.348 Y47.676
X22.892 Y46.147
X22.556 Y44.587
X22.332 Y43.007
X22.215 Y41.416
X22.202 Y39.82
X22.287 Y38.226
X22.467 Y36.641
X22.736 Y35.068
X23.091 Y33.512
X23.539 Y31.981
X23.604 Y31.809
X23.815 Y31.357
X24.091 Y30.941
X24.427 Y30.573
X24.815 Y30.259
X25.245 Y30.007
X25.709 Y29.823
X26.195 Y29.71
X26.692 Y29.673
X27.597
X28.158 Y29.661
G3 X28.918 Y29.833 I-0.026 J1.874 F1000
X29.991 Y31.293 I-0.786 J1.702 F1400
G1 X32.937 Y53.944
G3 X31.427 Y56.028 I-1.859 J0.242
X30.647 Y56.01 I-0.348 J-1.842 F1000
G1 X30.401 Y55.943 F1400
X29.84 Y55.814
X29.28 Y55.726
X28.719 Y55.667
X28.158 Y55.639
X27.597 Y55.627
X27.036
X26.458 Y55.598
X26.004 Y55.539
X25.48 Y55.427
X24.941 Y55.265
X24.328 Y55.027
X23.714 Y54.729
X23.028 Y54.325
X22.353 Y53.851
X21.623 Y53.244
X20.907 Y52.546
X20.18 Y51.713
X19.447 Y50.722
X18.76 Y49.618
X18.107 Y48.353
X17.928 Y47.924
X17.787 Y47.512
X17.701 Y47.085
X17.673 Y46.651
Y35.369
X17.737 Y34.079
X17.855 Y33.177
X18.033 Y32.345
X18.275 Y31.54
X18.464 Y31.144
X18.711 Y30.781
X19.009 Y30.458
X19.351 Y30.184
X19.731 Y29.964
X20.14 Y29.803
X20.568 Y29.705
X21.006 Y29.673
G3 X21.762 Y29.861 I-0.065 J1.873 F1000
X22.698 Y32.198 I-0.822 J1.685 F1400
G1 X21.303 Y35.956
G3 X17.861 Y36.125 I-1.757 J-0.652
X17.673 Y35.369 I1.685 J-0.822 F1000
G1 Y32.008 F1400
X17.676 Y31.448
X17.714 Y31.168
X17.798 Y30.888
X17.907 Y30.654
X18.061 Y30.419
X18.136 Y30.328
X18.257 Y30.201
X18.379 Y30.096
X18.622 Y29.928
X18.798 Y29.837
X18.975 Y29.768
X19.183 Y29.712
X19.463 Y29.675
X19.744 Y29.673
X26.692
G3 X27.449 Y29.861 I-0.065 J1.873 F1000
X28.501 Y31.517 I-0.822 J1.685 F1400
G1 X28.845 Y53.725
G3 X27.792 Y55.439 I-1.874 J0.029
X27.036 Y55.627 I-0.822 J-1.685 F1000
G1 X21.987 F1400
X21.23 Y55.59
X20.712 Y55.522
X20.13 Y55.397
X19.52 Y55.214
X19.128 Y55.027
X18.769 Y54.783
X18.45 Y54.488
X18.179 Y54.149
X17.961 Y53.773
X17.802 Y53.369
X17.705 Y52.945
X17.673 Y52.512
G3 X17.861 Y51.756 I1.873 J0.065 F1000
X20.378 Y50.898 I1.685 J0.822 F1400
G1 X22.754 Y52.074
G3 X22.744 Y55.439 I-0.832 J1.68
X21.987 Y55.627 I-0.822 J-1.685 F1000
G1 X19.744 F1400
X19.463 Y55.625
X19.183 Y55.588
X18.975 Y55.532
X18.798 Y55.463
X18.622 Y55.372
X18.379 Y55.204
X18.257 Y55.099
X18.136 Y54.972
X18.061 Y54.881
X17.907 Y54.646
X17.798 Y54.412
X17.714 Y54.132
X17.676 Y53.852
X17.673 Y53.292
Y46.651
G3 X17.861 Y45.895 I1.873 J0.065 F1000
X20.502 Y45.104 I1.685 J0.822 F1400
G1 X52.608 Y64.142
G3 X52.474 Y67.439 I-0.956 J1.612
X51.717 Y67.627 I-0.822 J-1.685 F1000
G1 X40.498 F1400
X39.487 Y67.577
X39.133 Y67.499
X38.799 Y67.361
X38.493 Y67.167
X38.225 Y66.924
X38.003 Y66.638
X37.834 Y66.317
X37.723 Y65.973
X37.673 Y65.614
G3 X37.749 Y64.834 I3.441 J-0.059 F1000
X38.311 Y63.559 I3.365 J0.721 F1400
X42.506 Y66.548 I2.098 J1.494
X41.267 Y67.482 I-2.098 J-1.494
X40.498 Y67.627 I-0.859 J-2.428 F1000
G1 X39.937 F1400
X39.376 Y67.618
X39.096 Y67.569
X38.815 Y67.472
X38.655 Y67.393
X38.494 Y67.294
X38.255 Y67.096
X38.088 Y66.915
X37.959 Y66.734
X37.815 Y66.454
X37.724 Y66.174
X37.694 Y66.018
X37.673 Y65.614
X37.67 Y65.306
G3 X37.804 Y64.654 I1.874 J0.047 F1000
G1 X37.847 Y64.546
X56.214 Y18.847 F1400
G3 X57.131 Y17.861 I1.739 J0.699
X57.887 Y17.673 I0.822 J1.685 F1000
G1 X69.106 F1400
X70.2 Y17.727
X71.097 Y17.845
X72.075 Y18.054
X73.167 Y18.381
X74.332 Y18.835
X75.567 Y19.434
X76.888 Y20.212
X78.194 Y21.129
X79.427 Y22.142
X80.587 Y23.237
X81.676 Y24.404
X82.694 Y25.633
X83.639 Y26.919
X84.512 Y28.255
X85.314 Y29.634
X86.045 Y31.052
X86.706 Y32.505
X87.296 Y33.987
X87.814 Y35.497
X88.259 Y37.029
X88.632 Y38.581
X88.934 Y40.148
X89.164 Y41.727
X89.321 Y43.315
X89.403 Y44.908
X89.413 Y46.504
X89.35 Y48.099
X89.215 Y49.689
X89.008 Y51.271
X88.728 Y52.842
X88.376 Y54.398
X87.954 Y55.937
X87.463 Y57.455
X86.905 Y58.95
X86.278 Y60.418
X85.584 Y61.855
X84.826 Y63.259
X84.006 Y64.628
X83.125 Y65.959
X82.879 Y66.291
X82.595 Y66.626
X82.268 Y66.92
X81.905 Y67.169
X81.512 Y67.367
X81.097 Y67.511
X80.666 Y67.598
X80.227 Y67.627
X71.56
G3 X70.803 Y67.439 I0.065 J-1.873 F1000
X69.753 Y65.853 I0.822 J-1.685 F1400
G1 X67.3 Y19.645
G3 X68.35 Y17.861 I1.872 J-0.099
X69.106 Y17.673 I0.822 J1.685 F1000
G1 X77.52 F1400
X78.28 Y17.711
X79.054 Y17.812
X79.896 Y17.992
X80.841 Y18.275
X81.826 Y18.659
X82.903 Y19.181
X84.059 Y19.862
X85.274 Y20.715
X86.502 Y21.735
X87.646 Y22.847
X88.708 Y24.037
X89.691 Y25.294
X90.598 Y26.608
X91.43 Y27.969
X92.189 Y29.373
X92.878 Y30.812
X93.497 Y32.283
X94.047 Y33.781
X94.528 Y35.302
X94.943 Y36.843
X95.292 Y38.4
X95.575 Y39.971
X95.795 Y41.551
X95.95 Y43.139
X96.04 Y44.733
X96.065 Y46.328
X96.028 Y47.924
X95.928 Y49.516
X95.767 Y51.104
X95.544 Y52.684
X95.26 Y54.254
X94.914 Y55.812
X94.508 Y57.355
X94.043 Y58.882
X93.521 Y60.389
X92.942 Y61.876
X92.305 Y63.34
X91.607 Y64.774
X90.826 Y66.166
X90.544 Y66.53
X90.214 Y66.851
X89.842 Y67.123
X89.435 Y67.341
X89.003 Y67.499
X88.552 Y67.595
X88.093 Y67.627
X80.227
G3 X79.47 Y67.439 I0.065 J-1.873 F1000
X78.421 Y65.864 I0.822 J-1.685 F1400
G1 X75.714 Y19.656
G3 X76.764 Y17.861 I1.871 J-0.11
X77.52 Y17.673 I0.822 J1.685 F1000
G1 X84.813 F1400
X85.687 Y17.716
X86.42 Y17.812
X87.189 Y17.977
X88.066 Y18.24
X88.978 Y18.595
X89.976 Y19.079
X91.053 Y19.713
X92.175 Y20.501
X93.343 Y21.471
X94.485 Y22.585
X95.54 Y23.782
X96.511 Y25.048
X97.402 Y26.372
X98.216 Y27.745
X98.957 Y29.158
X99.626 Y30.607
X100.226 Y32.085
X100.759 Y33.59
X101.226 Y35.115
X101.629 Y36.659
X101.97 Y38.218
X102.25 Y39.789
X102.47 Y41.37
X102.632 Y42.957
X102.735 Y44.55
X102.781 Y46.145
X102.769 Y47.74
X102.701 Y49.335
X102.578 Y50.926
X102.401 Y52.512
X102.17 Y54.09
X101.885 Y55.661
X101.547 Y57.22
X101.156 Y58.767
X100.713 Y60.3
X100.217 Y61.817
X99.666 Y63.314
X99.038 Y64.781
X98.493 Y65.838
X98.26 Y66.225
X97.976 Y66.575
X97.646 Y66.884
X97.278 Y67.145
X96.877 Y67.353
X96.452 Y67.504
X96.01 Y67.597
X95.56 Y67.627
X88.093
G3 X87.336 Y67.439 I0.065 J-1.873 F1000
X86.288 Y65.887 I0.822 J-1.685 F1400
G1 X83.008 Y19.679
G3 X84.056 Y17.861 I1.87 J-0.133
X84.813 Y17.673 I0.822 J1.685 F1000
G1 X92.105 F1400
X92.742 Y17.704
X93.453 Y17.798
X94.192 Y17.956
X95.035 Y18.208
X95.92 Y18.553
X96.878 Y19.018
X97.915 Y19.629
X98.996 Y20.388
X100.122 Y21.322
X101.264 Y22.437
X102.316 Y23.637
X103.282 Y24.907
X104.165 Y26.236
X104.97 Y27.614
X105.701 Y29.033
X106.361 Y30.486
X106.952 Y31.968
X107.478 Y33.474
X107.939 Y35.002
X108.339 Y36.547
X108.679 Y38.106
X108.961 Y39.676
X109.187 Y41.256
X109.358 Y42.843
X109.476 Y44.434
X109.54 Y46.028
X109.551 Y47.624
X109.511 Y49.219
X109.421 Y50.812
X109.28 Y52.402
X109.091 Y53.986
X108.854 Y55.564
X108.61 Y56.903
X108.49 Y57.371
X108.302 Y57.815
X108.051 Y58.228
X107.743 Y58.6
X107.462 Y58.893
X106.689 Y59.885
X106.61 Y60.013
X106.128 Y60.831
X105.988 Y61.133
X105.739 Y61.693
X105.567 Y62.155
X105.359 Y62.813
X105.238 Y63.373
X104.924 Y64.647
X104.618 Y65.569
X104.565 Y65.693
X104.353 Y66.105
X104.083 Y66.483
X103.761 Y66.816
X103.394 Y67.1
X102.989 Y67.327
X102.556 Y67.493
X102.103 Y67.594
X101.641 Y67.627
G3 X100.884 Y67.439 I0.065 J-1.873 F1000
X100.119 Y64.756 I0.822 J-1.685 F1400
G1 X101.799 Y62.084
G3 X105.196 Y62.595 I1.587 J0.998
X105.238 Y63.373 I-1.81 J0.487 F1000
G1 X105.129 Y63.933 F1400
X105.076 Y64.493
X105.033 Y65.053
X105.027 Y65.614
X105.006 Y66.018
X104.976 Y66.174
X104.885 Y66.454
X104.741 Y66.734
X104.612 Y66.915
X104.445 Y67.096
X104.206 Y67.294
X104.045 Y67.393
X103.885 Y67.472
X103.604 Y67.569
X103.324 Y67.618
X102.763 Y67.627
X95.56
G3 X94.803 Y67.439 I0.065 J-1.873 F1000
X93.756 Y65.894 I0.822 J-1.685 F1400
G1 X90.301 Y19.686
G3 X91.348 Y17.861 I1.869 J-0.14
X92.105 Y17.673 I0.822 J1.685 F1000
G1 X98.836 F1400
X99.656 Y17.714
X100.35 Y17.805
X101.077 Y17.96
X101.898 Y18.206
X102.771 Y18.546
X103.375 Y18.839
X103.772 Y19.069
X104.131 Y19.355
X104.445 Y19.689
X104.707 Y20.066
X104.911 Y20.478
X105.053 Y20.914
X105.129 Y21.367
G3 X105.07 Y22.144 I-1.858 J0.248 F1000
X102.469 Y23.309 I-1.798 J-0.529 F1400
G1 X98.099 Y21.24
G3 X98.08 Y17.861 I0.802 J-1.694
X98.836 Y17.673 I0.822 J1.685 F1000
G1 X102.763 F1400
X103.324 Y17.682
X103.604 Y17.731
X103.885 Y17.828
X104.045 Y17.907
X104.206 Y18.006
X104.445 Y18.204
X104.612 Y18.385
X104.741 Y18.566
X104.885 Y18.846
X104.976 Y19.126
X105.006 Y19.282
X105.027 Y19.686
X105.03 Y19.994
X105.033 Y20.247
X105.076 Y20.807
X105.129 Y21.367
X105.238 Y21.927
X105.359 Y22.487
X105.567 Y23.145
X105.739 Y23.607
X105.988 Y24.167
X106.128 Y24.469
X106.61 Y25.287
X106.689 Y25.415
X107.462 Y26.407
X107.811 Y26.771
X108.372 Y27.298
X108.627 Y27.528
X108.655 Y27.547
X108.964 Y27.788
X109.719 Y28.479
X110.516 Y29.337
X111.347 Y30.39
X112.198 Y31.666
X112.974 Y33.061
X113.646 Y34.508
X114.225 Y35.995
X114.718 Y37.513
X115.132 Y39.054
X115.473 Y40.613
X115.745 Y42.185
X115.952 Y43.767
X116.098 Y45.356
X116.186 Y46.95
X116.22 Y48.545
X116.2 Y50.141
X116.126 Y51.735
X115.972 Y53.323
X115.858 Y53.779
X115.671 Y54.21
X115.416 Y54.605
X115.102 Y54.954
X114.734 Y55.248
X114.325 Y55.478
X113.883 Y55.639
X113.422 Y55.726
G3 X112.649 Y55.619 I-0.133 J-1.87 F1000
X111.461 Y54.274 I0.639 J-1.762 F1400
G1 X105.806 Y29.537
G3 X107.927 Y27.268 I1.827 J-0.418
X108.655 Y27.547 I-0.294 J1.851 F1000
G1 X108.933 Y27.742 F1400
X109.494 Y28.133
X110.055 Y28.478
X110.616 Y28.763
X111.177 Y28.989
X111.738 Y29.204
X112.299 Y29.357
X112.607 Y29.428
X113.083 Y29.563
X113.59 Y29.752
X114.176 Y30.026
X114.781 Y30.37
X115.454 Y30.828
X116.153 Y31.391
X116.889 Y32.088
X117.664 Y32.95
X118.454 Y33.985
X119.245 Y35.215
X119.997 Y36.622
X120.64 Y38.083
X121.182 Y39.583
X121.634 Y41.114
X122.003 Y42.666
X122.295 Y44.235
X122.514 Y45.816
X122.662 Y47.404
X122.71 Y48.984
X122.645 Y50.302
X122.492 Y51.473
X122.267 Y52.53
X121.985 Y53.473
X121.914 Y53.654
X121.714 Y54.073
X121.454 Y54.456
X121.139 Y54.797
X120.777 Y55.087
X120.376 Y55.319
X119.944 Y55.489
X119.492 Y55.593
X119.03 Y55.627
X115.103
X114.542 Y55.639
X113.981 Y55.667
X113.422 Y55.726
G3 X112.649 Y55.619 I-0.133 J-1.87 F1000
X111.416 Y53.943 I0.639 J-1.762 F1400
G1 X110.378 Y31.355
G3 X111.828 Y29.443 I1.873 J-0.086
X112.607 Y29.428 I0.423 J1.826 F1000
G1 X112.86 Y29.486 F1400
X113.42 Y29.574
X113.981 Y29.633
X114.542 Y29.661
X115.103 Y29.673
X116.534
X117.064 Y29.699
X117.568 Y29.765
X118.138 Y29.887
X118.73 Y30.064
X119.406 Y30.328
X120.087 Y30.658
X120.845 Y31.105
X121.614 Y31.645
X122.425 Y32.318
X123.276 Y33.148
X124.127 Y34.123
X124.38 Y34.466
X124.608 Y34.819
X124.789 Y35.198
X124.921 Y35.597
X125.001 Y36.009
X125.027 Y36.429
Y53.292
X125.001 Y53.766
X124.914 Y54.142
X124.762 Y54.496
X124.549 Y54.818
X124.282 Y55.097
X123.97 Y55.323
X123.622 Y55.49
X123.25 Y55.593
X122.866 Y55.627
G3 X122.099 Y55.473 I0.084 J-2.399 F1000
X121.319 Y54.99 I0.85 J-2.245 F1400
X124.32 Y51.747 I1.501 J-1.621
X124.863 Y52.528 I-1.501 J1.621
X125.027 Y53.292 I-2.043 J0.841 F1000
G1 X125.024 Y53.852 F1400
X124.986 Y54.132
X124.902 Y54.412
X124.793 Y54.646
X124.639 Y54.881
X124.564 Y54.972
X124.443 Y55.099
X124.321 Y55.204
X124.078 Y55.372
X123.902 Y55.463
X123.725 Y55.532
X123.517 Y55.588
X123.237 Y55.625
X122.956 Y55.627
X119.03
G3 X118.273 Y55.439 I0.065 J-1.873 F1000
X117.233 Y53.963 I0.822 J-1.685 F1400
G1 X114.736 Y31.755
G3 X115.777 Y29.861 I1.863 J-0.209
X116.534 Y29.673 I0.822 J1.685 F1000
G1 X122.143 F1400
X122.669 Y29.699
X123.186 Y29.767
X123.564 Y29.882
X123.917 Y30.059
X124.236 Y30.294
X124.509 Y30.579
X124.731 Y30.907
X124.894 Y31.267
X124.994 Y31.65
X125.027 Y32.044
G3 X124.907 Y32.818 I-3.271 J-0.114 F1000
X124.285 Y34.008 I-3.15 J-0.888 F1400
X120.187 Y30.639 I-2.049 J-1.685
X121.374 Y29.815 I2.049 J1.685
X122.143 Y29.673 I0.862 J2.509 F1000
G1 X122.956 F1400
X123.237 Y29.675
X123.517 Y29.712
X123.725 Y29.768
X123.902 Y29.837
X124.078 Y29.928
X124.321 Y30.096
X124.443 Y30.201
X124.564 Y30.328
X124.639 Y30.419
X124.793 Y30.654
X124.902 Y30.888
X124.986 Y31.168
X125.024 Y31.448
X125.027 Y32.008
Y36.429
G3 X124.839 Y37.185 I-1.873 J-0.065 F1000
X122.935 Y38.225 I-1.685 J-0.822 F1400
G1 X37.443 Y28.169
G3 X35.797 Y26.119 I0.219 J-1.862
X36.035 Y25.377 I1.865 J0.188 F1000
G1 X36.09 Y25.287 F1400
X36.572 Y24.469
X36.712 Y24.167
X36.961 Y23.607
X37.133 Y23.145
X37.341 Y22.487
X37.462 Y21.927
X37.571 Y21.367
X37.6 Y21.059
X37.656 Y20.675
X37.776 Y20.149
X37.966 Y19.546
X38.163 Y19.148
X38.417 Y18.783
X38.722 Y18.459
X39.071 Y18.185
X39.458 Y17.964
X39.872 Y17.803
X40.305 Y17.705
X40.749 Y17.673
G3 X41.505 Y17.861 I-0.065 J1.873 F1000
X42.186 Y20.667 I-0.822 J1.685 F1400
G1 X40.973 Y22.292
G3 X37.716 Y21.83 I-1.502 J-1.121
X37.6 Y21.059 I1.755 J-0.659 F1000
G1 X37.624 Y20.807 F1400
X37.667 Y20.247
X37.673 Y19.686
X37.694 Y19.282
X37.724 Y19.126
X37.815 Y18.846
X37.959 Y18.566
X38.088 Y18.385
X38.255 Y18.204
X38.494 Y18.006
X38.655 Y17.907
X38.815 Y17.828
X39.096 Y17.731
X39.376 Y17.682
X39.937 Y17.673
X46.964
G3 X47.721 Y17.861 I-0.065 J1.873 F1000
G1 X47.868 Y17.933 Z-22.393
X48.013 Y18.004 Z-22.372
X48.157 Y18.074 Z-22.336
X48.297 Y18.142 Z-22.287
X48.433 Y18.209 Z-22.224
X48.563 Y18.272 Z-22.149
X48.687 Y18.333 Z-22.061
X48.804 Y18.39 Z-21.961
X48.912 Y18.442 Z-21.851
X49.011 Y18.491 Z-21.73
X49.101 Y18.535 Z-21.601
X49.18 Y18.573 Z-21.463
X49.248 Y18.606 Z-21.318
X49.304 Y18.634 Z-21.167
X49.348 Y18.655 Z-21.011
X49.38 Y18.671 Z-20.851
X49.399 Y18.68 Z-20.689
X49.406 Y18.683 Z-20.525
G0 Z10
M30
%
