%
(1001)
(T1  D=3.175 CR=0 - ZMIN=-19.4 - flat end mill)
G90 G94
G17
G21

(Fine #1 - 1/8)
M9
T1 M6
S5000 M3
G54
G0 X19.372 Y74.758
Z10
Z5
Z-3.365
G1 Z-3.682 F1000
X19.365 Y74.762 Z-3.753
X19.345 Y74.774 Z-3.82
X19.313 Y74.794 Z-3.88
X19.27 Y74.819 Z-3.931
X19.218 Y74.85 Z-3.969
X19.16 Y74.884 Z-3.992
X19.099 Y74.92 Z-4
G3 X17.424 Y75.412 I-1.798 J-3.024
G1 X14.485 F1400
X14.186 Y75.398
X13.95 Y75.367
X13.686 Y75.31
X13.391 Y75.222
X13.062 Y75.094
X12.697 Y74.916
X12.301 Y74.683
X11.883 Y74.39
X11.454 Y74.034
X11.018 Y73.608
X10.592 Y73.12
X10.198 Y72.588
X9.999 Y72.268
X9.938 Y72.145
X9.9 Y72.013
X9.887 Y71.877
G3 X10.396 Y71.634 I0.317 J0.011 F1000
G1 X10.47 Y71.69
X14.662 Y74.839 F1400
X14.665 Y74.841 F1000
G3 X14.485 Y75.412 I-0.191 J0.254
G1 X12.574 F1400
X12.334 Y75.401
X12.157 Y75.377
X11.948 Y75.333
X11.736 Y75.269
X11.479 Y75.169
X11.211 Y75.039
X10.903 Y74.858
X10.581 Y74.631
X10.21 Y74.323
X10.111 Y74.227
X9.99 Y74.072
X9.914 Y73.891
X9.887 Y73.697
G3 X10.366 Y73.434 I0.317 J0.011 F1000
G1 X10.477 Y73.499
X12.724 Y74.822 F1400
X12.75 Y74.839
G3 X12.574 Y75.412 I-0.188 J0.256 F1000
G1 X10.893 F1400
X10.743 Y75.405
X10.593 Y75.385
X10.442 Y75.352
X10.414 Y75.344
X10.202 Y75.241
X10.034 Y75.076
X9.925 Y74.867
X9.887 Y74.635
G3 X10.38 Y74.381 I0.317 J0.011 F1000
G1 X10.473 Y74.443
X11.058 Y74.831 F1400
X11.07 Y74.839
G3 X10.893 Y75.412 I-0.188 J0.256 F1000
G1 X10.344 F1400
X10.184 Y75.41
X10.145 Y75.403
X10.105 Y75.39
X10.065 Y75.372
X10.025 Y75.345
X9.993 Y75.317
X9.961 Y75.284
X9.933 Y75.244
X9.913 Y75.205
X9.899 Y75.165
X9.891 Y75.125
X9.887 Y74.966
Y67.961
G3 X10.461 Y67.785 I0.317 J0.011 F1000
G1 X10.503 Y67.842 Z-3.992
X10.542 Y67.896 Z-3.969
X10.578 Y67.944 Z-3.931
X10.608 Y67.985 Z-3.88
X10.63 Y68.015 Z-3.82
X10.644 Y68.034 Z-3.753
X10.649 Y68.041 Z-3.682
G0 Z5
X10.542 Y19.446
Z-3.365
G1 Z-3.682 F1000
X10.538 Y19.439 Z-3.753
X10.526 Y19.419 Z-3.82
X10.506 Y19.387 Z-3.88
X10.481 Y19.343 Z-3.931
X10.45 Y19.292 Z-3.969
X10.416 Y19.234 Z-3.992
X10.38 Y19.173 Z-4
G3 X9.887 Y17.498 I3.024 J-1.798
G1 Y14.473 F1400
X9.902 Y14.188
X9.932 Y13.954
X9.989 Y13.687
X10.079 Y13.389
X10.208 Y13.058
X10.385 Y12.694
X10.614 Y12.303
X10.907 Y11.887
X11.27 Y11.45
X11.689 Y11.02
X12.175 Y10.596
X12.716 Y10.196
X13.031 Y9.999
X13.154 Y9.938
X13.286 Y9.9
X13.423 Y9.887
G3 X13.665 Y10.396 I-0.011 J0.317 F1000
G1 X13.61 Y10.47
X10.461 Y14.65 F1400
X10.458 Y14.653 F1000
G3 X9.887 Y14.473 I-0.254 J-0.191
G1 Y12.563 F1400
X9.899 Y12.335
X9.922 Y12.157
X9.967 Y11.948
X10.03 Y11.736
X10.131 Y11.479
X10.26 Y11.211
X10.442 Y10.903
X10.667 Y10.582
X10.976 Y10.21
X11.073 Y10.111
X11.227 Y9.99
X11.408 Y9.914
X11.603 Y9.887
G3 X11.865 Y10.366 I-0.011 J0.317 F1000
G1 X11.8 Y10.477
X10.478 Y12.713 F1400
X10.461 Y12.74
G3 X9.887 Y12.563 I-0.256 J-0.188 F1000
G1 Y10.971 F1400
X9.899 Y10.743
X9.919 Y10.593
X9.951 Y10.443
X9.959 Y10.416
X10.062 Y10.203
X10.226 Y10.034
X10.435 Y9.925
X10.668 Y9.887
G3 X10.93 Y10.368 I-0.011 J0.317 F1000
G1 X10.865 Y10.476
X10.477 Y11.123 F1400
X10.461 Y11.148
G3 X9.887 Y10.971 I-0.256 J-0.188 F1000
G1 Y10.334 F1400
X9.891 Y10.175
X9.899 Y10.135
X9.913 Y10.095
X9.933 Y10.056
X9.961 Y10.016
X9.993 Y9.983
X10.025 Y9.955
X10.065 Y9.928
X10.105 Y9.91
X10.145 Y9.897
X10.184 Y9.89
X10.344 Y9.887
X17.352
G3 X17.529 Y10.461 I-0.011 J0.317 F1000
G1 X17.472 Y10.503 Z-3.992
X17.418 Y10.542 Z-3.969
X17.369 Y10.578 Z-3.931
X17.329 Y10.608 Z-3.88
X17.298 Y10.63 Z-3.82
X17.279 Y10.644 Z-3.753
X17.273 Y10.649 Z-3.682
G0 Z5
X123.328 Y10.542
Z-3.365
G1 Z-3.682 F1000
X123.335 Y10.538 Z-3.753
X123.355 Y10.526 Z-3.82
X123.387 Y10.506 Z-3.88
X123.43 Y10.481 Z-3.931
X123.482 Y10.45 Z-3.969
X123.54 Y10.416 Z-3.992
X123.601 Y10.38 Z-4
G3 X125.276 Y9.887 I1.798 J3.024
G1 X128.215 F1400
X128.514 Y9.902
X128.75 Y9.933
X129.014 Y9.99
X129.309 Y10.078
X129.638 Y10.206
X130.003 Y10.384
X130.399 Y10.617
X130.817 Y10.91
X131.246 Y11.266
X131.682 Y11.692
X132.108 Y12.18
X132.502 Y12.712
X132.701 Y13.032
X132.762 Y13.155
X132.8 Y13.287
X132.813 Y13.423
G3 X132.304 Y13.666 I-0.317 J-0.011 F1000
G1 X132.23 Y13.61
X128.038 Y10.461 F1400
X128.035 Y10.459 F1000
G3 X128.215 Y9.887 I0.191 J-0.254
G1 X130.126 F1400
X130.366 Y9.899
X130.543 Y9.923
X130.752 Y9.967
X130.964 Y10.031
X131.221 Y10.131
X131.489 Y10.261
X131.797 Y10.442
X132.119 Y10.669
X132.49 Y10.977
X132.589 Y11.073
X132.71 Y11.228
X132.786 Y11.409
X132.813 Y11.603
G3 X132.334 Y11.866 I-0.317 J-0.011 F1000
G1 X132.223 Y11.801
X129.976 Y10.478 F1400
X129.95 Y10.461
G3 X130.126 Y9.887 I0.188 J-0.256 F1000
G1 X131.807 F1400
X131.957 Y9.895
X132.107 Y9.915
X132.258 Y9.948
X132.286 Y9.956
X132.498 Y10.059
X132.666 Y10.224
X132.775 Y10.433
X132.813 Y10.665
G3 X132.32 Y10.919 I-0.317 J-0.011 F1000
G1 X132.227 Y10.857
X131.642 Y10.469 F1400
X131.63 Y10.461
G3 X131.807 Y9.887 I0.188 J-0.256 F1000
G1 X132.356 F1400
X132.516 Y9.89
X132.555 Y9.897
X132.595 Y9.91
X132.635 Y9.928
X132.675 Y9.955
X132.707 Y9.983
X132.739 Y10.016
X132.767 Y10.056
X132.788 Y10.095
X132.801 Y10.135
X132.809 Y10.175
X132.813 Y10.334
Y17.339
G3 X132.239 Y17.515 I-0.317 J-0.011 F1000
G1 X132.197 Y17.458 Z-3.992
X132.158 Y17.404 Z-3.969
X132.122 Y17.356 Z-3.931
X132.092 Y17.315 Z-3.88
X132.07 Y17.285 Z-3.82
X132.056 Y17.266 Z-3.753
X132.051 Y17.259 Z-3.682
G0 Z5
X132.158 Y65.854
Z-3.365
G1 Z-3.682 F1000
X132.162 Y65.861 Z-3.753
X132.174 Y65.881 Z-3.82
X132.194 Y65.913 Z-3.88
X132.219 Y65.957 Z-3.931
X132.25 Y66.008 Z-3.969
X132.284 Y66.066 Z-3.992
X132.32 Y66.127 Z-4
G3 X132.813 Y67.802 I-3.024 J1.798
G1 Y70.827 F1400
X132.798 Y71.112
X132.768 Y71.346
X132.711 Y71.613
X132.621 Y71.911
X132.492 Y72.242
X132.315 Y72.606
X132.086 Y72.997
X131.793 Y73.413
X131.43 Y73.85
X131.011 Y74.28
X130.525 Y74.704
X129.984 Y75.104
X129.669 Y75.301
X129.546 Y75.362
X129.414 Y75.4
X129.277 Y75.412
G3 X129.035 Y74.904 I0.011 J-0.317 F1000
G1 X129.09 Y74.83
X132.239 Y70.65 F1400
X132.242 Y70.647 F1000
G3 X132.813 Y70.827 I0.254 J0.191
G1 Y72.737 F1400
X132.801 Y72.965
X132.778 Y73.143
X132.733 Y73.352
X132.67 Y73.564
X132.569 Y73.821
X132.44 Y74.089
X132.258 Y74.397
X132.033 Y74.718
X131.724 Y75.09
X131.627 Y75.189
X131.473 Y75.31
X131.292 Y75.386
X131.097 Y75.412
G3 X130.835 Y74.934 I0.011 J-0.317 F1000
G1 X130.9 Y74.823
X132.222 Y72.587 F1400
X132.239 Y72.56
G3 X132.813 Y72.737 I0.256 J0.188 F1000
G1 Y74.329 F1400
X132.801 Y74.557
X132.781 Y74.707
X132.749 Y74.857
X132.741 Y74.884
X132.638 Y75.097
X132.474 Y75.266
X132.265 Y75.375
X132.032 Y75.412
G3 X131.77 Y74.932 I0.011 J-0.317 F1000
G1 X131.835 Y74.824
X132.223 Y74.177 F1400
X132.239 Y74.152
G3 X132.813 Y74.329 I0.256 J0.188 F1000
G1 Y74.966 F1400
X132.809 Y75.125
X132.801 Y75.165
X132.788 Y75.205
X132.767 Y75.244
X132.739 Y75.284
X132.707 Y75.317
X132.675 Y75.345
X132.635 Y75.372
X132.595 Y75.39
X132.555 Y75.403
X132.516 Y75.41
X132.356 Y75.412
X125.348
G3 X125.042 Y75.115 I0.011 J-0.317 F1000
G1 X125.041 Y75.095 Z-3.999
X125.055 Y75.042 Z-3.991
X125.068 Y74.991 Z-3.973
X125.08 Y74.944 Z-3.946
X125.111 Y74.908 Z-3.906
X125.136 Y74.879 Z-3.858
X125.155 Y74.857 Z-3.803
X125.167 Y74.844 Z-3.744
X125.171 Y74.839 Z-3.683
G0 Z5
X19.372 Y74.758
Z-7.365
G1 Z-7.682 F1000
X19.365 Y74.762 Z-7.753
X19.345 Y74.774 Z-7.82
X19.313 Y74.794 Z-7.88
X19.27 Y74.819 Z-7.931
X19.218 Y74.85 Z-7.969
X19.16 Y74.884 Z-7.992
X19.099 Y74.92 Z-8
G3 X17.424 Y75.412 I-1.798 J-3.024
G1 X14.485 F1400
X14.186 Y75.398
X13.95 Y75.367
X13.686 Y75.31
X13.391 Y75.222
X13.062 Y75.094
X12.697 Y74.916
X12.301 Y74.683
X11.883 Y74.39
X11.454 Y74.034
X11.018 Y73.608
X10.592 Y73.12
X10.198 Y72.588
X9.999 Y72.268
X9.938 Y72.145
X9.9 Y72.013
X9.887 Y71.877
G3 X10.396 Y71.634 I0.317 J0.011 F1000
G1 X10.47 Y71.69
X14.662 Y74.839 F1400
X14.665 Y74.841 F1000
G3 X14.485 Y75.412 I-0.191 J0.254
G1 X12.574 F1400
X12.334 Y75.401
X12.157 Y75.377
X11.948 Y75.333
X11.736 Y75.269
X11.479 Y75.169
X11.211 Y75.039
X10.903 Y74.858
X10.581 Y74.631
X10.21 Y74.323
X10.111 Y74.227
X9.99 Y74.072
X9.914 Y73.891
X9.887 Y73.697
G3 X10.366 Y73.434 I0.317 J0.011 F1000
G1 X10.477 Y73.499
X12.724 Y74.822 F1400
X12.75 Y74.839
G3 X12.574 Y75.412 I-0.188 J0.256 F1000
G1 X10.893 F1400
X10.743 Y75.405
X10.593 Y75.385
X10.442 Y75.352
X10.414 Y75.344
X10.202 Y75.241
X10.034 Y75.076
X9.925 Y74.867
X9.887 Y74.635
G3 X10.38 Y74.381 I0.317 J0.011 F1000
G1 X10.473 Y74.443
X11.058 Y74.831 F1400
X11.07 Y74.839
G3 X10.893 Y75.412 I-0.188 J0.256 F1000
G1 X10.344 F1400
X10.184 Y75.41
X10.145 Y75.403
X10.105 Y75.39
X10.065 Y75.372
X10.025 Y75.345
X9.993 Y75.317
X9.961 Y75.284
X9.933 Y75.244
X9.913 Y75.205
X9.899 Y75.165
X9.891 Y75.125
X9.887 Y74.966
Y67.961
G3 X10.461 Y67.785 I0.317 J0.011 F1000
G1 X10.503 Y67.842 Z-7.992
X10.542 Y67.896 Z-7.969
X10.578 Y67.944 Z-7.931
X10.608 Y67.985 Z-7.88
X10.63 Y68.015 Z-7.82
X10.644 Y68.034 Z-7.753
X10.649 Y68.041 Z-7.682
G0 Z5
X10.542 Y19.446
Z-7.365
G1 Z-7.682 F1000
X10.538 Y19.439 Z-7.753
X10.526 Y19.419 Z-7.82
X10.506 Y19.387 Z-7.88
X10.481 Y19.343 Z-7.931
X10.45 Y19.292 Z-7.969
X10.416 Y19.234 Z-7.992
X10.38 Y19.173 Z-8
G3 X9.887 Y17.498 I3.024 J-1.798
G1 Y14.473 F1400
X9.902 Y14.188
X9.932 Y13.954
X9.989 Y13.687
X10.079 Y13.389
X10.208 Y13.058
X10.385 Y12.694
X10.614 Y12.303
X10.907 Y11.887
X11.27 Y11.45
X11.689 Y11.02
X12.175 Y10.596
X12.716 Y10.196
X13.031 Y9.999
X13.154 Y9.938
X13.286 Y9.9
X13.423 Y9.887
G3 X13.665 Y10.396 I-0.011 J0.317 F1000
G1 X13.61 Y10.47
X10.461 Y14.65 F1400
X10.458 Y14.653 F1000
G3 X9.887 Y14.473 I-0.254 J-0.191
G1 Y12.563 F1400
X9.899 Y12.335
X9.922 Y12.157
X9.967 Y11.948
X10.03 Y11.736
X10.131 Y11.479
X10.26 Y11.211
X10.442 Y10.903
X10.667 Y10.582
X10.976 Y10.21
X11.073 Y10.111
X11.227 Y9.99
X11.408 Y9.914
X11.603 Y9.887
G3 X11.865 Y10.366 I-0.011 J0.317 F1000
G1 X11.8 Y10.477
X10.478 Y12.713 F1400
X10.461 Y12.74
G3 X9.887 Y12.563 I-0.256 J-0.188 F1000
G1 Y10.971 F1400
X9.899 Y10.743
X9.919 Y10.593
X9.951 Y10.443
X9.959 Y10.416
X10.062 Y10.203
X10.226 Y10.034
X10.435 Y9.925
X10.668 Y9.887
G3 X10.93 Y10.368 I-0.011 J0.317 F1000
G1 X10.865 Y10.476
X10.477 Y11.123 F1400
X10.461 Y11.148
G3 X9.887 Y10.971 I-0.256 J-0.188 F1000
G1 Y10.334 F1400
X9.891 Y10.175
X9.899 Y10.135
X9.913 Y10.095
X9.933 Y10.056
X9.961 Y10.016
X9.993 Y9.983
X10.025 Y9.955
X10.065 Y9.928
X10.105 Y9.91
X10.145 Y9.897
X10.184 Y9.89
X10.344 Y9.887
X17.352
G3 X17.529 Y10.461 I-0.011 J0.317 F1000
G1 X17.472 Y10.503 Z-7.992
X17.418 Y10.542 Z-7.969
X17.369 Y10.578 Z-7.931
X17.329 Y10.608 Z-7.88
X17.298 Y10.63 Z-7.82
X17.279 Y10.644 Z-7.753
X17.273 Y10.649 Z-7.682
G0 Z5
X123.328 Y10.542
Z-7.365
G1 Z-7.682 F1000
X123.335 Y10.538 Z-7.753
X123.355 Y10.526 Z-7.82
X123.387 Y10.506 Z-7.88
X123.43 Y10.481 Z-7.931
X123.482 Y10.45 Z-7.969
X123.54 Y10.416 Z-7.992
X123.601 Y10.38 Z-8
G3 X125.276 Y9.887 I1.798 J3.024
G1 X128.215 F1400
X128.514 Y9.902
X128.75 Y9.933
X129.014 Y9.99
X129.309 Y10.078
X129.638 Y10.206
X130.003 Y10.384
X130.399 Y10.617
X130.817 Y10.91
X131.246 Y11.266
X131.682 Y11.692
X132.108 Y12.18
X132.502 Y12.712
X132.701 Y13.032
X132.762 Y13.155
X132.8 Y13.287
X132.813 Y13.423
G3 X132.304 Y13.666 I-0.317 J-0.011 F1000
G1 X132.23 Y13.61
X128.038 Y10.461 F1400
X128.035 Y10.459 F1000
G3 X128.215 Y9.887 I0.191 J-0.254
G1 X130.126 F1400
X130.366 Y9.899
X130.543 Y9.923
X130.752 Y9.967
X130.964 Y10.031
X131.221 Y10.131
X131.489 Y10.261
X131.797 Y10.442
X132.119 Y10.669
X132.49 Y10.977
X132.589 Y11.073
X132.71 Y11.228
X132.786 Y11.409
X132.813 Y11.603
G3 X132.334 Y11.866 I-0.317 J-0.011 F1000
G1 X132.223 Y11.801
X129.976 Y10.478 F1400
X129.95 Y10.461
G3 X130.126 Y9.887 I0.188 J-0.256 F1000
G1 X131.807 F1400
X131.957 Y9.895
X132.107 Y9.915
X132.258 Y9.948
X132.286 Y9.956
X132.498 Y10.059
X132.666 Y10.224
X132.775 Y10.433
X132.813 Y10.665
G3 X132.32 Y10.919 I-0.317 J-0.011 F1000
G1 X132.227 Y10.857
X131.642 Y10.469 F1400
X131.63 Y10.461
G3 X131.807 Y9.887 I0.188 J-0.256 F1000
G1 X132.356 F1400
X132.516 Y9.89
X132.555 Y9.897
X132.595 Y9.91
X132.635 Y9.928
X132.675 Y9.955
X132.707 Y9.983
X132.739 Y10.016
X132.767 Y10.056
X132.788 Y10.095
X132.801 Y10.135
X132.809 Y10.175
X132.813 Y10.334
Y17.339
G3 X132.239 Y17.515 I-0.317 J-0.011 F1000
G1 X132.197 Y17.458 Z-7.992
X132.158 Y17.404 Z-7.969
X132.122 Y17.356 Z-7.931
X132.092 Y17.315 Z-7.88
X132.07 Y17.285 Z-7.82
X132.056 Y17.266 Z-7.753
X132.051 Y17.259 Z-7.682
G0 Z5
X132.158 Y65.854
Z-7.365
G1 Z-7.682 F1000
X132.162 Y65.861 Z-7.753
X132.174 Y65.881 Z-7.82
X132.194 Y65.913 Z-7.88
X132.219 Y65.957 Z-7.931
X132.25 Y66.008 Z-7.969
X132.284 Y66.066 Z-7.992
X132.32 Y66.127 Z-8
G3 X132.813 Y67.802 I-3.024 J1.798
G1 Y70.827 F1400
X132.798 Y71.112
X132.768 Y71.346
X132.711 Y71.613
X132.621 Y71.911
X132.492 Y72.242
X132.315 Y72.606
X132.086 Y72.997
X131.793 Y73.413
X131.43 Y73.85
X131.011 Y74.28
X130.525 Y74.704
X129.984 Y75.104
X129.669 Y75.301
X129.546 Y75.362
X129.414 Y75.4
X129.277 Y75.412
G3 X129.035 Y74.904 I0.011 J-0.317 F1000
G1 X129.09 Y74.83
X132.239 Y70.65 F1400
X132.242 Y70.647 F1000
G3 X132.813 Y70.827 I0.254 J0.191
G1 Y72.737 F1400
X132.801 Y72.965
X132.778 Y73.143
X132.733 Y73.352
X132.67 Y73.564
X132.569 Y73.821
X132.44 Y74.089
X132.258 Y74.397
X132.033 Y74.718
X131.724 Y75.09
X131.627 Y75.189
X131.473 Y75.31
X131.292 Y75.386
X131.097 Y75.412
G3 X130.835 Y74.934 I0.011 J-0.317 F1000
G1 X130.9 Y74.823
X132.222 Y72.587 F1400
X132.239 Y72.56
G3 X132.813 Y72.737 I0.256 J0.188 F1000
G1 Y74.329 F1400
X132.801 Y74.557
X132.781 Y74.707
X132.749 Y74.857
X132.741 Y74.884
X132.638 Y75.097
X132.474 Y75.266
X132.265 Y75.375
X132.032 Y75.412
G3 X131.77 Y74.932 I0.011 J-0.317 F1000
G1 X131.835 Y74.824
X132.223 Y74.177 F1400
X132.239 Y74.152
G3 X132.813 Y74.329 I0.256 J0.188 F1000
G1 Y74.966 F1400
X132.809 Y75.125
X132.801 Y75.165
X132.788 Y75.205
X132.767 Y75.244
X132.739 Y75.284
X132.707 Y75.317
X132.675 Y75.345
X132.635 Y75.372
X132.595 Y75.39
X132.555 Y75.403
X132.516 Y75.41
X132.356 Y75.412
X125.348
G3 X125.042 Y75.115 I0.011 J-0.317 F1000
G1 X125.041 Y75.095 Z-7.999
X125.055 Y75.042 Z-7.991
X125.068 Y74.991 Z-7.973
X125.08 Y74.944 Z-7.946
X125.111 Y74.908 Z-7.906
X125.136 Y74.879 Z-7.858
X125.155 Y74.857 Z-7.803
X125.167 Y74.844 Z-7.744
X125.171 Y74.839 Z-7.683
G0 Z5
X19.372 Y74.758
Z-11.365
G1 Z-11.682 F1000
X19.365 Y74.762 Z-11.753
X19.345 Y74.774 Z-11.82
X19.313 Y74.794 Z-11.88
X19.27 Y74.819 Z-11.931
X19.218 Y74.85 Z-11.969
X19.16 Y74.884 Z-11.992
X19.099 Y74.92 Z-12
G3 X17.424 Y75.412 I-1.798 J-3.024
G1 X14.485 F1400
X14.186 Y75.398
X13.95 Y75.367
X13.686 Y75.31
X13.391 Y75.222
X13.062 Y75.094
X12.697 Y74.916
X12.301 Y74.683
X11.883 Y74.39
X11.454 Y74.034
X11.018 Y73.608
X10.592 Y73.12
X10.198 Y72.588
X9.999 Y72.268
X9.938 Y72.145
X9.9 Y72.013
X9.887 Y71.877
G3 X10.396 Y71.634 I0.317 J0.011 F1000
G1 X10.47 Y71.69
X14.662 Y74.839 F1400
X14.665 Y74.841 F1000
G3 X14.485 Y75.412 I-0.191 J0.254
G1 X12.574 F1400
X12.334 Y75.401
X12.157 Y75.377
X11.948 Y75.333
X11.736 Y75.269
X11.479 Y75.169
X11.211 Y75.039
X10.903 Y74.858
X10.581 Y74.631
X10.21 Y74.323
X10.111 Y74.227
X9.99 Y74.072
X9.914 Y73.891
X9.887 Y73.697
G3 X10.366 Y73.434 I0.317 J0.011 F1000
G1 X10.477 Y73.499
X12.724 Y74.822 F1400
X12.75 Y74.839
G3 X12.574 Y75.412 I-0.188 J0.256 F1000
G1 X10.893 F1400
X10.743 Y75.405
X10.593 Y75.385
X10.442 Y75.352
X10.414 Y75.344
X10.202 Y75.241
X10.034 Y75.076
X9.925 Y74.867
X9.887 Y74.635
G3 X10.38 Y74.381 I0.317 J0.011 F1000
G1 X10.473 Y74.443
X11.058 Y74.831 F1400
X11.07 Y74.839
G3 X10.893 Y75.412 I-0.188 J0.256 F1000
G1 X10.344 F1400
X10.184 Y75.41
X10.145 Y75.403
X10.105 Y75.39
X10.065 Y75.372
X10.025 Y75.345
X9.993 Y75.317
X9.961 Y75.284
X9.933 Y75.244
X9.913 Y75.205
X9.899 Y75.165
X9.891 Y75.125
X9.887 Y74.966
Y67.961
G3 X10.461 Y67.785 I0.317 J0.011 F1000
G1 X10.503 Y67.842 Z-11.992
X10.542 Y67.896 Z-11.969
X10.578 Y67.944 Z-11.931
X10.608 Y67.985 Z-11.88
X10.63 Y68.015 Z-11.82
X10.644 Y68.034 Z-11.753
X10.649 Y68.041 Z-11.682
G0 Z5
X10.542 Y19.446
Z-11.365
G1 Z-11.682 F1000
X10.538 Y19.439 Z-11.753
X10.526 Y19.419 Z-11.82
X10.506 Y19.387 Z-11.88
X10.481 Y19.343 Z-11.931
X10.45 Y19.292 Z-11.969
X10.416 Y19.234 Z-11.992
X10.38 Y19.173 Z-12
G3 X9.887 Y17.498 I3.024 J-1.798
G1 Y14.473 F1400
X9.902 Y14.188
X9.932 Y13.954
X9.989 Y13.687
X10.079 Y13.389
X10.208 Y13.058
X10.385 Y12.694
X10.614 Y12.303
X10.907 Y11.887
X11.27 Y11.45
X11.689 Y11.02
X12.175 Y10.596
X12.716 Y10.196
X13.031 Y9.999
X13.154 Y9.938
X13.286 Y9.9
X13.423 Y9.887
G3 X13.665 Y10.396 I-0.011 J0.317 F1000
G1 X13.61 Y10.47
X10.461 Y14.65 F1400
X10.458 Y14.653 F1000
G3 X9.887 Y14.473 I-0.254 J-0.191
G1 Y12.563 F1400
X9.899 Y12.335
X9.922 Y12.157
X9.967 Y11.948
X10.03 Y11.736
X10.131 Y11.479
X10.26 Y11.211
X10.442 Y10.903
X10.667 Y10.582
X10.976 Y10.21
X11.073 Y10.111
X11.227 Y9.99
X11.408 Y9.914
X11.603 Y9.887
G3 X11.865 Y10.366 I-0.011 J0.317 F1000
G1 X11.8 Y10.477
X10.478 Y12.713 F1400
X10.461 Y12.74
G3 X9.887 Y12.563 I-0.256 J-0.188 F1000
G1 Y10.971 F1400
X9.899 Y10.743
X9.919 Y10.593
X9.951 Y10.443
X9.959 Y10.416
X10.062 Y10.203
X10.226 Y10.034
X10.435 Y9.925
X10.668 Y9.887
G3 X10.93 Y10.368 I-0.011 J0.317 F1000
G1 X10.865 Y10.476
X10.477 Y11.123 F1400
X10.461 Y11.148
G3 X9.887 Y10.971 I-0.256 J-0.188 F1000
G1 Y10.334 F1400
X9.891 Y10.175
X9.899 Y10.135
X9.913 Y10.095
X9.933 Y10.056
X9.961 Y10.016
X9.993 Y9.983
X10.025 Y9.955
X10.065 Y9.928
X10.105 Y9.91
X10.145 Y9.897
X10.184 Y9.89
X10.344 Y9.887
X17.352
G3 X17.529 Y10.461 I-0.011 J0.317 F1000
G1 X17.472 Y10.503 Z-11.992
X17.418 Y10.542 Z-11.969
X17.369 Y10.578 Z-11.931
X17.329 Y10.608 Z-11.88
X17.298 Y10.63 Z-11.82
X17.279 Y10.644 Z-11.753
X17.273 Y10.649 Z-11.682
G0 Z5
X123.328 Y10.542
Z-11.365
G1 Z-11.682 F1000
X123.335 Y10.538 Z-11.753
X123.355 Y10.526 Z-11.82
X123.387 Y10.506 Z-11.88
X123.43 Y10.481 Z-11.931
X123.482 Y10.45 Z-11.969
X123.54 Y10.416 Z-11.992
X123.601 Y10.38 Z-12
G3 X125.276 Y9.887 I1.798 J3.024
G1 X128.215 F1400
X128.514 Y9.902
X128.75 Y9.933
X129.014 Y9.99
X129.309 Y10.078
X129.638 Y10.206
X130.003 Y10.384
X130.399 Y10.617
X130.817 Y10.91
X131.246 Y11.266
X131.682 Y11.692
X132.108 Y12.18
X132.502 Y12.712
X132.701 Y13.032
X132.762 Y13.155
X132.8 Y13.287
X132.813 Y13.423
G3 X132.304 Y13.666 I-0.317 J-0.011 F1000
G1 X132.23 Y13.61
X128.038 Y10.461 F1400
X128.035 Y10.459 F1000
G3 X128.215 Y9.887 I0.191 J-0.254
G1 X130.126 F1400
X130.366 Y9.899
X130.543 Y9.923
X130.752 Y9.967
X130.964 Y10.031
X131.221 Y10.131
X131.489 Y10.261
X131.797 Y10.442
X132.119 Y10.669
X132.49 Y10.977
X132.589 Y11.073
X132.71 Y11.228
X132.786 Y11.409
X132.813 Y11.603
G3 X132.334 Y11.866 I-0.317 J-0.011 F1000
G1 X132.223 Y11.801
X129.976 Y10.478 F1400
X129.95 Y10.461
G3 X130.126 Y9.887 I0.188 J-0.256 F1000
G1 X131.807 F1400
X131.957 Y9.895
X132.107 Y9.915
X132.258 Y9.948
X132.286 Y9.956
X132.498 Y10.059
X132.666 Y10.224
X132.775 Y10.433
X132.813 Y10.665
G3 X132.32 Y10.919 I-0.317 J-0.011 F1000
G1 X132.227 Y10.857
X131.642 Y10.469 F1400
X131.63 Y10.461
G3 X131.807 Y9.887 I0.188 J-0.256 F1000
G1 X132.356 F1400
X132.516 Y9.89
X132.555 Y9.897
X132.595 Y9.91
X132.635 Y9.928
X132.675 Y9.955
X132.707 Y9.983
X132.739 Y10.016
X132.767 Y10.056
X132.788 Y10.095
X132.801 Y10.135
X132.809 Y10.175
X132.813 Y10.334
Y17.339
G3 X132.239 Y17.515 I-0.317 J-0.011 F1000
G1 X132.197 Y17.458 Z-11.992
X132.158 Y17.404 Z-11.969
X132.122 Y17.356 Z-11.931
X132.092 Y17.315 Z-11.88
X132.07 Y17.285 Z-11.82
X132.056 Y17.266 Z-11.753
X132.051 Y17.259 Z-11.682
G0 Z5
X132.158 Y65.854
Z-11.365
G1 Z-11.682 F1000
X132.162 Y65.861 Z-11.753
X132.174 Y65.881 Z-11.82
X132.194 Y65.913 Z-11.88
X132.219 Y65.957 Z-11.931
X132.25 Y66.008 Z-11.969
X132.284 Y66.066 Z-11.992
X132.32 Y66.127 Z-12
G3 X132.813 Y67.802 I-3.024 J1.798
G1 Y70.827 F1400
X132.798 Y71.112
X132.768 Y71.346
X132.711 Y71.613
X132.621 Y71.911
X132.492 Y72.242
X132.315 Y72.606
X132.086 Y72.997
X131.793 Y73.413
X131.43 Y73.85
X131.011 Y74.28
X130.525 Y74.704
X129.984 Y75.104
X129.669 Y75.301
X129.546 Y75.362
X129.414 Y75.4
X129.277 Y75.412
G3 X129.035 Y74.904 I0.011 J-0.317 F1000
G1 X129.09 Y74.83
X132.239 Y70.65 F1400
X132.242 Y70.647 F1000
G3 X132.813 Y70.827 I0.254 J0.191
G1 Y72.737 F1400
X132.801 Y72.965
X132.778 Y73.143
X132.733 Y73.352
X132.67 Y73.564
X132.569 Y73.821
X132.44 Y74.089
X132.258 Y74.397
X132.033 Y74.718
X131.724 Y75.09
X131.627 Y75.189
X131.473 Y75.31
X131.292 Y75.386
X131.097 Y75.412
G3 X130.835 Y74.934 I0.011 J-0.317 F1000
G1 X130.9 Y74.823
X132.222 Y72.587 F1400
X132.239 Y72.56
G3 X132.813 Y72.737 I0.256 J0.188 F1000
G1 Y74.329 F1400
X132.801 Y74.557
X132.781 Y74.707
X132.749 Y74.857
X132.741 Y74.884
X132.638 Y75.097
X132.474 Y75.266
X132.265 Y75.375
X132.032 Y75.412
G3 X131.77 Y74.932 I0.011 J-0.317 F1000
G1 X131.835 Y74.824
X132.223 Y74.177 F1400
X132.239 Y74.152
G3 X132.813 Y74.329 I0.256 J0.188 F1000
G1 Y74.966 F1400
X132.809 Y75.125
X132.801 Y75.165
X132.788 Y75.205
X132.767 Y75.244
X132.739 Y75.284
X132.707 Y75.317
X132.675 Y75.345
X132.635 Y75.372
X132.595 Y75.39
X132.555 Y75.403
X132.516 Y75.41
X132.356 Y75.412
X125.348
G3 X125.042 Y75.115 I0.011 J-0.317 F1000
G1 X125.041 Y75.095 Z-11.999
X125.055 Y75.042 Z-11.991
X125.068 Y74.991 Z-11.973
X125.08 Y74.944 Z-11.946
X125.111 Y74.908 Z-11.906
X125.136 Y74.879 Z-11.858
X125.155 Y74.857 Z-11.803
X125.167 Y74.844 Z-11.744
X125.171 Y74.839 Z-11.683
G0 Z5
X19.372 Y74.758
Z-15.365
G1 Z-15.682 F1000
X19.365 Y74.762 Z-15.753
X19.345 Y74.774 Z-15.82
X19.313 Y74.794 Z-15.88
X19.27 Y74.819 Z-15.931
X19.218 Y74.85 Z-15.969
X19.16 Y74.884 Z-15.992
X19.099 Y74.92 Z-16
G3 X17.424 Y75.412 I-1.798 J-3.024
G1 X14.485 F1400
X14.186 Y75.398
X13.95 Y75.367
X13.686 Y75.31
X13.391 Y75.222
X13.062 Y75.094
X12.697 Y74.916
X12.301 Y74.683
X11.883 Y74.39
X11.454 Y74.034
X11.018 Y73.608
X10.592 Y73.12
X10.198 Y72.588
X9.999 Y72.268
X9.938 Y72.145
X9.9 Y72.013
X9.887 Y71.877
G3 X10.396 Y71.634 I0.317 J0.011 F1000
G1 X10.47 Y71.69
X14.662 Y74.839 F1400
X14.665 Y74.841 F1000
G3 X14.485 Y75.412 I-0.191 J0.254
G1 X12.574 F1400
X12.334 Y75.401
X12.157 Y75.377
X11.948 Y75.333
X11.736 Y75.269
X11.479 Y75.169
X11.211 Y75.039
X10.903 Y74.858
X10.581 Y74.631
X10.21 Y74.323
X10.111 Y74.227
X9.99 Y74.072
X9.914 Y73.891
X9.887 Y73.697
G3 X10.366 Y73.434 I0.317 J0.011 F1000
G1 X10.477 Y73.499
X12.724 Y74.822 F1400
X12.75 Y74.839
G3 X12.574 Y75.412 I-0.188 J0.256 F1000
G1 X10.893 F1400
X10.743 Y75.405
X10.593 Y75.385
X10.442 Y75.352
X10.414 Y75.344
X10.202 Y75.241
X10.034 Y75.076
X9.925 Y74.867
X9.887 Y74.635
G3 X10.38 Y74.381 I0.317 J0.011 F1000
G1 X10.473 Y74.443
X11.058 Y74.831 F1400
X11.07 Y74.839
G3 X10.893 Y75.412 I-0.188 J0.256 F1000
G1 X10.344 F1400
X10.184 Y75.41
X10.145 Y75.403
X10.105 Y75.39
X10.065 Y75.372
X10.025 Y75.345
X9.993 Y75.317
X9.961 Y75.284
X9.933 Y75.244
X9.913 Y75.205
X9.899 Y75.165
X9.891 Y75.125
X9.887 Y74.966
Y67.961
G3 X10.461 Y67.785 I0.317 J0.011 F1000
G1 X10.503 Y67.842 Z-15.992
X10.542 Y67.896 Z-15.969
X10.578 Y67.944 Z-15.931
X10.608 Y67.985 Z-15.88
X10.63 Y68.015 Z-15.82
X10.644 Y68.034 Z-15.753
X10.649 Y68.041 Z-15.682
G0 Z5
X10.542 Y19.446
Z-15.365
G1 Z-15.682 F1000
X10.538 Y19.439 Z-15.753
X10.526 Y19.419 Z-15.82
X10.506 Y19.387 Z-15.88
X10.481 Y19.343 Z-15.931
X10.45 Y19.292 Z-15.969
X10.416 Y19.234 Z-15.992
X10.38 Y19.173 Z-16
G3 X9.887 Y17.498 I3.024 J-1.798
G1 Y14.473 F1400
X9.902 Y14.188
X9.932 Y13.954
X9.989 Y13.687
X10.079 Y13.389
X10.208 Y13.058
X10.385 Y12.694
X10.614 Y12.303
X10.907 Y11.887
X11.27 Y11.45
X11.689 Y11.02
X12.175 Y10.596
X12.716 Y10.196
X13.031 Y9.999
X13.154 Y9.938
X13.286 Y9.9
X13.423 Y9.887
G3 X13.665 Y10.396 I-0.011 J0.317 F1000
G1 X13.61 Y10.47
X10.461 Y14.65 F1400
X10.458 Y14.653 F1000
G3 X9.887 Y14.473 I-0.254 J-0.191
G1 Y12.563 F1400
X9.899 Y12.335
X9.922 Y12.157
X9.967 Y11.948
X10.03 Y11.736
X10.131 Y11.479
X10.26 Y11.211
X10.442 Y10.903
X10.667 Y10.582
X10.976 Y10.21
X11.073 Y10.111
X11.227 Y9.99
X11.408 Y9.914
X11.603 Y9.887
G3 X11.865 Y10.366 I-0.011 J0.317 F1000
G1 X11.8 Y10.477
X10.478 Y12.713 F1400
X10.461 Y12.74
G3 X9.887 Y12.563 I-0.256 J-0.188 F1000
G1 Y10.971 F1400
X9.899 Y10.743
X9.919 Y10.593
X9.951 Y10.443
X9.959 Y10.416
X10.062 Y10.203
X10.226 Y10.034
X10.435 Y9.925
X10.668 Y9.887
G3 X10.93 Y10.368 I-0.011 J0.317 F1000
G1 X10.865 Y10.476
X10.477 Y11.123 F1400
X10.461 Y11.148
G3 X9.887 Y10.971 I-0.256 J-0.188 F1000
G1 Y10.334 F1400
X9.891 Y10.175
X9.899 Y10.135
X9.913 Y10.095
X9.933 Y10.056
X9.961 Y10.016
X9.993 Y9.983
X10.025 Y9.955
X10.065 Y9.928
X10.105 Y9.91
X10.145 Y9.897
X10.184 Y9.89
X10.344 Y9.887
X17.352
G3 X17.529 Y10.461 I-0.011 J0.317 F1000
G1 X17.472 Y10.503 Z-15.992
X17.418 Y10.542 Z-15.969
X17.369 Y10.578 Z-15.931
X17.329 Y10.608 Z-15.88
X17.298 Y10.63 Z-15.82
X17.279 Y10.644 Z-15.753
X17.273 Y10.649 Z-15.682
G0 Z5
X123.328 Y10.542
Z-15.365
G1 Z-15.682 F1000
X123.335 Y10.538 Z-15.753
X123.355 Y10.526 Z-15.82
X123.387 Y10.506 Z-15.88
X123.43 Y10.481 Z-15.931
X123.482 Y10.45 Z-15.969
X123.54 Y10.416 Z-15.992
X123.601 Y10.38 Z-16
G3 X125.276 Y9.887 I1.798 J3.024
G1 X128.215 F1400
X128.514 Y9.902
X128.75 Y9.933
X129.014 Y9.99
X129.309 Y10.078
X129.638 Y10.206
X130.003 Y10.384
X130.399 Y10.617
X130.817 Y10.91
X131.246 Y11.266
X131.682 Y11.692
X132.108 Y12.18
X132.502 Y12.712
X132.701 Y13.032
X132.762 Y13.155
X132.8 Y13.287
X132.813 Y13.423
G3 X132.304 Y13.666 I-0.317 J-0.011 F1000
G1 X132.23 Y13.61
X128.038 Y10.461 F1400
X128.035 Y10.459 F1000
G3 X128.215 Y9.887 I0.191 J-0.254
G1 X130.126 F1400
X130.366 Y9.899
X130.543 Y9.923
X130.752 Y9.967
X130.964 Y10.031
X131.221 Y10.131
X131.489 Y10.261
X131.797 Y10.442
X132.119 Y10.669
X132.49 Y10.977
X132.589 Y11.073
X132.71 Y11.228
X132.786 Y11.409
X132.813 Y11.603
G3 X132.334 Y11.866 I-0.317 J-0.011 F1000
G1 X132.223 Y11.801
X129.976 Y10.478 F1400
X129.95 Y10.461
G3 X130.126 Y9.887 I0.188 J-0.256 F1000
G1 X131.807 F1400
X131.957 Y9.895
X132.107 Y9.915
X132.258 Y9.948
X132.286 Y9.956
X132.498 Y10.059
X132.666 Y10.224
X132.775 Y10.433
X132.813 Y10.665
G3 X132.32 Y10.919 I-0.317 J-0.011 F1000
G1 X132.227 Y10.857
X131.642 Y10.469 F1400
X131.63 Y10.461
G3 X131.807 Y9.887 I0.188 J-0.256 F1000
G1 X132.356 F1400
X132.516 Y9.89
X132.555 Y9.897
X132.595 Y9.91
X132.635 Y9.928
X132.675 Y9.955
X132.707 Y9.983
X132.739 Y10.016
X132.767 Y10.056
X132.788 Y10.095
X132.801 Y10.135
X132.809 Y10.175
X132.813 Y10.334
Y17.339
G3 X132.239 Y17.515 I-0.317 J-0.011 F1000
G1 X132.197 Y17.458 Z-15.992
X132.158 Y17.404 Z-15.969
X132.122 Y17.356 Z-15.931
X132.092 Y17.315 Z-15.88
X132.07 Y17.285 Z-15.82
X132.056 Y17.266 Z-15.753
X132.051 Y17.259 Z-15.682
G0 Z5
X132.158 Y65.854
Z-15.365
G1 Z-15.682 F1000
X132.162 Y65.861 Z-15.753
X132.174 Y65.881 Z-15.82
X132.194 Y65.913 Z-15.88
X132.219 Y65.957 Z-15.931
X132.25 Y66.008 Z-15.969
X132.284 Y66.066 Z-15.992
X132.32 Y66.127 Z-16
G3 X132.813 Y67.802 I-3.024 J1.798
G1 Y70.827 F1400
X132.798 Y71.112
X132.768 Y71.346
X132.711 Y71.613
X132.621 Y71.911
X132.492 Y72.242
X132.315 Y72.606
X132.086 Y72.997
X131.793 Y73.413
X131.43 Y73.85
X131.011 Y74.28
X130.525 Y74.704
X129.984 Y75.104
X129.669 Y75.301
X129.546 Y75.362
X129.414 Y75.4
X129.277 Y75.412
G3 X129.035 Y74.904 I0.011 J-0.317 F1000
G1 X129.09 Y74.83
X132.239 Y70.65 F1400
X132.242 Y70.647 F1000
G3 X132.813 Y70.827 I0.254 J0.191
G1 Y72.737 F1400
X132.801 Y72.965
X132.778 Y73.143
X132.733 Y73.352
X132.67 Y73.564
X132.569 Y73.821
X132.44 Y74.089
X132.258 Y74.397
X132.033 Y74.718
X131.724 Y75.09
X131.627 Y75.189
X131.473 Y75.31
X131.292 Y75.386
X131.097 Y75.412
G3 X130.835 Y74.934 I0.011 J-0.317 F1000
G1 X130.9 Y74.823
X132.222 Y72.587 F1400
X132.239 Y72.56
G3 X132.813 Y72.737 I0.256 J0.188 F1000
G1 Y74.329 F1400
X132.801 Y74.557
X132.781 Y74.707
X132.749 Y74.857
X132.741 Y74.884
X132.638 Y75.097
X132.474 Y75.266
X132.265 Y75.375
X132.032 Y75.412
G3 X131.77 Y74.932 I0.011 J-0.317 F1000
G1 X131.835 Y74.824
X132.223 Y74.177 F1400
X132.239 Y74.152
G3 X132.813 Y74.329 I0.256 J0.188 F1000
G1 Y74.966 F1400
X132.809 Y75.125
X132.801 Y75.165
X132.788 Y75.205
X132.767 Y75.244
X132.739 Y75.284
X132.707 Y75.317
X132.675 Y75.345
X132.635 Y75.372
X132.595 Y75.39
X132.555 Y75.403
X132.516 Y75.41
X132.356 Y75.412
X125.348
G3 X125.042 Y75.115 I0.011 J-0.317 F1000
G1 X125.041 Y75.095 Z-15.999
X125.055 Y75.042 Z-15.991
X125.068 Y74.991 Z-15.973
X125.08 Y74.944 Z-15.946
X125.111 Y74.908 Z-15.906
X125.136 Y74.879 Z-15.858
X125.155 Y74.857 Z-15.803
X125.167 Y74.844 Z-15.744
X125.171 Y74.839 Z-15.683
G0 Z5
X19.372 Y74.758
Z-18.765
G1 Z-19.083 F1000
X19.365 Y74.762 Z-19.153
X19.345 Y74.774 Z-19.22
X19.313 Y74.794 Z-19.28
X19.27 Y74.819 Z-19.331
X19.218 Y74.85 Z-19.369
X19.16 Y74.884 Z-19.392
X19.099 Y74.92 Z-19.4
G3 X17.424 Y75.412 I-1.798 J-3.024
G1 X14.485 F1400
X14.186 Y75.398
X13.95 Y75.367
X13.686 Y75.31
X13.391 Y75.222
X13.062 Y75.094
X12.697 Y74.916
X12.301 Y74.683
X11.883 Y74.39
X11.454 Y74.034
X11.018 Y73.608
X10.592 Y73.12
X10.198 Y72.588
X9.999 Y72.268
X9.938 Y72.145
X9.9 Y72.013
X9.887 Y71.877
G3 X10.396 Y71.634 I0.317 J0.011 F1000
G1 X10.47 Y71.69
X14.662 Y74.839 F1400
X14.665 Y74.841 F1000
G3 X14.485 Y75.412 I-0.191 J0.254
G1 X12.574 F1400
X12.334 Y75.401
X12.157 Y75.377
X11.948 Y75.333
X11.736 Y75.269
X11.479 Y75.169
X11.211 Y75.039
X10.903 Y74.858
X10.581 Y74.631
X10.21 Y74.323
X10.111 Y74.227
X9.99 Y74.072
X9.914 Y73.891
X9.887 Y73.697
G3 X10.366 Y73.434 I0.317 J0.011 F1000
G1 X10.477 Y73.499
X12.724 Y74.822 F1400
X12.75 Y74.839
G3 X12.574 Y75.412 I-0.188 J0.256 F1000
G1 X10.893 F1400
X10.743 Y75.405
X10.593 Y75.385
X10.442 Y75.352
X10.414 Y75.344
X10.202 Y75.241
X10.034 Y75.076
X9.925 Y74.867
X9.887 Y74.635
G3 X10.38 Y74.381 I0.317 J0.011 F1000
G1 X10.473 Y74.443
X11.058 Y74.831 F1400
X11.07 Y74.839
G3 X10.893 Y75.412 I-0.188 J0.256 F1000
G1 X10.344 F1400
X10.184 Y75.41
X10.145 Y75.403
X10.105 Y75.39
X10.065 Y75.372
X10.025 Y75.345
X9.993 Y75.317
X9.961 Y75.284
X9.933 Y75.244
X9.913 Y75.205
X9.899 Y75.165
X9.891 Y75.125
X9.887 Y74.966
Y67.961
G3 X10.461 Y67.785 I0.317 J0.011 F1000
G1 X10.503 Y67.842 Z-19.392
X10.542 Y67.896 Z-19.369
X10.578 Y67.944 Z-19.331
X10.608 Y67.985 Z-19.28
X10.63 Y68.015 Z-19.22
X10.644 Y68.034 Z-19.153
X10.649 Y68.041 Z-19.083
G0 Z5
X10.542 Y19.446
Z-18.765
G1 Z-19.083 F1000
X10.538 Y19.439 Z-19.153
X10.526 Y19.419 Z-19.22
X10.506 Y19.387 Z-19.28
X10.481 Y19.343 Z-19.331
X10.45 Y19.292 Z-19.369
X10.416 Y19.234 Z-19.392
X10.38 Y19.173 Z-19.4
G3 X9.887 Y17.498 I3.024 J-1.798
G1 Y14.473 F1400
X9.902 Y14.188
X9.932 Y13.954
X9.989 Y13.687
X10.079 Y13.389
X10.208 Y13.058
X10.385 Y12.694
X10.614 Y12.303
X10.907 Y11.887
X11.27 Y11.45
X11.689 Y11.02
X12.175 Y10.596
X12.716 Y10.196
X13.031 Y9.999
X13.154 Y9.938
X13.286 Y9.9
X13.423 Y9.887
G3 X13.665 Y10.396 I-0.011 J0.317 F1000
G1 X13.61 Y10.47
X10.461 Y14.65 F1400
X10.458 Y14.653 F1000
G3 X9.887 Y14.473 I-0.254 J-0.191
G1 Y12.563 F1400
X9.899 Y12.335
X9.922 Y12.157
X9.967 Y11.948
X10.03 Y11.736
X10.131 Y11.479
X10.26 Y11.211
X10.442 Y10.903
X10.667 Y10.582
X10.976 Y10.21
X11.073 Y10.111
X11.227 Y9.99
X11.408 Y9.914
X11.603 Y9.887
G3 X11.865 Y10.366 I-0.011 J0.317 F1000
G1 X11.8 Y10.477
X10.478 Y12.713 F1400
X10.461 Y12.74
G3 X9.887 Y12.563 I-0.256 J-0.188 F1000
G1 Y10.971 F1400
X9.899 Y10.743
X9.919 Y10.593
X9.951 Y10.443
X9.959 Y10.416
X10.062 Y10.203
X10.226 Y10.034
X10.435 Y9.925
X10.668 Y9.887
G3 X10.93 Y10.368 I-0.011 J0.317 F1000
G1 X10.865 Y10.476
X10.477 Y11.123 F1400
X10.461 Y11.148
G3 X9.887 Y10.971 I-0.256 J-0.188 F1000
G1 Y10.334 F1400
X9.891 Y10.175
X9.899 Y10.135
X9.913 Y10.095
X9.933 Y10.056
X9.961 Y10.016
X9.993 Y9.983
X10.025 Y9.955
X10.065 Y9.928
X10.105 Y9.91
X10.145 Y9.897
X10.184 Y9.89
X10.344 Y9.887
X17.352
G3 X17.529 Y10.461 I-0.011 J0.317 F1000
G1 X17.472 Y10.503 Z-19.392
X17.418 Y10.542 Z-19.369
X17.369 Y10.578 Z-19.331
X17.329 Y10.608 Z-19.28
X17.298 Y10.63 Z-19.22
X17.279 Y10.644 Z-19.153
X17.273 Y10.649 Z-19.083
G0 Z5
X123.328 Y10.542
Z-18.765
G1 Z-19.083 F1000
X123.335 Y10.538 Z-19.153
X123.355 Y10.526 Z-19.22
X123.387 Y10.506 Z-19.28
X123.43 Y10.481 Z-19.331
X123.482 Y10.45 Z-19.369
X123.54 Y10.416 Z-19.392
X123.601 Y10.38 Z-19.4
G3 X125.276 Y9.887 I1.798 J3.024
G1 X128.215 F1400
X128.514 Y9.902
X128.75 Y9.933
X129.014 Y9.99
X129.309 Y10.078
X129.638 Y10.206
X130.003 Y10.384
X130.399 Y10.617
X130.817 Y10.91
X131.246 Y11.266
X131.682 Y11.692
X132.108 Y12.18
X132.502 Y12.712
X132.701 Y13.032
X132.762 Y13.155
X132.8 Y13.287
X132.813 Y13.423
G3 X132.304 Y13.666 I-0.317 J-0.011 F1000
G1 X132.23 Y13.61
X128.038 Y10.461 F1400
X128.035 Y10.459 F1000
G3 X128.215 Y9.887 I0.191 J-0.254
G1 X130.126 F1400
X130.366 Y9.899
X130.543 Y9.923
X130.752 Y9.967
X130.964 Y10.031
X131.221 Y10.131
X131.489 Y10.261
X131.797 Y10.442
X132.119 Y10.669
X132.49 Y10.977
X132.589 Y11.073
X132.71 Y11.228
X132.786 Y11.409
X132.813 Y11.603
G3 X132.334 Y11.866 I-0.317 J-0.011 F1000
G1 X132.223 Y11.801
X129.976 Y10.478 F1400
X129.95 Y10.461
G3 X130.126 Y9.887 I0.188 J-0.256 F1000
G1 X131.807 F1400
X131.957 Y9.895
X132.107 Y9.915
X132.258 Y9.948
X132.286 Y9.956
X132.498 Y10.059
X132.666 Y10.224
X132.775 Y10.433
X132.813 Y10.665
G3 X132.32 Y10.919 I-0.317 J-0.011 F1000
G1 X132.227 Y10.857
X131.642 Y10.469 F1400
X131.63 Y10.461
G3 X131.807 Y9.887 I0.188 J-0.256 F1000
G1 X132.356 F1400
X132.516 Y9.89
X132.555 Y9.897
X132.595 Y9.91
X132.635 Y9.928
X132.675 Y9.955
X132.707 Y9.983
X132.739 Y10.016
X132.767 Y10.056
X132.788 Y10.095
X132.801 Y10.135
X132.809 Y10.175
X132.813 Y10.334
Y17.339
G3 X132.239 Y17.515 I-0.317 J-0.011 F1000
G1 X132.197 Y17.458 Z-19.392
X132.158 Y17.404 Z-19.369
X132.122 Y17.356 Z-19.331
X132.092 Y17.315 Z-19.28
X132.07 Y17.285 Z-19.22
X132.056 Y17.266 Z-19.153
X132.051 Y17.259 Z-19.083
G0 Z5
X132.158 Y65.854
Z-18.765
G1 Z-19.083 F1000
X132.162 Y65.861 Z-19.153
X132.174 Y65.881 Z-19.22
X132.194 Y65.913 Z-19.28
X132.219 Y65.957 Z-19.331
X132.25 Y66.008 Z-19.369
X132.284 Y66.066 Z-19.392
X132.32 Y66.127 Z-19.4
G3 X132.813 Y67.802 I-3.024 J1.798
G1 Y70.827 F1400
X132.798 Y71.112
X132.768 Y71.346
X132.711 Y71.613
X132.621 Y71.911
X132.492 Y72.242
X132.315 Y72.606
X132.086 Y72.997
X131.793 Y73.413
X131.43 Y73.85
X131.011 Y74.28
X130.525 Y74.704
X129.984 Y75.104
X129.669 Y75.301
X129.546 Y75.362
X129.414 Y75.4
X129.277 Y75.412
G3 X129.035 Y74.904 I0.011 J-0.317 F1000
G1 X129.09 Y74.83
X132.239 Y70.65 F1400
X132.242 Y70.647 F1000
G3 X132.813 Y70.827 I0.254 J0.191
G1 Y72.737 F1400
X132.801 Y72.965
X132.778 Y73.143
X132.733 Y73.352
X132.67 Y73.564
X132.569 Y73.821
X132.44 Y74.089
X132.258 Y74.397
X132.033 Y74.718
X131.724 Y75.09
X131.627 Y75.189
X131.473 Y75.31
X131.292 Y75.386
X131.097 Y75.412
G3 X130.835 Y74.934 I0.011 J-0.317 F1000
G1 X130.9 Y74.823
X132.222 Y72.587 F1400
X132.239 Y72.56
G3 X132.813 Y72.737 I0.256 J0.188 F1000
G1 Y74.329 F1400
X132.801 Y74.557
X132.781 Y74.707
X132.749 Y74.857
X132.741 Y74.884
X132.638 Y75.097
X132.474 Y75.266
X132.265 Y75.375
X132.032 Y75.412
G3 X131.77 Y74.932 I0.011 J-0.317 F1000
G1 X131.835 Y74.824
X132.223 Y74.177 F1400
X132.239 Y74.152
G3 X132.813 Y74.329 I0.256 J0.188 F1000
G1 Y74.966 F1400
X132.809 Y75.125
X132.801 Y75.165
X132.788 Y75.205
X132.767 Y75.244
X132.739 Y75.284
X132.707 Y75.317
X132.675 Y75.345
X132.635 Y75.372
X132.595 Y75.39
X132.555 Y75.403
X132.516 Y75.41
X132.356 Y75.412
X125.348
G3 X125.171 Y74.839 I0.011 J-0.317 F1000
G1 X125.228 Y74.797 Z-19.392
X125.282 Y74.758 Z-19.369
X125.331 Y74.722 Z-19.331
X125.371 Y74.692 Z-19.28
X125.402 Y74.67 Z-19.22
X125.421 Y74.656 Z-19.153
X125.427 Y74.651 Z-19.083
G0 Z10
M30
%
