%
(1001)
(T1  D=3.175 CR=0 - ZMIN=-22.4 - flat end mill)
G90 G94
G17
G21

(Fine #2 - 1/8)
M9
T1 M6
S5000 M3
G54
M8
G0 X39.403 Y74.758
Z10
Z5
Z-21.765
G1 Z-22.083 F1000
X39.396 Y74.762 Z-22.153
X39.376 Y74.774 Z-22.22
X39.343 Y74.794 Z-22.28
X39.3 Y74.819 Z-22.331
X39.248 Y74.85 Z-22.369
X39.191 Y74.884 Z-22.392
X39.13 Y74.92 Z-22.4
G3 X37.454 Y75.412 I-1.798 J-3.024
G1 X34.396 F1400
X34.19 Y75.402
X33.959 Y75.372
X33.693 Y75.315
X33.393 Y75.225
X33.063 Y75.097
X32.699 Y74.92
X32.305 Y74.688
X31.887 Y74.395
X31.448 Y74.03
X31.022 Y73.615
X30.595 Y73.125
X30.201 Y72.592
X29.999 Y72.268
X29.938 Y72.146
X29.9 Y72.014
X29.888 Y71.877
G3 X30.398 Y71.636 I0.317 J0.011 F1000
G1 X30.469 Y71.691
X34.573 Y74.839 F1400
X34.578 Y74.843 F1000
G3 X34.396 Y75.412 I-0.193 J0.252
G1 X32.484 F1400
X32.335 Y75.405
X32.156 Y75.381
X31.945 Y75.336
X31.733 Y75.272
X31.475 Y75.17
X31.207 Y75.04
X30.897 Y74.857
X30.575 Y74.63
X30.204 Y74.32
X30.11 Y74.228
X29.989 Y74.074
X29.913 Y73.893
X29.888 Y73.699
G3 X30.37 Y73.439 I0.317 J0.011 F1000
G1 X30.476 Y73.503
X32.639 Y74.824 F1400
X32.661 Y74.839
G3 X32.484 Y75.412 I-0.188 J0.256 F1000
G1 X30.892 F1400
X30.742 Y75.405
X30.591 Y75.385
X30.441 Y75.352
X30.414 Y75.344
X30.202 Y75.241
X30.034 Y75.077
X29.925 Y74.868
X29.888 Y74.635
G3 X30.381 Y74.382 I0.317 J0.011 F1000
G1 X30.473 Y74.444
X31.056 Y74.831 F1400
X31.068 Y74.839
G3 X30.892 Y75.412 I-0.188 J0.256 F1000
G1 X30.254 F1400
X30.175 Y75.409
X30.135 Y75.4
X30.095 Y75.386
X30.062 Y75.368
X30.028 Y75.345
X29.994 Y75.319
X29.961 Y75.284
X29.936 Y75.249
X29.919 Y75.218
X29.906 Y75.187
X29.896 Y75.156
X29.891 Y75.125
X29.888 Y74.966
Y67.961
G3 X30.461 Y67.785 I0.317 J0.011 F1000
G1 X30.503 Y67.842 Z-22.392
X30.542 Y67.896 Z-22.369
X30.578 Y67.944 Z-22.331
X30.608 Y67.985 Z-22.28
X30.63 Y68.015 Z-22.22
X30.644 Y68.034 Z-22.153
X30.649 Y68.041 Z-22.083
G0 Z5
X19.372 Y62.758
Z-21.765
G1 Z-22.083 F1000
X19.365 Y62.762 Z-22.153
X19.345 Y62.774 Z-22.22
X19.313 Y62.794 Z-22.28
X19.27 Y62.819 Z-22.331
X19.218 Y62.85 Z-22.369
X19.16 Y62.884 Z-22.392
X19.099 Y62.92 Z-22.4
G3 X17.424 Y63.412 I-1.798 J-3.024
G1 X14.485 F1400
X14.183 Y63.397
X13.952 Y63.367
X13.689 Y63.311
X13.392 Y63.222
X13.062 Y63.093
X12.697 Y62.916
X12.298 Y62.681
X11.886 Y62.392
X11.446 Y62.027
X11.02 Y61.611
X10.595 Y61.123
X10.198 Y60.588
X9.999 Y60.268
X9.938 Y60.145
X9.9 Y60.013
X9.887 Y59.877
G3 X10.396 Y59.634 I0.317 J0.011 F1000
G1 X10.47 Y59.69
X14.662 Y62.839 F1400
X14.665 Y62.841 F1000
G3 X14.485 Y63.412 I-0.191 J0.254
G1 X12.574 F1400
X12.335 Y63.401
X12.157 Y63.377
X11.947 Y63.332
X11.735 Y63.269
X11.478 Y63.169
X11.211 Y63.039
X10.903 Y62.858
X10.581 Y62.632
X10.21 Y62.324
X10.111 Y62.227
X9.99 Y62.072
X9.914 Y61.891
X9.887 Y61.697
G3 X10.366 Y61.434 I0.317 J0.011 F1000
G1 X10.477 Y61.499
X12.724 Y62.822 F1400
X12.75 Y62.839
G3 X12.574 Y63.412 I-0.188 J0.256 F1000
G1 X10.893 F1400
X10.743 Y63.405
X10.593 Y63.385
X10.443 Y63.352
X10.414 Y63.344
X10.202 Y63.241
X10.034 Y63.076
X9.925 Y62.867
X9.887 Y62.635
G3 X10.38 Y62.381 I0.317 J0.011 F1000
G1 X10.473 Y62.443
X11.058 Y62.831 F1400
X11.07 Y62.839
G3 X10.893 Y63.412 I-0.188 J0.256 F1000
G1 X10.344 F1400
X10.184 Y63.41
X10.145 Y63.403
X10.105 Y63.39
X10.065 Y63.372
X10.025 Y63.345
X10.004 Y63.327
X9.983 Y63.305
X9.95 Y63.265
X9.925 Y63.225
X9.907 Y63.186
X9.895 Y63.146
X9.889 Y63.106
X9.887 Y63.026
Y55.934
G3 X10.461 Y55.758 I0.317 J0.011 F1000
G1 X10.503 Y55.815 Z-22.392
X10.542 Y55.869 Z-22.369
X10.578 Y55.917 Z-22.331
X10.608 Y55.958 Z-22.28
X10.63 Y55.988 Z-22.22
X10.644 Y56.007 Z-22.153
X10.649 Y56.014 Z-22.083
G0 Z5
X10.542 Y31.457
Z-21.765
G1 Z-22.083 F1000
X10.538 Y31.45 Z-22.153
X10.526 Y31.43 Z-22.22
X10.506 Y31.398 Z-22.28
X10.481 Y31.354 Z-22.331
X10.45 Y31.303 Z-22.369
X10.416 Y31.245 Z-22.392
X10.38 Y31.184 Z-22.4
G3 X9.887 Y29.509 I3.024 J-1.798
G1 Y26.413 F1400
X9.899 Y26.191
X9.93 Y25.955
X9.986 Y25.693
X10.074 Y25.397
X10.204 Y25.064
X10.382 Y24.696
X10.612 Y24.306
X10.907 Y23.886
X11.268 Y23.451
X11.691 Y23.018
X12.171 Y22.599
X12.717 Y22.195
X13.032 Y21.999
X13.154 Y21.938
X13.286 Y21.9
X13.423 Y21.888
G3 X13.664 Y22.398 I-0.011 J0.317 F1000
G1 X13.609 Y22.47
X10.461 Y26.589 F1400
X10.457 Y26.594 F1000
G3 X9.887 Y26.413 I-0.252 J-0.193
G1 Y24.502 F1400
X9.896 Y24.338
X9.919 Y24.161
X9.964 Y23.951
X10.027 Y23.739
X10.127 Y23.482
X10.258 Y23.213
X10.439 Y22.905
X10.665 Y22.584
X10.974 Y22.212
X11.072 Y22.111
X11.227 Y21.99
X11.408 Y21.914
X11.602 Y21.888
G3 X11.863 Y22.369 I-0.011 J0.317 F1000
G1 X11.798 Y22.476
X10.476 Y24.656 F1400
X10.461 Y24.679
G3 X9.887 Y24.502 I-0.256 J-0.188 F1000
G1 Y22.91 F1400
X9.896 Y22.745
X9.915 Y22.595
X9.948 Y22.445
X9.956 Y22.416
X10.059 Y22.203
X10.224 Y22.034
X10.433 Y21.925
X10.666 Y21.888
G3 X10.921 Y22.377 I-0.011 J0.317 F1000
G1 X10.859 Y22.474
X10.471 Y23.072 F1400
X10.461 Y23.087
G3 X10.205 Y23.217 I-0.256 J-0.188 F1000
X9.887 Y22.91 J-0.317
G1 Y22.274 F1400
X9.889 Y22.194
X9.895 Y22.154
X9.907 Y22.114
X9.925 Y22.075
X9.95 Y22.035
X9.983 Y21.995
X10.004 Y21.973
X10.025 Y21.955
X10.065 Y21.928
X10.105 Y21.91
X10.145 Y21.897
X10.184 Y21.89
X10.344 Y21.888
X17.352
G3 X17.529 Y22.461 I-0.011 J0.317 F1000
G1 X17.472 Y22.503 Z-22.392
X17.418 Y22.542 Z-22.369
X17.369 Y22.578 Z-22.331
X17.329 Y22.608 Z-22.28
X17.298 Y22.63 Z-22.22
X17.279 Y22.644 Z-22.153
X17.273 Y22.649 Z-22.083
G0 Z5
X30.542 Y19.398
Z-21.765
G1 Z-22.083 F1000
X30.538 Y19.391 Z-22.153
X30.526 Y19.371 Z-22.22
X30.506 Y19.339 Z-22.28
X30.481 Y19.295 Z-22.331
X30.45 Y19.244 Z-22.369
X30.416 Y19.186 Z-22.392
X30.38 Y19.125 Z-22.4
G3 X29.888 Y17.45 I3.024 J-1.798
G1 Y14.473 F1400
X29.902 Y14.187
X29.933 Y13.95
X29.989 Y13.689
X30.077 Y13.393
X30.207 Y13.061
X30.383 Y12.697
X30.619 Y12.296
X30.91 Y11.882
X31.267 Y11.452
X31.695 Y11.013
X32.171 Y10.598
X32.712 Y10.198
X33.031 Y9.999
X33.153 Y9.938
X33.285 Y9.9
X33.422 Y9.887
G3 X33.665 Y10.396 I-0.011 J0.317 F1000
G1 X33.609 Y10.47
X30.461 Y14.65 F1400
X30.458 Y14.653 F1000
G3 X29.888 Y14.473 I-0.254 J-0.191
G1 Y12.563 F1400
X29.899 Y12.334
X29.922 Y12.156
X29.967 Y11.947
X30.03 Y11.736
X30.13 Y11.479
X30.261 Y11.209
X30.443 Y10.901
X30.667 Y10.581
X30.976 Y10.21
X31.072 Y10.111
X31.227 Y9.99
X31.407 Y9.914
X31.602 Y9.887
G3 X31.864 Y10.366 I-0.011 J0.317 F1000
G1 X31.799 Y10.477
X30.478 Y12.713 F1400
X30.461 Y12.74
G3 X29.888 Y12.563 I-0.256 J-0.188 F1000
G1 Y10.971 F1400
X29.899 Y10.742
X29.919 Y10.592
X29.951 Y10.443
X29.959 Y10.416
X30.061 Y10.203
X30.226 Y10.034
X30.435 Y9.925
X30.668 Y9.887
G3 X30.93 Y10.368 I-0.011 J0.317 F1000
G1 X30.865 Y10.476
X30.477 Y11.123 F1400
X30.461 Y11.148
G3 X29.888 Y10.971 I-0.256 J-0.188 F1000
G1 Y10.334 F1400
X29.891 Y10.175
X29.896 Y10.144
X29.906 Y10.113
X29.919 Y10.082
X29.936 Y10.051
X29.961 Y10.016
X29.994 Y9.981
X30.028 Y9.955
X30.062 Y9.932
X30.095 Y9.914
X30.135 Y9.9
X30.175 Y9.891
X30.254 Y9.887
X37.351
G3 X37.527 Y10.461 I-0.011 J0.317 F1000
G1 X37.47 Y10.503 Z-22.392
X37.416 Y10.542 Z-22.369
X37.368 Y10.578 Z-22.331
X37.327 Y10.608 Z-22.28
X37.297 Y10.63 Z-22.22
X37.278 Y10.644 Z-22.153
X37.271 Y10.649 Z-22.083
G0 Z5
X103.297 Y10.542
Z-21.765
G1 Z-22.083 F1000
X103.304 Y10.538 Z-22.153
X103.324 Y10.526 Z-22.22
X103.357 Y10.506 Z-22.28
X103.4 Y10.481 Z-22.331
X103.452 Y10.45 Z-22.369
X103.509 Y10.416 Z-22.392
X103.57 Y10.38 Z-22.4
G3 X105.246 Y9.887 I1.798 J3.024
G1 X108.304 F1400
X108.51 Y9.898
X108.741 Y9.928
X109.007 Y9.985
X109.307 Y10.075
X109.637 Y10.203
X110.001 Y10.38
X110.395 Y10.612
X110.813 Y10.905
X111.252 Y11.27
X111.678 Y11.685
X112.105 Y12.175
X112.499 Y12.708
X112.701 Y13.032
X112.762 Y13.154
X112.8 Y13.286
X112.813 Y13.423
G3 X112.302 Y13.664 I-0.317 J-0.011 F1000
G1 X112.231 Y13.609
X108.127 Y10.461 F1400
X108.122 Y10.457 F1000
G3 X108.304 Y9.887 I0.193 J-0.252
G1 X110.216 F1400
X110.365 Y9.895
X110.544 Y9.919
X110.755 Y9.964
X110.967 Y10.028
X111.225 Y10.13
X111.493 Y10.26
X111.803 Y10.443
X112.125 Y10.67
X112.496 Y10.98
X112.59 Y11.072
X112.711 Y11.226
X112.787 Y11.407
X112.813 Y11.601
G3 X112.33 Y11.861 I-0.317 J-0.011 F1000
G1 X112.224 Y11.797
X110.061 Y10.476 F1400
X110.039 Y10.461
G3 X110.216 Y9.887 I0.188 J-0.256 F1000
G1 X111.808 F1400
X111.958 Y9.895
X112.109 Y9.915
X112.259 Y9.948
X112.286 Y9.956
X112.498 Y10.059
X112.666 Y10.223
X112.775 Y10.432
X112.813 Y10.665
G3 X112.319 Y10.918 I-0.317 J-0.011 F1000
G1 X112.227 Y10.856
X111.644 Y10.469 F1400
X111.632 Y10.461
G3 X111.808 Y9.887 I0.188 J-0.256 F1000
G1 X112.446 F1400
X112.525 Y9.891
X112.565 Y9.9
X112.605 Y9.914
X112.638 Y9.932
X112.672 Y9.955
X112.706 Y9.981
X112.739 Y10.016
X112.764 Y10.051
X112.781 Y10.082
X112.794 Y10.113
X112.804 Y10.144
X112.809 Y10.175
X112.813 Y10.334
Y17.339
G3 X112.239 Y17.515 I-0.317 J-0.011 F1000
G1 X112.197 Y17.458 Z-22.392
X112.158 Y17.404 Z-22.369
X112.122 Y17.356 Z-22.331
X112.092 Y17.315 Z-22.28
X112.07 Y17.285 Z-22.22
X112.056 Y17.266 Z-22.153
X112.051 Y17.259 Z-22.083
G0 Z5
X123.328 Y22.542
Z-21.765
G1 Z-22.083 F1000
X123.335 Y22.538 Z-22.153
X123.355 Y22.526 Z-22.22
X123.387 Y22.506 Z-22.28
X123.43 Y22.481 Z-22.331
X123.482 Y22.45 Z-22.369
X123.54 Y22.416 Z-22.392
X123.601 Y22.38 Z-22.4
G3 X125.276 Y21.888 I1.798 J3.024
G1 X128.215 F1400
X128.517 Y21.903
X128.748 Y21.933
X129.011 Y21.989
X129.308 Y22.078
X129.638 Y22.207
X130.003 Y22.384
X130.402 Y22.619
X130.814 Y22.908
X131.254 Y23.273
X131.68 Y23.689
X132.105 Y24.177
X132.502 Y24.712
X132.701 Y25.032
X132.762 Y25.155
X132.8 Y25.287
X132.813 Y25.423
G3 X132.304 Y25.666 I-0.317 J-0.011 F1000
G1 X132.23 Y25.61
X128.038 Y22.461 F1400
X128.035 Y22.459 F1000
G3 X128.215 Y21.888 I0.191 J-0.254
G1 X130.126 F1400
X130.365 Y21.899
X130.543 Y21.923
X130.753 Y21.968
X130.965 Y22.031
X131.222 Y22.131
X131.489 Y22.261
X131.797 Y22.442
X132.119 Y22.668
X132.49 Y22.976
X132.589 Y23.073
X132.71 Y23.228
X132.786 Y23.409
X132.813 Y23.603
G3 X132.334 Y23.866 I-0.317 J-0.011 F1000
G1 X132.223 Y23.801
X129.976 Y22.478 F1400
X129.95 Y22.461
G3 X130.126 Y21.888 I0.188 J-0.256 F1000
G1 X131.807 F1400
X131.957 Y21.895
X132.107 Y21.915
X132.257 Y21.948
X132.286 Y21.956
X132.498 Y22.059
X132.666 Y22.224
X132.775 Y22.433
X132.813 Y22.665
G3 X132.32 Y22.919 I-0.317 J-0.011 F1000
G1 X132.227 Y22.857
X131.642 Y22.469 F1400
X131.63 Y22.461
G3 X131.807 Y21.888 I0.188 J-0.256 F1000
G1 X132.356 F1400
X132.516 Y21.89
X132.555 Y21.897
X132.595 Y21.91
X132.635 Y21.928
X132.675 Y21.955
X132.696 Y21.973
X132.717 Y21.995
X132.75 Y22.035
X132.775 Y22.075
X132.793 Y22.114
X132.805 Y22.154
X132.811 Y22.194
X132.813 Y22.274
Y29.366
G3 X132.239 Y29.542 I-0.317 J-0.011 F1000
G1 X132.197 Y29.485 Z-22.392
X132.158 Y29.431 Z-22.369
X132.122 Y29.383 Z-22.331
X132.092 Y29.342 Z-22.28
X132.07 Y29.312 Z-22.22
X132.056 Y29.293 Z-22.153
X132.051 Y29.286 Z-22.083
G0 Z5
X132.158 Y53.843
Z-21.765
G1 Z-22.083 F1000
X132.162 Y53.85 Z-22.153
X132.174 Y53.87 Z-22.22
X132.194 Y53.902 Z-22.28
X132.219 Y53.946 Z-22.331
X132.25 Y53.997 Z-22.369
X132.284 Y54.055 Z-22.392
X132.32 Y54.116 Z-22.4
G3 X132.813 Y55.791 I-3.024 J1.798
G1 Y58.887 F1400
X132.801 Y59.109
X132.77 Y59.345
X132.714 Y59.607
X132.626 Y59.903
X132.496 Y60.236
X132.318 Y60.604
X132.088 Y60.994
X131.793 Y61.414
X131.432 Y61.849
X131.009 Y62.282
X130.529 Y62.701
X129.983 Y63.105
X129.668 Y63.301
X129.546 Y63.362
X129.414 Y63.4
X129.277 Y63.412
G3 X129.036 Y62.902 I0.011 J-0.317 F1000
G1 X129.091 Y62.83
X132.239 Y58.711 F1400
X132.243 Y58.706 F1000
G3 X132.813 Y58.887 I0.252 J0.193
G1 Y60.798 F1400
X132.804 Y60.962
X132.781 Y61.139
X132.736 Y61.349
X132.673 Y61.561
X132.573 Y61.818
X132.442 Y62.087
X132.261 Y62.395
X132.035 Y62.716
X131.726 Y63.088
X131.628 Y63.189
X131.473 Y63.31
X131.292 Y63.386
X131.098 Y63.412
G3 X130.837 Y62.931 I0.011 J-0.317 F1000
G1 X130.902 Y62.824
X132.224 Y60.644 F1400
X132.239 Y60.621
G3 X132.813 Y60.798 I0.256 J0.188 F1000
G1 Y62.39 F1400
X132.804 Y62.555
X132.785 Y62.705
X132.752 Y62.855
X132.744 Y62.884
X132.641 Y63.097
X132.476 Y63.266
X132.267 Y63.375
X132.034 Y63.412
G3 X131.779 Y62.923 I0.011 J-0.317 F1000
G1 X131.841 Y62.826
X132.229 Y62.228 F1400
X132.239 Y62.213
G3 X132.495 Y62.083 I0.256 J0.188 F1000
X132.813 Y62.39 J0.318
G1 Y63.026 F1400
X132.811 Y63.106
X132.805 Y63.146
X132.793 Y63.186
X132.775 Y63.225
X132.75 Y63.265
X132.717 Y63.305
X132.696 Y63.327
X132.675 Y63.345
X132.635 Y63.372
X132.595 Y63.39
X132.555 Y63.403
X132.516 Y63.41
X132.356 Y63.412
X125.348
G3 X125.171 Y62.839 I0.011 J-0.317 F1000
G1 X125.228 Y62.797 Z-22.392
X125.282 Y62.758 Z-22.369
X125.331 Y62.722 Z-22.331
X125.371 Y62.692 Z-22.28
X125.402 Y62.67 Z-22.22
X125.421 Y62.656 Z-22.153
X125.427 Y62.651 Z-22.083
G0 Z5
X112.158 Y65.902
Z-21.765
G1 Z-22.083 F1000
X112.162 Y65.909 Z-22.153
X112.174 Y65.929 Z-22.22
X112.194 Y65.961 Z-22.28
X112.219 Y66.005 Z-22.331
X112.25 Y66.056 Z-22.369
X112.284 Y66.114 Z-22.392
X112.32 Y66.175 Z-22.4
G3 X112.813 Y67.85 I-3.024 J1.798
G1 Y70.827 F1400
X112.798 Y71.113
X112.767 Y71.35
X112.711 Y71.611
X112.623 Y71.907
X112.493 Y72.239
X112.317 Y72.603
X112.081 Y73.004
X111.79 Y73.418
X111.433 Y73.848
X111.005 Y74.287
X110.529 Y74.702
X109.988 Y75.102
X109.669 Y75.301
X109.547 Y75.362
X109.415 Y75.4
X109.278 Y75.412
G3 X109.035 Y74.904 I0.011 J-0.317 F1000
G1 X109.091 Y74.83
X112.239 Y70.65 F1400
X112.242 Y70.647 F1000
G3 X112.813 Y70.827 I0.254 J0.191
G1 Y72.737 F1400
X112.801 Y72.966
X112.778 Y73.144
X112.733 Y73.353
X112.67 Y73.564
X112.57 Y73.821
X112.439 Y74.091
X112.257 Y74.399
X112.033 Y74.719
X111.724 Y75.09
X111.628 Y75.189
X111.473 Y75.31
X111.293 Y75.386
X111.098 Y75.412
G3 X110.836 Y74.934 I0.011 J-0.317 F1000
G1 X110.901 Y74.823
X112.222 Y72.587 F1400
X112.239 Y72.56
G3 X112.813 Y72.737 I0.256 J0.188 F1000
G1 Y74.329 F1400
X112.801 Y74.558
X112.781 Y74.708
X112.749 Y74.857
X112.741 Y74.884
X112.639 Y75.097
X112.474 Y75.266
X112.265 Y75.375
X112.032 Y75.412
G3 X111.77 Y74.932 I0.011 J-0.317 F1000
G1 X111.835 Y74.824
X112.223 Y74.177 F1400
X112.239 Y74.152
G3 X112.813 Y74.329 I0.256 J0.188 F1000
G1 Y74.966 F1400
X112.809 Y75.125
X112.804 Y75.156
X112.794 Y75.187
X112.781 Y75.218
X112.764 Y75.249
X112.739 Y75.284
X112.706 Y75.319
X112.672 Y75.345
X112.638 Y75.368
X112.605 Y75.386
X112.565 Y75.4
X112.525 Y75.409
X112.446 Y75.412
X105.349
G3 X105.173 Y74.839 I0.011 J-0.317 F1000
G1 X105.23 Y74.797 Z-22.392
X105.284 Y74.758 Z-22.369
X105.332 Y74.722 Z-22.331
X105.373 Y74.692 Z-22.28
X105.403 Y74.67 Z-22.22
X105.422 Y74.656 Z-22.153
X105.429 Y74.651 Z-22.083
G0 Z10
M9
M30
%
