%
(1001)
(T1  D=3.175 CR=0 - ZMIN=-19.4 - flat end mill)
G90 G94
G17
G21

(Contour #1 - 1/8)
M9
T1 M6
S5000 M3
G54
G0 X42.968 Y74.76
Z11
G1 Z-9.683 F330
G19 G3 Y75.077 Z-10 J0.317
G1 Y75.395 F1000
G17 G3 X42.65 Y75.713 I-0.318
G1 X9.587
Y9.587
X133.113
Y75.713
X42.65
G3 X42.333 Y75.395 J-0.318
G1 Y75.077
G19 G2 Y74.76 Z-9.683 K0.318
G0 Z5
X42.968
G1 Z1 F330
Z-19.083
G3 Y75.077 Z-19.4 J0.317
G1 Y75.395 F1000
G17 G3 X42.65 Y75.713 I-0.318
G1 X9.587
Y9.587
X133.113
Y75.713
X42.65
G3 X42.333 Y75.395 J-0.318
G1 Y75.077
G19 G2 Y74.76 Z-19.083 K0.317
G0 Z11
G17
M30
%
