%
(1001)
(T1  D=6.35 CR=0 TAPER=30deg - ZMIN=-1.591 - chamfer mill)
G90 G94
G17
G21

(Engrave2)
M9
T1 M6
S5000 M3
G54
G0 X4.205 Y56.442
Z10
Z5
G1 Z-0.001 F762
X4.382 Y56.003 Z-0.308 F1000
X4.205 Y55.93 Z-0.001
X4.382 Y56.003 Z-0.308
X5.244 Y55.126 Z-0.29
X5.28 Y55.094 Z-0.295
X5.319 Y55.068 Z-0.311
X5.361 Y55.047 Z-0.338
X5.409 Y55.03 Z-0.375
X5.432 Y55.053 Z-0.348
X5.463 Y55.082 Z-0.325
X5.474 Y55.093 Z-0.321
X5.513 Y55.126 Z-0.316
X6.867 Y56.1 Z-0.347
X7.067 Y56.495 Z-0.001
X6.867 Y56.1 Z-0.347
X7.067 Y55.996 Z-0.001
X6.867 Y56.1 Z-0.347
X5.513 Y55.126 Z-0.316
X5.474 Y55.093 Z-0.321
X5.463 Y55.082 Z-0.325
X5.432 Y55.053 Z-0.348
X5.409 Y55.03 Z-0.375
X5.425 Y54.981 Z-0.335
X5.446 Y54.937 Z-0.307
X5.471 Y54.897 Z-0.289
X5.501 Y54.862 Z-0.283
X5.74 Y54.621 Z-0.28
X5.771 Y54.583 Z-0.286
X5.797 Y54.541 Z-0.305
X5.818 Y54.493 Z-0.337
X5.834 Y54.44 Z-0.381
X5.844 Y54.382 Z-0.439
X5.916 Y54.352 Z-0.386
X5.969 Y54.333 Z-0.354
X6.022 Y54.322 Z-0.335
X6.075 Y54.318 Z-0.328
X6.878
X7.067 Y54.129 Z-0.001
X6.878 Y54.318 Z-0.328
X7.067 Y54.507 Z-0.001
X6.878 Y54.318 Z-0.328
X6.075
X6.022 Y54.322 Z-0.335
X5.969 Y54.333 Z-0.354
X5.916 Y54.352 Z-0.386
X5.844 Y54.382 Z-0.439
X5.789 Y54.354 Z-0.39
X5.734 Y54.334 Z-0.356
X5.679 Y54.322 Z-0.335
X5.624 Y54.318 Z-0.328
X4.394
X4.205 Y54.507 Z-0.001
X4.394 Y54.318 Z-0.328
X4.205 Y54.129 Z-0.001
G0 Z5
X5.199 Y50.518
G1 Z-0.333 F762
X5.116 Y50.492 Z-0.33 F1000
X4.987 Y50.445 Z-0.326
X4.939 Y50.423 Z-0.324
X4.815 Y50.352 Z-0.319
X4.746 Y50.305 Z-0.316
X4.694 Y50.264 Z-0.314
X4.644 Y50.216 Z-0.31
X4.604 Y50.172 Z-0.307
X4.542 Y50.094 Z-0.302
X4.485 Y50.016 Z-0.298
X4.473 Y49.993 Z-0.295
X4.416 Y49.878 Z-0.292
X4.384 Y49.802 Z-0.289
X4.362 Y49.737 Z-0.287
X4.347 Y49.679 Z-0.286
X4.333 Y49.599 Z-0.284
X4.323 Y49.505 Z-0.282
X4.317 Y49.402
X4.32 Y49.355
X4.335 Y49.218 Z-0.283
X4.351 Y49.115 Z-0.286
X4.367 Y49.043 Z-0.289
X4.382 Y48.994 Z-0.292
X4.407 Y48.926 Z-0.295
X4.441 Y48.858 Z-0.297
X4.478 Y48.795 Z-0.298
X4.539 Y48.708 Z-0.299
X4.601 Y48.628 Z-0.298
X4.629 Y48.593
X4.662 Y48.561 Z-0.305
X4.687 Y48.539 Z-0.31
X4.824 Y48.445 Z-0.313
X4.904 Y48.395 Z-0.316
X4.956 Y48.366 Z-0.318
X5.037 Y48.327 Z-0.322
X5.097 Y48.303 Z-0.325
X5.184 Y48.277 Z-0.328
X5.276 Y48.257 Z-0.33
X5.367 Y48.244 Z-0.331
X5.484 Y48.234 Z-0.334
X5.632 Y48.226 Z-0.337
X5.693
X5.845 Y48.236 Z-0.336
X5.947 Y48.248 Z-0.333
X6.022 Y48.262 Z-0.33
X6.099 Y48.281 Z-0.324
X6.178 Y48.307 Z-0.319
X6.261 Y48.34
X6.322 Y48.369 Z-0.32
X6.374 Y48.398 Z-0.318
X6.473 Y48.459
X6.539 Y48.506 Z-0.316
X6.587 Y48.545 Z-0.31
X6.606 Y48.561 Z-0.307
X6.64 Y48.597 Z-0.305
X6.71 Y48.681 Z-0.302
X6.763 Y48.752 Z-0.299
X6.782 Y48.78 Z-0.297
X6.828 Y48.862 Z-0.289
X6.856 Y48.917 Z-0.286
X6.887 Y48.991 Z-0.285
X6.91 Y49.066 Z-0.286
X6.927 Y49.143
X6.939 Y49.226 Z-0.284
X6.951 Y49.349 Z-0.281
X6.953 Y49.411 Z-0.28
X6.94 Y49.563 Z-0.284
X6.926 Y49.657 Z-0.285
X6.913 Y49.717
X6.896 Y49.774
X6.869 Y49.85
X6.835 Y49.923 Z-0.289
X6.797 Y49.993 Z-0.297
X6.778 Y50.024 Z-0.3
X6.714 Y50.112 Z-0.306
X6.66 Y50.181 Z-0.311
X6.61 Y50.236 Z-0.312
X6.563 Y50.275 Z-0.319
X6.515 Y50.31 Z-0.322
X6.426 Y50.368 Z-0.325
X6.333 Y50.423 Z-0.328
X6.272 Y50.451 Z-0.324
X6.187 Y50.485
X6.101 Y50.514 Z-0.327
X6.015 Y50.535 Z-0.332
X5.935 Y50.549 Z-0.335
X5.847 Y50.56 Z-0.337
X5.764 Y50.566
X5.631 Y50.572 Z-0.338
X5.465 Y50.563 Z-0.336
X5.369 Y50.553
X5.286 Y50.54 Z-0.335
X5.199 Y50.518 Z-0.333
G0 Z5
X6.048 Y36.479
G1 Z-0.306 F762
X5.956 Y36.47 Z-0.303 F1000
X5.849 Y36.454 Z-0.301
X5.768 Y36.438 Z-0.302
X5.718 Y36.426
X5.632 Y36.4
X5.553 Y36.372 Z-0.301
X5.478 Y36.34 Z-0.296
X5.371 Y36.289 Z-0.284
X5.347 Y36.273 Z-0.282
X5.284 Y36.221 Z-0.284
X5.241 Y36.18 Z-0.283
X5.204 Y36.139 Z-0.278
X5.168 Y36.089 Z-0.272
X5.15 Y36.061 Z-0.271
X5.127 Y36.013 Z-0.266
X5.106 Y35.961 Z-0.264
X5.09 Y35.91 Z-0.263
X5.08 Y35.857 Z-0.26
X5.07 Y35.773 Z-0.254
X5.067 Y35.723 Z-0.251
X5.072 Y35.673 Z-0.253
X5.084 Y35.584 Z-0.258
X5.094 Y35.536 Z-0.26
X5.11 Y35.486 Z-0.261
X5.133 Y35.436 Z-0.262
X5.16 Y35.39 Z-0.265
X5.195 Y35.34 Z-0.271
X5.219 Y35.311 Z-0.275
X5.284 Y35.248 Z-0.277
X5.332 Y35.208 Z-0.279
X5.365 Y35.187 Z-0.286
X5.413 Y35.161 Z-0.295
X5.468 Y35.135 Z-0.3
X5.549 Y35.101 Z-0.303
X5.635 Y35.07 Z-0.305
X5.741 Y35.041 Z-0.301
X5.815 Y35.025
X5.905 Y35.008 Z-0.304
X5.995 Y34.997 Z-0.306
X6.086 Y34.989 Z-0.308
X6.217 Y34.984 Z-0.31
X6.384 Y34.982 Z-0.313
X6.591 Y34.984 Z-0.309
X6.728 Y34.991 Z-0.307
X6.846 Y35.003 Z-0.305
X6.934 Y35.017 Z-0.304
X6.995 Y35.031 Z-0.303
X7.079 Y35.054 Z-0.299
X7.163 Y35.084 Z-0.295
X7.272 Y35.128 Z-0.287
X7.397 Y35.186 Z-0.278
X7.444 Y35.215 Z-0.284
X7.448 Y35.218 Z-0.285
X7.517 Y35.284 Z-0.278
X7.564 Y35.335 Z-0.274
X7.6 Y35.382 Z-0.272
X7.628 Y35.427 Z-0.269
X7.642 Y35.457 Z-0.267
X7.66 Y35.506 Z-0.263
X7.674 Y35.556 Z-0.259
X7.687 Y35.627 Z-0.254
X7.699 Y35.723 Z-0.249
Y35.756 Z-0.25
X7.685 Y35.867 Z-0.258
X7.674 Y35.921 Z-0.262
X7.658 Y35.972 Z-0.265
X7.639 Y36.017 Z-0.266
X7.612 Y36.067 Z-0.268
X7.58 Y36.114 Z-0.272
X7.544 Y36.16 Z-0.279
X7.491 Y36.211 Z-0.28
X7.424 Y36.269 Z-0.282
X7.401 Y36.286 Z-0.284
X7.348 Y36.314 Z-0.293
X7.3 Y36.336 Z-0.297
X7.222 Y36.369 Z-0.301
X7.144 Y36.398 Z-0.303
X7.056 Y36.422 Z-0.3
X6.96 Y36.445 Z-0.299
X6.866 Y36.462 Z-0.302
X6.774 Y36.474 Z-0.304
X6.673 Y36.482 Z-0.307
X6.547 Y36.487 Z-0.31
X6.345 Y36.488 Z-0.312
X6.164 Y36.486 Z-0.309
X6.048 Y36.479 Z-0.306
G0 Z5
X6.536 Y68.195
G1 Z-0.338 F762
X6.615 Y68.199 Z-0.337 F1000
X6.744 Y68.21 Z-0.335
X6.829 Y68.221 Z-0.332
X6.884 Y68.232 Z-0.329
X6.96 Y68.251 Z-0.324
X7.04 Y68.277 Z-0.319
X7.122 Y68.31
X7.184 Y68.339 Z-0.32
X7.236 Y68.368 Z-0.318
X7.335 Y68.43
X7.4 Y68.476 Z-0.316
X7.449 Y68.515 Z-0.31
X7.467 Y68.531 Z-0.307
X7.502 Y68.568 Z-0.305
X7.556 Y68.632 Z-0.303
X7.624 Y68.722 Z-0.299
X7.645 Y68.752 Z-0.297
X7.69 Y68.832 Z-0.289
X7.718 Y68.888 Z-0.286
X7.748 Y68.962 Z-0.285
X7.772 Y69.036 Z-0.286
X7.789 Y69.113
X7.801 Y69.196 Z-0.284
X7.813 Y69.319 Z-0.281
X7.815 Y69.381 Z-0.28
X7.802 Y69.533 Z-0.284
X7.788 Y69.627 Z-0.285
X7.775 Y69.687
X7.758 Y69.745
X7.73 Y69.82
X7.697 Y69.893 Z-0.289
X7.659 Y69.964 Z-0.297
X7.64 Y69.995 Z-0.3
X7.576 Y70.083 Z-0.306
X7.521 Y70.151 Z-0.311
X7.472 Y70.206 Z-0.312
X7.424 Y70.245 Z-0.319
X7.376 Y70.28 Z-0.322
X7.292 Y70.336 Z-0.325
X7.21 Y70.385 Z-0.327
X7.181 Y70.4 Z-0.326
X7.116 Y70.429 Z-0.324
X7.049 Y70.456
X6.962 Y70.484 Z-0.328
X6.877 Y70.506 Z-0.332
X6.797 Y70.52 Z-0.335
X6.709 Y70.53 Z-0.337
X6.587 Y70.538 Z-0.338
X6.477 Y70.542
X6.32 Y70.533 Z-0.337
X6.231 Y70.524 Z-0.336
X6.148 Y70.51 Z-0.335
X6.061 Y70.489 Z-0.333
X5.978 Y70.462 Z-0.33
X5.865 Y70.421 Z-0.327
X5.801 Y70.394 Z-0.324
X5.674 Y70.32 Z-0.319
X5.607 Y70.275 Z-0.316
X5.555 Y70.234 Z-0.314
X5.506 Y70.187 Z-0.31
X5.465 Y70.142 Z-0.307
X5.417 Y70.082 Z-0.303
X5.347 Y69.986 Z-0.298
X5.334 Y69.963 Z-0.295
X5.278 Y69.848 Z-0.292
X5.246 Y69.773 Z-0.289
X5.224 Y69.707 Z-0.287
X5.209 Y69.649 Z-0.286
X5.195 Y69.569 Z-0.284
X5.185 Y69.476 Z-0.282
X5.179 Y69.373
X5.182 Y69.325
X5.196 Y69.188 Z-0.283
X5.213 Y69.086 Z-0.286
X5.229 Y69.013 Z-0.289
X5.244 Y68.965 Z-0.291
X5.269 Y68.896 Z-0.295
X5.303 Y68.828 Z-0.297
X5.34 Y68.765 Z-0.298
X5.401 Y68.678 Z-0.299
X5.463 Y68.598 Z-0.298
X5.491 Y68.564
X5.523 Y68.531 Z-0.305
X5.549 Y68.509 Z-0.31
X5.686 Y68.415 Z-0.313
X5.736 Y68.384 Z-0.315
X5.818 Y68.336 Z-0.318
X5.898 Y68.298 Z-0.322
X5.959 Y68.274 Z-0.325
X5.997 Y68.261 Z-0.327
X6.085 Y68.238 Z-0.329
X6.162 Y68.224 Z-0.331
X6.252 Y68.212 Z-0.332
X6.363 Y68.203 Z-0.334
X6.536 Y68.195 Z-0.338
G0 Z5
X31.957 Y57.95
G1 Z-0.303 F762
X31.926 Y57.865 Z-0.305 F1000
X31.897 Y57.758 Z-0.301
X31.876 Y57.663 Z-0.302
X31.86 Y57.569 Z-0.304
X31.849 Y57.477 Z-0.307
X31.842 Y57.372 Z-0.309
X31.838 Y57.216 Z-0.311
X31.837 Y57.067 Z-0.312
X31.84 Y56.866 Z-0.309
X31.849 Y56.725 Z-0.307
X31.859 Y56.634 Z-0.305
X31.875 Y56.547 Z-0.304
X31.895 Y56.462 Z-0.301
X31.922 Y56.379 Z-0.297
X31.964 Y56.268 Z-0.29
X32.015 Y56.153 Z-0.282
X32.039 Y56.102 Z-0.278
X32.068 Y56.056 Z-0.284
X32.071 Y56.051 Z-0.285
X32.137 Y55.982 Z-0.278
X32.188 Y55.935 Z-0.274
X32.235 Y55.899 Z-0.272
X32.28 Y55.871 Z-0.269
X32.325 Y55.851 Z-0.265
X32.358 Y55.839 Z-0.263
X32.409 Y55.825 Z-0.259
X32.48 Y55.811 Z-0.254
X32.575 Y55.799 Z-0.249
X32.609 Y55.8 Z-0.25
X32.719 Y55.814 Z-0.258
X32.774 Y55.825 Z-0.262
X32.825 Y55.84 Z-0.265
X32.87 Y55.859 Z-0.266
X32.92 Y55.887 Z-0.268
X32.967 Y55.918 Z-0.272
X33.013 Y55.954 Z-0.279
X33.075 Y56.019 Z-0.281
X33.128 Y56.081 Z-0.282
X33.149 Y56.114 Z-0.287
X33.173 Y56.162 Z-0.294
X33.202 Y56.226 Z-0.299
X33.239 Y56.318 Z-0.302
X33.258 Y56.376
X33.276 Y56.441 Z-0.3
X33.299 Y56.537 Z-0.299
X33.316 Y56.631 Z-0.302
X33.328 Y56.724 Z-0.304
X33.336 Y56.824 Z-0.307
X33.341 Y56.95 Z-0.31
X33.343 Y57.14 Z-0.313
X33.341 Y57.333 Z-0.309
X33.333 Y57.464 Z-0.306
X33.322 Y57.568 Z-0.303
X33.31 Y57.648 Z-0.301
X33.294 Y57.73 Z-0.302
X33.282 Y57.78
X33.256 Y57.866
X33.228 Y57.944 Z-0.301
X33.196 Y58.02 Z-0.296
X33.145 Y58.127 Z-0.284
X33.129 Y58.15 Z-0.282
X33.078 Y58.214 Z-0.284
X33.037 Y58.257 Z-0.283
X32.995 Y58.293 Z-0.278
X32.946 Y58.33 Z-0.272
X32.917 Y58.348 Z-0.271
X32.869 Y58.371 Z-0.266
X32.817 Y58.393 Z-0.264
X32.766 Y58.408 Z-0.263
X32.713 Y58.418 Z-0.26
X32.629 Y58.429 Z-0.254
X32.579 Y58.431 Z-0.251
X32.53 Y58.427 Z-0.253
X32.44 Y58.415 Z-0.258
X32.392 Y58.405 Z-0.26
X32.342 Y58.389 Z-0.261
X32.292 Y58.366 Z-0.262
X32.247 Y58.339 Z-0.265
X32.197 Y58.304 Z-0.271
X32.167 Y58.28 Z-0.275
X32.104 Y58.215 Z-0.277
X32.064 Y58.167 Z-0.279
X32.043 Y58.135 Z-0.286
X32.017 Y58.087 Z-0.295
X31.991 Y58.032 Z-0.3
X31.957 Y57.95 Z-0.303
G0 Z5
X58.341 Y57.246
G1 Z-0.311 F762
X58.34 Y57.07 Z-0.312 F1000
X58.343 Y56.869 Z-0.309
X58.352 Y56.728 Z-0.307
X58.363 Y56.637 Z-0.305
X58.379 Y56.55 Z-0.304
X58.399 Y56.466 Z-0.301
X58.426 Y56.382 Z-0.297
X58.468 Y56.272 Z-0.29
X58.52 Y56.156 Z-0.281
X58.544 Y56.105 Z-0.278
X58.573 Y56.059 Z-0.284
X58.576 Y56.054 Z-0.285
X58.642 Y55.986 Z-0.278
X58.693 Y55.938 Z-0.274
X58.739 Y55.903 Z-0.272
X58.785 Y55.875 Z-0.269
X58.814 Y55.861 Z-0.267
X58.863 Y55.842 Z-0.263
X58.93 Y55.825 Z-0.257
X58.985 Y55.816 Z-0.254
X59.081 Y55.803 Z-0.249
X59.114 Y55.804 Z-0.25
X59.216 Y55.816 Z-0.258
X59.279 Y55.829 Z-0.262
X59.33 Y55.844 Z-0.265
X59.375 Y55.863 Z-0.266
X59.425 Y55.891 Z-0.268
X59.472 Y55.922 Z-0.272
X59.518 Y55.959 Z-0.279
X59.58 Y56.024 Z-0.281
X59.632 Y56.086 Z-0.282
X59.653 Y56.118 Z-0.287
X59.678 Y56.167 Z-0.294
X59.706 Y56.231 Z-0.299
X59.743 Y56.323 Z-0.302
X59.762 Y56.381
X59.78 Y56.446 Z-0.299
X59.803 Y56.542
X59.82 Y56.637 Z-0.302
X59.832 Y56.729 Z-0.305
X59.84 Y56.829 Z-0.307
X59.844 Y56.956 Z-0.31
X59.846 Y57.146 Z-0.312
X59.843 Y57.338 Z-0.309
X59.837 Y57.455 Z-0.306
X59.828 Y57.547 Z-0.303
X59.812 Y57.653 Z-0.301
X59.796 Y57.735 Z-0.302
X59.784 Y57.785
X59.758 Y57.871
X59.73 Y57.949 Z-0.301
X59.698 Y58.025 Z-0.296
X59.646 Y58.132 Z-0.284
X59.631 Y58.155 Z-0.282
X59.579 Y58.219 Z-0.284
X59.546 Y58.254 Z-0.283
X59.51 Y58.287 Z-0.279
X59.467 Y58.321 Z-0.274
X59.419 Y58.353 Z-0.271
X59.371 Y58.376 Z-0.266
X59.318 Y58.397 Z-0.264
X59.267 Y58.412 Z-0.263
X59.214 Y58.423 Z-0.26
X59.13 Y58.433 Z-0.254
X59.081 Y58.436 Z-0.251
X59.031 Y58.431 Z-0.253
X58.942 Y58.419 Z-0.258
X58.894 Y58.409 Z-0.26
X58.844 Y58.393 Z-0.261
X58.794 Y58.369 Z-0.262
X58.747 Y58.342 Z-0.265
X58.691 Y58.302 Z-0.272
X58.668 Y58.283 Z-0.275
X58.606 Y58.218 Z-0.277
X58.565 Y58.171 Z-0.279
X58.545 Y58.138 Z-0.286
X58.519 Y58.09 Z-0.295
X58.493 Y58.035 Z-0.3
X58.459 Y57.953 Z-0.303
X58.428 Y57.868 Z-0.305
X58.399 Y57.762 Z-0.301
X58.382 Y57.688
X58.366 Y57.598 Z-0.304
X58.355 Y57.508 Z-0.306
X58.345 Y57.384 Z-0.309
X58.341 Y57.246 Z-0.311
G0 Z5
X81.865 Y57.109
G1 Z-0.313 F762
X81.869 Y57.323 Z-0.31 F1000
X81.877 Y57.457 Z-0.307
X81.886 Y57.547 Z-0.305
X81.901 Y57.637 Z-0.302
X81.92 Y57.728 Z-0.301
X81.943 Y57.818 Z-0.303
X81.963 Y57.884 Z-0.305
X82.004 Y57.989 Z-0.302
X82.039 Y58.065 Z-0.297
X82.063 Y58.111 Z-0.29
X82.092 Y58.16 Z-0.279
X82.121 Y58.195 Z-0.277
X82.182 Y58.259 Z-0.275
X82.207 Y58.283 Z-0.274
X82.253 Y58.317 Z-0.267
X82.297 Y58.345 Z-0.263
X82.345 Y58.371 Z-0.262
X82.391 Y58.389 Z-0.261
X82.441 Y58.402 Z-0.259
X82.498 Y58.413 Z-0.256
X82.582 Y58.422 Z-0.252
X82.623 Y58.425
X82.665 Y58.421 Z-0.255
X82.752 Y58.409 Z-0.261
X82.802 Y58.399 Z-0.263
X82.853 Y58.383 Z-0.264
X82.907 Y58.36 Z-0.266
X82.958 Y58.334 Z-0.272
X83.005 Y58.3 Z-0.275
X83.058 Y58.256 Z-0.282
X83.094 Y58.221 Z-0.284
X83.132 Y58.175 Z-0.283
X83.169 Y58.126
X83.179 Y58.108 Z-0.285
X83.232 Y57.996 Z-0.297
X83.264 Y57.918 Z-0.301
X83.293 Y57.832
X83.318 Y57.743 Z-0.303
X83.338 Y57.641 Z-0.301
X83.35 Y57.561 Z-0.302
X83.362 Y57.457 Z-0.306
X83.368 Y57.353 Z-0.309
X83.371 Y57.189 Z-0.312
Y57.025 Z-0.311
X83.367 Y56.857 Z-0.308
X83.36 Y56.747 Z-0.305
X83.348 Y56.644 Z-0.302
X83.332 Y56.552 Z-0.299
X83.312 Y56.464
X83.286 Y56.369 Z-0.302
X83.275 Y56.333 Z-0.303
X83.23 Y56.217 Z-0.299
X83.202 Y56.155 Z-0.294
X83.177 Y56.105 Z-0.286
X83.156 Y56.074 Z-0.282
X83.106 Y56.015 Z-0.281
X83.056 Y55.961 Z-0.279
X83.03 Y55.937 Z-0.278
X82.994 Y55.909 Z-0.272
X82.942 Y55.875 Z-0.267
X82.892 Y55.849 Z-0.266
X82.846 Y55.83 Z-0.264
X82.796 Y55.816 Z-0.262
X82.725 Y55.803 Z-0.257
X82.631 Y55.792 Z-0.25
X82.604 Z-0.249
X82.531 Y55.801 Z-0.253
X82.454 Y55.814 Z-0.257
X82.387 Y55.831 Z-0.263
X82.353 Y55.843 Z-0.265
X82.309 Y55.864 Z-0.269
X82.277 Y55.883 Z-0.271
X82.232 Y55.915 Z-0.273
X82.185 Y55.956 Z-0.276
X82.141 Y56 Z-0.28
X82.1 Y56.044 Z-0.285
X82.084 Y56.067 Z-0.281
X82.061 Y56.109 Z-0.278
X81.993 Y56.262 Z-0.29
X81.961 Y56.342 Z-0.295
X81.932 Y56.427 Z-0.3
X81.909 Y56.514 Z-0.303
X81.892 Y56.602 Z-0.305
X81.88 Y56.689 Z-0.306
X81.873 Y56.776 Z-0.307
X81.867 Y56.909 Z-0.309
X81.865 Y57.109 Z-0.313
G0 Z5
X132.201 Y60.028
G1 Z-0.28 F762
X132.215 Y59.882 Z-0.283 F1000
X132.223 Y59.821 Z-0.284
X132.241 Y59.73 Z-0.285
X132.263 Y59.657 Z-0.284
X132.292 Y59.581 Z-0.285
X132.329 Y59.504 Z-0.29
X132.357 Y59.453 Z-0.297
X132.376 Y59.422 Z-0.299
X132.429 Y59.348 Z-0.305
X132.462 Y59.305 Z-0.308
X132.531 Y59.224 Z-0.311
X132.561 Y59.195 Z-0.314
X132.623 Y59.148 Z-0.321
X132.691 Y59.101 Z-0.324
X132.779 Y59.047 Z-0.326
X132.841 Y59.014
X132.93 Y58.975 Z-0.323
X133.017 Y58.944 Z-0.326
X133.102 Y58.919 Z-0.33
X133.183 Y58.902 Z-0.334
X133.27 Y58.89 Z-0.336
X133.392 Y58.88 Z-0.338
X133.523 Y58.874
X133.697 Y58.883 Z-0.337
X133.801 Y58.895 Z-0.336
X133.869 Y58.907 Z-0.335
X133.952 Y58.927 Z-0.333
X134.038 Y58.954 Z-0.33
X134.151 Y58.995 Z-0.326
X134.216 Y59.023 Z-0.324
X134.343 Y59.096 Z-0.319
X134.409 Y59.141 Z-0.316
X134.461 Y59.182 Z-0.313
X134.511 Y59.231 Z-0.309
X134.554 Y59.278 Z-0.306
X134.616 Y59.356 Z-0.303
X134.672 Y59.435 Z-0.297
X134.694 Y59.477 Z-0.294
X134.745 Y59.582 Z-0.292
X134.772 Y59.648 Z-0.289
X134.787 Y59.691
X134.806 Y59.762 Z-0.286
X134.815 Y59.813 Z-0.284
X134.826 Y59.887 Z-0.283
X134.835 Y59.993 Z-0.282
X134.837 Y60.059 Z-0.281
X134.82 Y60.23 Z-0.283
X134.809 Y60.298 Z-0.285
X134.793 Y60.377 Z-0.288
X134.773 Y60.451 Z-0.291
X134.747 Y60.52 Z-0.295
X134.713 Y60.589 Z-0.297
X134.675 Y60.652 Z-0.298
X134.632 Y60.716 Z-0.299
X134.553 Y60.817
X134.525 Y60.853
X134.493 Y60.885 Z-0.305
X134.467 Y60.907 Z-0.311
X134.358 Y60.983 Z-0.312
X134.281 Y61.032 Z-0.315
X134.198 Y61.08 Z-0.318
X134.118 Y61.118 Z-0.322
X134.058 Y61.142 Z-0.325
X133.971 Y61.169 Z-0.328
X133.884 Y61.188 Z-0.33
X133.792 Y61.201 Z-0.331
X133.697 Y61.21 Z-0.333
X133.565 Y61.218 Z-0.336
X133.461 Y61.22 Z-0.337
X133.309 Y61.21 Z-0.336
X133.207 Y61.198 Z-0.333
X133.133 Y61.184 Z-0.329
X133.056 Y61.165 Z-0.324
X132.976 Y61.139 Z-0.319
X132.894 Y61.106
X132.831 Y61.077 Z-0.32
X132.756 Y61.034 Z-0.318
X132.687 Y60.99
X132.616 Y60.94 Z-0.316
X132.568 Y60.902 Z-0.31
X132.549 Y60.885 Z-0.306
X132.513 Y60.848 Z-0.305
X132.462 Y60.786 Z-0.303
X132.393 Y60.697 Z-0.299
X132.375 Y60.67 Z-0.297
X132.341 Y60.611 Z-0.291
X132.312 Y60.557 Z-0.287
X132.283 Y60.494 Z-0.285
X132.257 Y60.424 Z-0.286
X132.245 Y60.38
X132.228 Y60.31 Z-0.285
X132.219 Y60.248
X132.209 Y60.162 Z-0.283
X132.201 Y60.06 Z-0.28
Y60.028
G0 Z5
X133.441 Y35.365
G1 Z-0.338 F762
X133.629 Y35.357 Z-0.334 F1000
X133.75 Y35.346 Z-0.331
X133.844 Y35.332 Z-0.33
X133.898 Y35.321 Z-0.329
X133.983 Y35.298 Z-0.326
X134.054 Y35.272 Z-0.323
X134.122 Y35.242 Z-0.32
X134.171 Y35.217 Z-0.318
X134.248 Y35.171 Z-0.314
X134.356 Y35.1 Z-0.311
X134.433 Y35.046 Z-0.31
X134.458 Y35.023 Z-0.303
X134.492 Y34.987 Z-0.298
X134.565 Y34.895 Z-0.299
X134.619 Y34.819 Z-0.298
X134.656 Y34.76
X134.694 Y34.69 Z-0.296
X134.72 Y34.628 Z-0.293
X134.743 Y34.557 Z-0.29
X134.755 Y34.51 Z-0.287
X134.775 Y34.4 Z-0.284
X134.785 Y34.314 Z-0.283
X134.796 Y34.181
X134.788 Y34.075 Z-0.282
X134.78 Y33.992 Z-0.283
X134.769 Y33.928 Z-0.285
X134.757 Y33.877 Z-0.287
X134.74 Y33.82 Z-0.288
X134.705 Y33.73 Z-0.291
X134.673 Y33.663 Z-0.293
X134.62 Y33.562 Z-0.3
X134.571 Y33.496 Z-0.302
X134.507 Y33.416 Z-0.307
X134.469 Y33.374 Z-0.31
X134.421 Y33.328 Z-0.314
X134.361 Y33.281 Z-0.317
X134.275 Y33.225 Z-0.32
X134.156 Y33.157 Z-0.325
X134.048 Y33.116 Z-0.328
X133.935 Y33.078 Z-0.332
X133.851 Y33.056 Z-0.334
X133.766 Y33.04 Z-0.336
X133.686 Y33.03
X133.589 Y33.023 Z-0.337
X133.467 Y33.018 Z-0.338
X133.288 Y33.029 Z-0.337
X133.178 Y33.041 Z-0.335
X133.115 Y33.052 Z-0.333
X133.032 Y33.071 Z-0.329
X132.963 Y33.092 Z-0.325
X132.875 Y33.125 Z-0.323
X132.779 Y33.168 Z-0.328
X132.687 Y33.222 Z-0.325
X132.614 Y33.27 Z-0.323
X132.539 Y33.325 Z-0.318
X132.503 Y33.355 Z-0.312
X132.464 Y33.397 Z-0.311
X132.42 Y33.45 Z-0.308
X132.368 Y33.519 Z-0.303
X132.315 Y33.597 Z-0.297
X132.287 Y33.65 Z-0.29
X132.257 Y33.712 Z-0.285
X132.226 Y33.787 Z-0.284
X132.202 Y33.864 Z-0.285
X132.195 Y33.896
X132.181 Y33.972 Z-0.284
X132.168 Y34.081 Z-0.282
X132.159 Y34.199 Z-0.28
X132.165 Y34.275 Z-0.282
X132.176 Y34.383 Z-0.284
X132.182 Y34.421
X132.197 Y34.5 Z-0.286
X132.209 Y34.547
X132.23 Y34.608 Z-0.285
X132.258 Y34.676 Z-0.286
X132.293 Y34.744 Z-0.29
X132.334 Y34.815 Z-0.298
X132.35 Y34.838 Z-0.299
X132.386 Y34.887 Z-0.301
X132.455 Y34.972 Z-0.305
X132.508 Y35.031 Z-0.307
X132.563 Y35.075 Z-0.315
X132.623 Y35.119 Z-0.318
X132.708 Y35.174
X132.793 Y35.223 Z-0.319
X132.826 Y35.239
X132.907 Y35.273 Z-0.318
X132.988 Y35.301 Z-0.322
X133.069 Y35.323 Z-0.328
X133.146 Y35.339 Z-0.332
X133.231 Y35.351 Z-0.335
X133.33 Y35.359 Z-0.337
X133.441 Y35.365 Z-0.338
G0 Z5
X133.525 Y17.389
G1 Z-0.338 F762
X133.714 Y17.38 Z-0.334 F1000
X133.835 Y17.369 Z-0.331
X133.929 Y17.355 Z-0.33
X133.983 Y17.344 Z-0.329
X134.068 Y17.321 Z-0.326
X134.14 Y17.296 Z-0.324
X134.207 Y17.266 Z-0.32
X134.254 Y17.241 Z-0.318
X134.334 Y17.194 Z-0.314
X134.442 Y17.123 Z-0.311
X134.518 Y17.07 Z-0.31
X134.544 Y17.046 Z-0.303
X134.577 Y17.01 Z-0.298
X134.65 Y16.918 Z-0.299
X134.704 Y16.843 Z-0.298
X134.741 Y16.784
X134.779 Y16.714 Z-0.296
X134.807 Y16.645 Z-0.293
X134.828 Y16.58 Z-0.289
X134.84 Y16.533 Z-0.287
X134.86 Y16.424 Z-0.284
X134.875 Y16.291 Z-0.283
X134.881 Y16.204 Z-0.282
X134.876 Y16.129
X134.863 Y16.003 Z-0.283
X134.849 Y15.93 Z-0.285
X134.834 Y15.872 Z-0.287
X134.822 Y15.835 Z-0.289
X134.793 Y15.762 Z-0.291
X134.757 Y15.685 Z-0.293
X134.716 Y15.603 Z-0.297
X134.696 Y15.574 Z-0.3
X134.608 Y15.458 Z-0.306
X134.555 Y15.398 Z-0.31
X134.504 Y15.35 Z-0.314
X134.446 Y15.304 Z-0.317
X134.359 Y15.247 Z-0.32
X134.241 Y15.181 Z-0.325
X134.132 Y15.14 Z-0.328
X134.021 Y15.102 Z-0.332
X133.936 Y15.079 Z-0.334
X133.849 Y15.063 Z-0.335
X133.759 Y15.053 Z-0.336
X133.647 Y15.045 Z-0.337
X133.533 Y15.043 Z-0.338
X133.373 Y15.052 Z-0.337
X133.263 Y15.064 Z-0.335
X133.2 Y15.075 Z-0.333
X133.132 Y15.09 Z-0.329
X133.047 Y15.116 Z-0.325
X132.96 Y15.149 Z-0.323
X132.864 Y15.191 Z-0.328
X132.774 Y15.245 Z-0.325
X132.699 Y15.293 Z-0.323
X132.624 Y15.348 Z-0.317
X132.588 Y15.378 Z-0.311
X132.555 Y15.413
X132.503 Y15.476 Z-0.308
X132.437 Y15.565 Z-0.301
X132.4 Y15.621 Z-0.297
X132.372 Y15.674 Z-0.29
X132.341 Y15.735 Z-0.286
X132.311 Y15.81 Z-0.284
X132.289 Y15.882 Z-0.285
X132.274 Y15.945
X132.26 Y16.031 Z-0.284
X132.253 Y16.105 Z-0.282
X132.245 Y16.232 Z-0.281
X132.259 Y16.39 Z-0.284
X132.266 Y16.444 Z-0.285
X132.282 Y16.523 Z-0.286
X132.299 Y16.587
X132.315 Y16.631 Z-0.285
X132.343 Y16.699 Z-0.286
X132.378 Y16.767 Z-0.29
X132.419 Y16.838 Z-0.298
X132.435 Y16.862 Z-0.299
X132.483 Y16.926 Z-0.301
X132.54 Y16.996 Z-0.305
X132.594 Y17.054 Z-0.307
X132.648 Y17.099 Z-0.314
X132.708 Y17.143 Z-0.318
X132.799 Y17.202
X132.875 Y17.245 Z-0.32
X132.911 Y17.263 Z-0.319
X132.993 Y17.297 Z-0.318
X133.073 Y17.325 Z-0.322
X133.154 Y17.347 Z-0.328
X133.235 Y17.363 Z-0.333
X133.316 Y17.374 Z-0.335
X133.415 Y17.383 Z-0.337
X133.525 Y17.389 Z-0.338
G0 Z5
X57.246 Y55.707
G1 Z-0.001 F762
X57.445 Y55.907 Z-0.347 F1000
X57.645 Y55.707 Z-0.001
X57.445 Y55.907 Z-0.347
X57.645 Y56.106 Z-0.001
X57.445 Y55.907 Z-0.347
X57.246 Y56.106 Z-0.001
G0 Z5
X55.093 Y57.863
G1 Z-0.001 F762
X55.25 Y57.767 Z-0.273 F1000
X55.193 Y57.675 Z-0.174
X55.116 Y57.557 Z-0.04
X55.094 Y57.524 Z-0.001
X55.116 Y57.557 Z-0.04
X55.193 Y57.675 Z-0.174
X55.25 Y57.767 Z-0.273
X55.356 Y57.824 Z-0.272
X55.45 Y57.881
X55.531 Y57.936 Z-0.274
X55.607 Y57.994
X55.716 Y58.083
X55.752 Y58.106 Z-0.287
X55.773 Y58.117 Z-0.298
X55.815 Y58.135 Z-0.327
X55.841 Y58.143 Z-0.348
X55.893 Y58.155 Z-0.397
X55.909 Y58.158 Z-0.414
X55.942 Y58.247 Z-0.355
X55.974 Y58.341 Z-0.3
X56.003 Y58.437 Z-0.251
X56.147 Y58.581 Z-0.001
X56.003 Y58.437 Z-0.251
X55.921 Y58.581 Z-0.001
X56.003 Y58.437 Z-0.251
X55.974 Y58.341 Z-0.3
X55.942 Y58.247 Z-0.355
X55.909 Y58.158 Z-0.414
X55.936 Y58.105 Z-0.366
X55.956 Y58.052 Z-0.332
X55.968 Y58 Z-0.311
X55.972 Y57.947 Z-0.304
Y55.882
X55.796 Y55.707 Z-0.001
X55.972 Y55.882 Z-0.304
X56.147 Y55.707 Z-0.001
G0 Z5
X49.03 Y76.172
G1 Z-0.768 F762
X49.036 Y76.15 Z-0.807 F1000
X49.061 Y76.087 Z-0.915
X49.079 Y76.051 Z-0.979
X49.08 Y76.049 Z-0.982
X49.081 Y76.048 Z-0.984
X49.349 Y75.778 Z-1.451
X49.44 Y75.827 Z-1.366
X49.531 Y75.87 Z-1.292
X49.621 Y75.906 Z-1.23
X49.712 Y75.935 Z-1.179
X49.803 Y75.958 Z-1.139
X49.893 Y75.974 Z-1.111
X49.984 Y75.984 Z-1.094
X50.075 Y75.988 Z-1.088
X50.943
X51.033 Y75.984 Z-1.094
X51.124 Y75.974 Z-1.111
X51.214 Y75.958 Z-1.139
X51.305 Y75.935 Z-1.179
X51.396 Y75.906 Z-1.23
X51.486 Y75.87 Z-1.292
X51.577 Y75.827 Z-1.366
X51.668 Y75.778 Z-1.451
X51.936 Y76.048 Z-0.984
X51.937 Y76.049 Z-0.982
X51.938 Y76.051 Z-0.979
X51.956 Y76.087 Z-0.915
X51.981 Y76.15 Z-0.807
X51.987 Y76.172 Z-0.768
X51.981 Y76.15 Z-0.807
X51.956 Y76.087 Z-0.915
X51.938 Y76.051 Z-0.979
X51.937 Y76.049 Z-0.982
X51.936 Y76.048 Z-0.984
X51.668 Y75.778 Z-1.451
X51.692 Y75.674 Z-1.408
X51.71 Y75.569 Z-1.378
X51.72 Y75.464 Z-1.359
X51.724 Y75.359 Z-1.353
Y74.871
X51.722 Y74.787 Z-1.357
X51.715 Y74.703 Z-1.369
X51.936 Y74.481 Z-0.984
X51.938 Y74.479 Z-0.981
X51.939 Y74.477 Z-0.978
X51.957 Y74.439 Z-0.912
X51.98 Y74.38 Z-0.811
X51.987 Y74.359 Z-0.774
X51.98 Y74.38 Z-0.811
X51.957 Y74.439 Z-0.912
X51.939 Y74.477 Z-0.978
X51.938 Y74.479 Z-0.981
X51.936 Y74.481 Z-0.984
X51.715 Y74.703 Z-1.369
X51.629 Y74.638 Z-1.256
X51.543 Y74.58 Z-1.156
X51.457 Y74.53 Z-1.07
X51.372 Y74.488 Z-0.997
X51.286 Y74.453 Z-0.937
X51.2 Y74.426 Z-0.89
X51.114 Y74.407 Z-0.857
X51.028 Y74.396 Z-0.837
X50.943 Y74.392 Z-0.831
X50.039 Z-0.833
X50.003 Z-0.84
X49.967 Z-0.851
X49.93 Z-0.867
X49.892 Z-0.888
X49.854 Z-0.914
X49.814 Z-0.945
X49.773 Z-0.981
X49.686 Z-1.069
X49.591 Z-1.18
X49.485 Z-1.316
X49.367 Z-1.481
X49.34 Y74.488 Z-1.435
X49.32 Y74.584 Z-1.399
X49.305 Y74.68 Z-1.374
X49.296 Y74.775 Z-1.358
X49.293 Y74.871 Z-1.353
Y75.359
X49.297 Y75.464 Z-1.359
X49.307 Y75.569 Z-1.378
X49.325 Y75.674 Z-1.408
X49.349 Y75.778 Z-1.451
X49.325 Y75.674 Z-1.408
X49.307 Y75.569 Z-1.378
X49.297 Y75.464 Z-1.359
X49.293 Y75.359 Z-1.353
Y74.871
X49.296 Y74.775 Z-1.358
X49.305 Y74.68 Z-1.374
X49.32 Y74.584 Z-1.399
X49.34 Y74.488 Z-1.435
X49.367 Y74.392 Z-1.481
X49.34 Y74.296 Z-1.435
X49.32 Y74.2 Z-1.399
X49.305 Y74.104 Z-1.374
X49.296 Y74.008 Z-1.358
X49.293 Y73.912 Z-1.353
Y73.524
X49.297 Y73.421 Z-1.359
X49.307 Y73.318 Z-1.377
X49.324 Y73.214 Z-1.406
X49.348 Y73.111 Z-1.448
X49.081 Y72.844 Z-0.984
X49.079 Y72.842 Z-0.981
Y72.841 Z-0.979
X49.065 Y72.814 Z-0.933
X49.04 Y72.752 Z-0.826
X49.031 Y72.723 Z-0.774
X49.04 Y72.752 Z-0.826
X49.065 Y72.814 Z-0.933
X49.079 Y72.841 Z-0.979
Y72.842 Z-0.981
X49.081 Y72.844 Z-0.984
X49.348 Y73.111 Z-1.448
X49.439 Y73.062 Z-1.362
X49.529 Y73.019 Z-1.287
X49.62 Y72.982 Z-1.224
X49.711 Y72.953 Z-1.173
X49.802 Y72.929 Z-1.133
X49.893 Y72.913 Z-1.104
X49.984 Y72.903 Z-1.087
X50.075 Y72.9 Z-1.081
X51.568
X51.984 Y72.276 Z-0.001
X51.568 Y72.9 Z-1.081
X52.504 Y73.523 Z-0.001
G0 Z5
X53.752 Y72.736
G1 Z-0.797 F762
X53.756 Y72.753 Z-0.828 F1000
X53.774 Y72.806 Z-0.919
X53.782 Y72.821 Z-0.945
X53.787 Y72.829 Z-0.958
X54.068 Y73.113 Z-1.451
X54.159 Y73.064 Z-1.366
X54.249 Y73.021 Z-1.292
X54.34 Y72.986 Z-1.23
X54.43 Y72.956 Z-1.179
X54.521 Y72.933 Z-1.139
X54.612 Y72.917 Z-1.111
X54.702 Y72.907 Z-1.094
X54.793 Y72.904 Z-1.088
X56.639
X57.578 Y73.532 Z-0.001
X56.639 Y72.904 Z-1.088
X57.058 Y72.276 Z-0.001
X56.639 Y72.904 Z-1.088
X54.793
X54.702 Y72.907 Z-1.094
X54.612 Y72.917 Z-1.111
X54.521 Y72.933 Z-1.139
X54.43 Y72.956 Z-1.179
X54.34 Y72.986 Z-1.23
X54.249 Y73.021 Z-1.292
X54.159 Y73.064 Z-1.366
X54.068 Y73.113 Z-1.451
X54.043 Y73.218 Z-1.408
X54.026 Y73.323 Z-1.378
X54.015 Y73.427 Z-1.359
X54.012 Y73.532 Z-1.353
Y76.806
X54.015 Y76.911 Z-1.359
X54.026 Y77.016 Z-1.378
X54.043 Y77.12 Z-1.408
X54.068 Y77.225 Z-1.451
X53.8 Y77.494 Z-0.985
X53.798 Y77.496 Z-0.981
X53.797 Y77.497 Z-0.979
X53.785 Y77.521 Z-0.939
X53.763 Y77.582 Z-0.832
X53.756 Y77.607 Z-0.788
X53.763 Y77.582 Z-0.832
X53.785 Y77.521 Z-0.939
X53.797 Y77.497 Z-0.979
X53.798 Y77.496 Z-0.981
X53.8 Y77.494 Z-0.985
X54.068 Y77.225 Z-1.451
X54.159 Y77.274 Z-1.366
X54.249 Y77.317 Z-1.292
X54.34 Y77.353 Z-1.23
X54.43 Y77.382 Z-1.179
X54.521 Y77.405 Z-1.139
X54.612 Y77.421 Z-1.111
X54.702 Y77.431 Z-1.094
X54.793 Y77.434 Z-1.088
X56.639
X57.058 Y76.806 Z-0.001
X56.639 Y77.434 Z-1.088
X57.578 Y78.062 Z-0.001
G0 Z5
X58.793 Y76.16
G1 Z-0.788 F762
X58.801 Y76.136 Z-0.831 F1000
X58.823 Y76.081 Z-0.926
X58.839 Y76.05 Z-0.981
X58.84 Y76.049
Z-0.982
X58.843 Y76.045 Z-0.988
X59.109 Y75.778 Z-1.451
X59.085 Y75.674 Z-1.408
X59.067 Y75.569 Z-1.378
X59.057 Y75.464 Z-1.359
X59.053 Y75.359 Z-1.353
Y73.524
X59.057 Y73.421 Z-1.359
X59.067 Y73.318 Z-1.377
X59.084 Y73.214 Z-1.406
X59.108 Y73.111 Z-1.448
X58.854 Y72.857 Z-1.008
X58.843 Y72.846 Z-0.988
X58.84 Y72.842 Z-0.982
X58.839 Z-0.981
X58.824 Y72.812 Z-0.929
X58.801 Y72.755 Z-0.83
X58.794 Y72.734 Z-0.794
X58.801 Y72.755 Z-0.83
X58.824 Y72.812 Z-0.929
X58.839 Y72.842 Z-0.981
X58.84 Z-0.982
X58.843 Y72.846 Z-0.988
X58.854 Y72.857 Z-1.008
X59.108 Y73.111 Z-1.448
X59.199 Y73.062 Z-1.362
X59.289 Y73.019 Z-1.287
X59.38 Y72.982 Z-1.224
X59.471 Y72.953 Z-1.173
X59.562 Y72.929 Z-1.133
X59.653 Y72.913 Z-1.104
X59.744 Y72.903 Z-1.087
X59.834 Y72.9 Z-1.081
X60.702
X60.793 Y72.903 Z-1.087
X60.884 Y72.913 Z-1.104
X60.975 Y72.929 Z-1.133
X61.066 Y72.953 Z-1.173
X61.157 Y72.982 Z-1.224
X61.248 Y73.019 Z-1.287
X61.338 Y73.062 Z-1.362
X61.429 Y73.111 Z-1.448
X61.697 Y72.842 Z-0.982
X61.698 Z-0.981
X61.712 Y72.814 Z-0.933
X61.736 Y72.755 Z-0.83
X61.748 Y72.718 Z-0.766
X61.736 Y72.755 Z-0.83
X61.712 Y72.814 Z-0.933
X61.698 Y72.842 Z-0.981
X61.697 Z-0.982
X61.429 Y73.111 Z-1.448
X61.453 Y73.214 Z-1.406
X61.47 Y73.318 Z-1.377
X61.48 Y73.421 Z-1.359
X61.484 Y73.524 Z-1.353
Y75.359
X61.48 Y75.464 Z-1.359
X61.47 Y75.569 Z-1.378
X61.452 Y75.674 Z-1.408
X61.428 Y75.778 Z-1.451
X61.683 Y76.034 Z-1.008
X61.697 Y76.049 Z-0.982
X61.698 Z-0.981
X61.708 Y76.069 Z-0.946
X61.733 Y76.129 Z-0.843
X61.745 Y76.163 Z-0.784
X61.733 Y76.129 Z-0.843
X61.708 Y76.069 Z-0.946
X61.698 Y76.049 Z-0.981
X61.697 Z-0.982
X61.683 Y76.034 Z-1.008
X61.428 Y75.778 Z-1.451
X61.337 Y75.827 Z-1.366
X61.246 Y75.87 Z-1.292
X61.156 Y75.906 Z-1.23
X61.065 Y75.935 Z-1.179
X60.974 Y75.958 Z-1.139
X60.884 Y75.974 Z-1.111
X60.793 Y75.984 Z-1.094
X60.702 Y75.988 Z-1.088
X59.834
X59.744 Y75.984 Z-1.094
X59.653 Y75.974 Z-1.111
X59.563 Y75.958 Z-1.139
X59.472 Y75.935 Z-1.179
X59.381 Y75.906 Z-1.23
X59.291 Y75.87 Z-1.292
X59.2 Y75.827 Z-1.366
X59.109 Y75.778 Z-1.451
G0 Z5
X63.007 Y76.615
G1 Z-0.001 F762
X63.788 Y75.835 Z-1.353 F1000
X64.569 Y76.615 Z-0.001
X63.788 Y75.835 Z-1.353
Y73.524
X63.791 Y73.421 Z-1.359
X63.801 Y73.318 Z-1.377
X63.818 Y73.214 Z-1.406
X63.842 Y73.111 Z-1.448
X63.576 Y72.844 Z-0.984
X63.574 Y72.842 Z-0.981
X63.573 Y72.841 Z-0.979
X63.56 Y72.814 Z-0.933
X63.535 Y72.752 Z-0.826
X63.528 Y72.734 Z-0.794
X63.535 Y72.752 Z-0.826
X63.56 Y72.814 Z-0.933
X63.573 Y72.841 Z-0.979
X63.574 Y72.842 Z-0.981
X63.576 Y72.844 Z-0.984
X63.842 Y73.111 Z-1.448
X63.933 Y73.062 Z-1.362
X64.024 Y73.019 Z-1.287
X64.115 Y72.982 Z-1.224
X64.206 Y72.953 Z-1.173
X64.297 Y72.929 Z-1.133
X64.387 Y72.913 Z-1.104
X64.478 Y72.903 Z-1.087
X64.569 Y72.9 Z-1.081
X65.437
X65.528 Y72.903 Z-1.087
X65.619 Y72.913 Z-1.104
X65.71 Y72.929 Z-1.133
X65.801 Y72.953 Z-1.173
X65.891 Y72.982 Z-1.224
X65.982 Y73.019 Z-1.287
X66.073 Y73.062 Z-1.362
X66.164 Y73.111 Z-1.448
X66.999 Y72.276 Z-0.001
X66.164 Y73.111 Z-1.448
X66.188 Y73.214 Z-1.406
X66.205 Y73.318 Z-1.377
X66.215 Y73.421 Z-1.359
X66.218 Y73.524 Z-1.353
Y75.835
X66.999 Y76.615 Z-0.001
X66.218 Y75.835 Z-1.353
X65.438 Y76.615 Z-0.001
G0 Z5
X67.742 Y72.276
G1 Z-0.001 F762
X68.523 Y73.057 Z-1.353 F1000
X69.303 Y72.276 Z-0.001
X68.523 Y73.057 Z-1.353
Y75.359
X68.526 Y75.464 Z-1.359
X68.537 Y75.569 Z-1.378
X68.554 Y75.674 Z-1.408
X68.579 Y75.778 Z-1.451
X68.312 Y76.045 Z-0.988
X68.31 Y76.048 Z-0.983
X68.309 Y76.05 Z-0.981
X68.308 Z-0.98
X68.294 Y76.079 Z-0.929
X68.27 Y76.136 Z-0.831
X68.262 Y76.16 Z-0.788
X68.27 Y76.136 Z-0.831
X68.294 Y76.079 Z-0.929
X68.308 Y76.05 Z-0.98
X68.309 Z-0.981
X68.31 Y76.048 Z-0.983
X68.312 Y76.045 Z-0.988
X68.579 Y75.778 Z-1.451
X68.669 Y75.827 Z-1.366
X68.76 Y75.87 Z-1.292
X68.851 Y75.906 Z-1.23
X68.941 Y75.935 Z-1.179
X69.032 Y75.958 Z-1.139
X69.123 Y75.974 Z-1.111
X69.213 Y75.984 Z-1.094
X69.304 Y75.988 Z-1.088
X70.364
X70.783 Y75.36 Z-0.001
X70.364 Y75.988 Z-1.088
X71.304 Y76.615 Z-0.001
G0 Z5
X71.756
G1 Z-0.001 F762
X72.185 Y76.186 Z-0.745 F1000
X72.242 Y76.132 Z-0.844
X72.185 Y76.078 Z-0.745
X71.756 Y75.649 Z-0.001
X72.185 Y76.078 Z-0.745
X72.242 Y76.132 Z-0.844
X72.279 Z-0.853
X72.316 Z-0.868
X72.353 Z-0.887
X72.391 Z-0.91
X72.429 Z-0.938
X72.469 Z-0.971
X72.551 Z-1.051
X72.64 Z-1.15
X72.738 Z-1.272
X72.846 Z-1.418
X72.966 Z-1.591
X73.097 Z-1.405
X73.213 Z-1.249
X73.318 Z-1.12
X73.415 Z-1.017
X73.46 Z-0.975
X73.504 Z-0.938
X73.546 Z-0.907
X73.588 Z-0.882
X73.629 Z-0.863
X73.669 Z-0.849
X73.708 Z-0.84
X73.748 Z-0.838
X74.124
X74.607 Y75.649 Z-0.001
X74.124 Y76.132 Z-0.838
X74.607 Y76.615 Z-0.001
X74.124 Y76.132 Z-0.838
X73.748
X73.708 Z-0.84
X73.669 Z-0.849
X73.629 Z-0.863
X73.588 Z-0.882
X73.546 Z-0.907
X73.504 Z-0.938
X73.46 Z-0.975
X73.415 Z-1.017
X73.318 Z-1.12
X73.213 Z-1.249
X73.097 Z-1.405
X72.966 Z-1.591
Y76.207 Z-1.527
Y76.276 Z-1.476
Y76.34 Z-1.435
Y76.4 Z-1.404
Y76.457 Z-1.381
Y76.511 Z-1.365
Y76.564 Z-1.356
Y76.616 Z-1.353
Y77.281
X73.747 Y78.062 Z-0.001
X72.966 Y77.281 Z-1.353
X72.186 Y78.062 Z-0.001
X72.966 Y77.281 Z-1.353
Y76.616
Y76.564 Z-1.356
Y76.511 Z-1.365
Y76.457 Z-1.381
Y76.4 Z-1.404
Y76.34 Z-1.435
Y76.276 Z-1.476
Y76.207 Z-1.527
Y76.132 Z-1.591
Y76.057 Z-1.527
Y75.988 Z-1.476
Y75.924 Z-1.435
Y75.864 Z-1.404
Y75.808 Z-1.381
Y75.753 Z-1.365
Y75.701 Z-1.356
Y75.648 Z-1.353
Y73.532
X72.97 Y73.427 Z-1.359
X72.981 Y73.323 Z-1.378
X72.998 Y73.218 Z-1.408
X73.023 Y73.113 Z-1.451
X72.767 Y72.857 Z-1.008
X72.756 Y72.846 Z-0.988
X72.753 Y72.842 Z-0.982
Z-0.981
X72.737 Y72.812 Z-0.929
X72.713 Y72.752 Z-0.826
X72.707 Y72.734 Z-0.794
X72.713 Y72.752 Z-0.826
X72.737 Y72.812 Z-0.929
X72.753 Y72.842 Z-0.981
Z-0.982
X72.756 Y72.846 Z-0.988
X72.767 Y72.857 Z-1.008
X73.023 Y73.113 Z-1.451
X73.113 Y73.064 Z-1.366
X73.204 Y73.021 Z-1.292
X73.295 Y72.986 Z-1.23
X73.385 Y72.956 Z-1.179
X73.476 Y72.933 Z-1.139
X73.566 Y72.917 Z-1.111
X73.657 Y72.907 Z-1.094
X73.748 Y72.904 Z-1.088
X74.188
X74.607 Y73.532 Z-0.001
X74.188 Y72.904 Z-1.088
X75.128 Y72.276 Z-0.001
G0 Z5
X76.796 Y77.788
G1 Z-0.364 F762
X76.808 Y77.776 Z-0.392 F1000
X76.837 Y77.745 Z-0.455
X76.978 Y77.604 Z-0.701
X76.955 Y77.544 Z-0.661
X76.934 Y77.483 Z-0.627
X76.915 Y77.409 Z-0.593
X76.903 Y77.349 Z-0.571
X76.893 Y77.287 Z-0.555
X76.887 Y77.229 Z-0.545
X76.884 Y77.174 Z-0.539
X76.883 Y77.108 Z-0.537
X76.884 Y74.833 Z-0.539
X76.887 Y74.788 Z-0.544
X76.894 Y74.725 Z-0.557
X76.905 Y74.663 Z-0.576
X76.92 Y74.6 Z-0.602
X76.936 Y74.541 Z-0.63
X76.96 Y74.468 Z-0.672
X76.99 Y74.389 Z-0.723
X77.019 Y74.318 Z-0.774
X77.06 Y74.229 Z-0.844
X77.112 Y74.121 Z-0.935
X77.114 Y74.111 Z-0.938
X77.117 Y74.067 Z-0.944
X77.118 Y72.745 Z-0.945
X76.989 Y72.613 Z-0.721
X76.924 Y72.551 Z-0.609
X76.874 Y72.509 Z-0.522
X76.825 Y72.472 Z-0.435
X76.799 Y72.455 Z-0.385
X76.825 Y72.472 Z-0.435
X76.874 Y72.509 Z-0.522
X76.924 Y72.551 Z-0.609
X76.989 Y72.613 Z-0.721
X77.118 Y72.745 Z-0.945
X77.234 Y72.633 Z-0.741
X77.298 Y72.566 Z-0.616
X77.34 Y72.519 Z-0.523
X77.365 Y72.486 Z-0.458
X77.38 Y72.461 Z-0.41
X77.416 Y72.383 Z-0.262
X77.38 Y72.461 Z-0.41
X77.365 Y72.486 Z-0.458
X77.34 Y72.519 Z-0.523
X77.298 Y72.566 Z-0.616
X77.234 Y72.633 Z-0.741
X77.118 Y72.745 Z-0.945
X77.117 Y74.067 Z-0.944
X77.114 Y74.111 Z-0.938
X77.112 Y74.121 Z-0.935
X77.06 Y74.229 Z-0.844
X77.019 Y74.318 Z-0.774
X76.99 Y74.389 Z-0.723
X76.96 Y74.468 Z-0.672
X76.936 Y74.541 Z-0.63
X76.92 Y74.6 Z-0.602
X76.905 Y74.663 Z-0.576
X76.894 Y74.725 Z-0.557
X76.887 Y74.788 Z-0.544
X76.884 Y74.833 Z-0.539
X76.883 Y77.108 Z-0.537
X76.884 Y77.174 Z-0.539
X76.887 Y77.229 Z-0.545
X76.893 Y77.287 Z-0.555
X76.903 Y77.349 Z-0.571
X76.915 Y77.409 Z-0.593
X76.934 Y77.483 Z-0.627
X76.955 Y77.544 Z-0.661
X76.978 Y77.604 Z-0.701
X77.049 Y77.631 Z-0.654
X77.113 Y77.651 Z-0.62
X77.183 Y77.669 Z-0.59
X77.245 Y77.68 Z-0.569
X77.304 Y77.689 Z-0.554
X77.363 Y77.695 Z-0.544
X77.415 Y77.698 Z-0.539
X77.482 Y77.699 Z-0.537
X80.709 Y77.696 Z-0.538
X80.76 Y77.688
X80.807 Y77.674 Z-0.537
X80.851 Y77.655 Z-0.536
X80.894 Y77.628 Z-0.533
X80.93 Y77.599 Z-0.531
X80.964 Y77.566 Z-0.53
X80.994 Y77.529 Z-0.532
X81.017 Y77.496 Z-0.533
X81.04 Y77.45 Z-0.536
X81.057 Y77.404 Z-0.537
X81.068 Y77.353 Z-0.538
X81.073 Y77.303 Z-0.537
X81.074 Y77.273
X81.073 Y76.46 Z-0.535
X81.068 Y76.42 Z-0.534
X81.057 Y76.377
X81.041 Y76.335
X81.016 Y76.29 Z-0.535
X80.986 Y76.249 Z-0.534
X80.953 Y76.211
X80.92 Y76.181 Z-0.533
X80.877 Y76.149
X80.834 Y76.126 Z-0.532
X80.789 Y76.108 Z-0.531
X80.739 Y76.097 Z-0.53
X80.691 Y76.091
X80.627
X80.365 Y76.093 Z-0.526
X79.771 Y76.099 Z-0.515
X79.539 Y76.097 Z-0.518
X79.384 Y76.093 Z-0.525
X79.283 Y76.088 Z-0.534
X79.19 Y76.081 Z-0.547
X79.124 Y76.072 Z-0.562
X79.073 Y76.063 Z-0.579
X79.03 Y76.053 Z-0.596
X78.972 Y76.036 Z-0.626
X78.894 Y76.005 Z-0.678
X78.857 Y75.988 Z-0.708
X78.788 Y75.949 Z-0.772
X78.768 Y75.936 Z-0.792
X78.725 Y75.956 Z-0.748
X78.683 Y75.976 Z-0.698
X78.663 Y75.986 Z-0.671
X78.627 Y76.012 Z-0.603
X78.601 Y76.031 Z-0.551
X78.627 Y76.012 Z-0.603
X78.663 Y75.986 Z-0.671
X78.683 Y75.976 Z-0.698
X78.725 Y75.956 Z-0.748
X78.768 Y75.936 Z-0.792
X78.77 Y75.911 Z-0.771
X78.778 Y75.853 Z-0.723
X78.79 Y75.792 Z-0.679
X78.812 Y75.715 Z-0.632
X78.832 Y75.661 Z-0.606
X78.857 Y75.604 Z-0.584
X78.886 Y75.548 Z-0.569
X78.917 Y75.494 Z-0.558
X78.957 Y75.432 Z-0.551
X79.01 Y75.354 Z-0.548
X81.04 Y72.505 Z-0.544
X81.032 Y72.459 Z-0.488
X81.025 Y72.429 Z-0.443
X81.021 Y72.415 Z-0.421
X81.025 Y72.429 Z-0.443
X81.032 Y72.459 Z-0.488
X81.04 Y72.505 Z-0.544
X81.114 Y72.495 Z-0.447
X81.131 Y72.492 Z-0.422
X81.166 Y72.486 Z-0.363
G0 Z5
X48.554 Y70.977
G1 Z-0.001 F762
X48.872 Y71.296 Z-0.553 F1000
X48.554 Y71.615 Z-0.001
X48.872 Y71.296 Z-0.553
X110.33
X110.648 Y70.977 Z-0.001
X110.33 Y71.296 Z-0.553
X110.648 Y71.615 Z-0.001
G0 Z5
X87.659 Y73.915
G1 Z-0.537 F762
X87.667 Y74.008 Z-0.536 F1000
X87.672 Y74.147 Z-0.531
X87.676 Y74.4 Z-0.525
X87.677 Y74.73 Z-0.523
X87.672 Y75.495 Z-0.531
X87.669 Y75.937 Z-0.536
X87.668 Y76.164 Z-0.537
X87.662 Y76.269
X87.65 Y76.372 Z-0.538
X87.631 Y76.474
X87.606 Y76.573
X87.573 Y76.67
X87.534 Y76.764
X87.49 Y76.853 Z-0.537
X87.44 Y76.939
X87.382 Y77.024 Z-0.536
X87.317 Y77.107
X87.245 Y77.188
X87.171 Y77.261 Z-0.537
X87.094 Y77.331
X87.011 Y77.396
X86.927 Y77.454 Z-0.538
X86.838 Y77.507 Z-0.539
X86.747 Y77.552
X86.652 Y77.592
X86.556 Y77.625
X86.459 Y77.65
X86.359 Y77.67 Z-0.538
X86.256 Y77.683
X86.149 Y77.69 Z-0.537
X84.077 Y77.691
X84.072
X83.973 Y77.688 Z-0.538
X83.885 Y77.68 Z-0.539
X83.804 Y77.668 Z-0.54
X83.704 Y77.648 Z-0.542
X83.609 Y77.622 Z-0.544
X83.516 Y77.59 Z-0.545
X83.426 Y77.552 Z-0.546
X83.339 Y77.508
X83.253 Y77.458 Z-0.545
X83.17 Y77.401 Z-0.544
X83.087 Y77.338 Z-0.541
X83.006 Y77.267 Z-0.538
X82.926 Y77.19 Z-0.534
X82.855 Y77.112 Z-0.531
X82.791 Y77.033 Z-0.529
X82.734 Y76.951 Z-0.527
X82.683 Y76.867 Z-0.525
X82.638 Y76.779 Z-0.523
X82.6 Y76.688 Z-0.522
X82.568 Y76.595
X82.543 Y76.499
X82.524 Y76.402 Z-0.523
X82.512 Y76.303 Z-0.525
X82.507 Y76.2 Z-0.528
X82.505 Y76.103
X82.498 Y75.136 Z-0.516
X82.5 Y74.962 Z-0.519
X82.504 Y74.839 Z-0.527
X82.51 Y74.758 Z-0.536
X82.517 Y74.694 Z-0.549
X82.522 Y74.66 Z-0.558
X82.53 Y74.618 Z-0.571
X82.543 Y74.563 Z-0.595
X82.558 Y74.516 Z-0.62
X82.581 Y74.455 Z-0.66
X82.606 Y74.397 Z-0.704
X82.644 Y74.322 Z-0.768
X82.69 Y74.235 Z-0.849
X82.713 Y74.189 Z-0.888
X82.734 Y74.142 Z-0.925
X82.738 Y74.106 Z-0.932
X82.741 Y74.056 Z-0.937
X82.745 Y73.953 Z-0.932
X82.75 Y73.862 Z-0.923
X82.758 Y73.772 Z-0.909
X82.769 Y73.685 Z-0.89
X82.783 Y73.597 Z-0.866
X82.8 Y73.511 Z-0.837
X82.82 Y73.422 Z-0.802
X82.839 Y73.35 Z-0.769
X82.871 Y73.248 Z-0.72
X82.899 Y73.171 Z-0.681
X82.931 Y73.099 Z-0.644
X82.963 Y73.036 Z-0.614
X82.996 Y72.982 Z-0.589
X83.029 Y72.937 Z-0.57
X83.074 Y72.883 Z-0.553
X83.088 Y72.869 Z-0.55
X83.13 Y72.832 Z-0.543
X83.175 Y72.796 Z-0.54
X83.234 Y72.756
X83.317 Y72.709 Z-0.541
X83.417 Y72.659 Z-0.542
X83.495 Y72.626 Z-0.541
X83.593 Y72.593
X83.692 Y72.566 Z-0.54
X83.791 Y72.546 Z-0.539
X83.895 Y72.533 Z-0.538
X83.995 Y72.525 Z-0.537
X86.086 Y72.524
X86.133
X86.235 Y72.529
X86.333 Y72.54 Z-0.538
X86.413 Y72.554 Z-0.539
X86.512 Y72.576
X86.608 Y72.605
X86.7 Y72.639
X86.79 Y72.68 Z-0.538
X86.877 Y72.727 Z-0.537
X86.962 Y72.78 Z-0.535
X87.045 Y72.84 Z-0.534
X87.127 Y72.908 Z-0.532
X87.206 Y72.983 Z-0.531
X87.276 Y73.056 Z-0.532
X87.34 Y73.133 Z-0.533
X87.399 Y73.212 Z-0.534
X87.44 Y73.275 Z-0.535
X87.482 Y73.348 Z-0.536
X87.523 Y73.427 Z-0.537
X87.553 Y73.496 Z-0.538
X87.583 Y73.574
X87.61 Y73.66 Z-0.539
X87.629 Y73.733
X87.645 Y73.816 Z-0.538
X87.659 Y73.915 Z-0.537
G0 Z5
X89.157 Y72.419
G1 Z-0.37 F762
X89.174 Y72.435 Z-0.409 F1000
X89.206 Y72.465 Z-0.473
X89.51 Y72.767 Z-1.002
X89.499 Y72.837 Z-0.983
X89.489 Y72.922 Z-0.965
X89.482 Y72.998 Z-0.954
X89.479 Y73.07 Z-0.948
X89.477 Y73.156 Z-0.945
X89.476 Y74.066 Z-0.943
X89.473 Y74.1 Z-0.937
X89.467 Y74.126 Z-0.927
X89.459 Y74.15 Z-0.914
X89.444 Y74.187 Z-0.886
X89.397 Y74.296 Z-0.805
X89.357 Y74.397 Z-0.737
X89.327 Y74.484 Z-0.684
X89.304 Y74.557 Z-0.645
X89.282 Y74.638 Z-0.607
X89.268 Y74.702 Z-0.583
X89.257 Y74.763 Z-0.564
X89.249 Y74.826 Z-0.55
X89.244 Y74.888 Z-0.541
X89.242 Y74.948 Z-0.537
Y74.958
Y76.5
X89.279 Y76.536 Z-0.469
X89.31 Y76.567 Z-0.404
X89.32 Y76.576 Z-0.381
X89.31 Y76.567 Z-0.404
X89.279 Y76.536 Z-0.469
X89.242 Y76.5 Z-0.537
X89.214 Y76.528 Z-0.487
X89.18 Y76.562 Z-0.418
X89.163 Y76.579 Z-0.378
X89.18 Y76.562 Z-0.418
X89.214 Y76.528 Z-0.487
X89.242 Y76.5 Z-0.537
Y74.958
Y74.948
X89.244 Y74.888 Z-0.541
X89.249 Y74.826 Z-0.55
X89.257 Y74.763 Z-0.564
X89.268 Y74.702 Z-0.583
X89.282 Y74.638 Z-0.607
X89.304 Y74.557 Z-0.645
X89.327 Y74.484 Z-0.684
X89.357 Y74.397 Z-0.737
X89.397 Y74.296 Z-0.805
X89.444 Y74.187 Z-0.886
X89.459 Y74.15 Z-0.914
X89.467 Y74.126 Z-0.927
X89.473 Y74.1 Z-0.937
X89.476 Y74.066 Z-0.943
X89.477 Y73.156 Z-0.945
X89.479 Y73.07 Z-0.948
X89.482 Y72.998 Z-0.954
X89.489 Y72.922 Z-0.965
X89.499 Y72.837 Z-0.983
X89.51 Y72.767 Z-1.002
X89.581 Y72.721 Z-0.922
X89.634 Y72.689 Z-0.866
X89.692 Y72.656 Z-0.809
X89.745 Y72.629 Z-0.762
X89.802 Y72.603 Z-0.717
X89.852 Y72.582 Z-0.682
X89.904 Y72.563 Z-0.649
X89.955 Y72.547 Z-0.621
X90.028 Y72.529 Z-0.589
X90.095 Y72.516 Z-0.566
X90.159 Y72.507 Z-0.551
X90.223 Y72.501 Z-0.542
X90.281 Y72.499 Z-0.538
X90.312 Z-0.537
X92.925 Y72.501 Z-0.535
X92.986 Y72.51 Z-0.536
X93.043 Y72.523 Z-0.535
X93.094 Y72.541
X93.143 Y72.564 Z-0.533
X93.19 Y72.593 Z-0.531
X93.237 Y72.628 Z-0.529
X93.282 Y72.67 Z-0.528
X93.316 Y72.709 Z-0.527
X93.353 Y72.76 Z-0.529
X93.383 Y72.81 Z-0.531
X93.408 Y72.864 Z-0.533
X93.429 Y72.922 Z-0.534
X93.445 Y72.984 Z-0.535
X93.455 Y73.05
X93.457 Y73.085 Z-0.536
X93.458 Y73.133 Z-0.537
X93.457 Y74.512 Z-0.535
X93.452 Y74.568 Z-0.531
X93.443 Y74.621 Z-0.528
X93.428 Y74.679 Z-0.524
X93.407 Y74.734 Z-0.521
X93.379 Y74.788 Z-0.519
X93.344 Y74.841 Z-0.517
X93.316 Y74.876
X93.275 Y74.92 Z-0.519
X93.236 Y74.955 Z-0.522
X93.185 Y74.993 Z-0.526
X93.131 Y75.024 Z-0.53
X93.086 Y75.045 Z-0.533
X93.027 Y75.066 Z-0.534
X92.981 Y75.077 Z-0.533
X92.942 Y75.083
X92.881 Y75.086 Z-0.537
X92.86
X92.204 Y75.08 Z-0.526
X92.071 Y75.083 Z-0.53
X91.987 Y75.087 Z-0.538
X91.915 Y75.093 Z-0.549
X91.854 Y75.102 Z-0.563
X91.803 Y75.111 Z-0.579
X91.753 Y75.122 Z-0.599
X91.689 Y75.142 Z-0.633
X91.641 Y75.16 Z-0.664
X91.595 Y75.18 Z-0.699
X91.533 Y75.212 Z-0.755
X91.452 Y75.262 Z-0.841
X91.373 Y75.319 Z-0.94
X90.572 Y75.111 Z-0.579
X90.498 Y75.093 Z-0.543
X90.445 Y75.084 Z-0.513
X90.415 Y75.081 Z-0.491
X90.383 Y75.058 Z-0.43
X90.376 Y75.054 Z-0.416
X90.383 Y75.058 Z-0.43
X90.415 Y75.081 Z-0.491
X90.377 Y75.1 Z-0.426
X90.374 Y75.101 Z-0.42
X90.377 Y75.1 Z-0.426
X90.415 Y75.081 Z-0.491
X90.445 Y75.084 Z-0.513
X90.498 Y75.093 Z-0.543
X90.572 Y75.111 Z-0.579
X91.373 Y75.319 Z-0.94
X91.416 Y75.407 Z-0.842
X91.46 Y75.485 Z-0.763
X91.512 Y75.558 Z-0.695
X91.547 Y75.6 Z-0.661
X91.588 Y75.644 Z-0.63
X91.64 Y75.691 Z-0.603
X91.687 Y75.727 Z-0.587
X91.741 Y75.764 Z-0.577
X91.811 Y75.808 Z-0.569
X91.913 Y75.87 Z-0.562
X92.078 Y75.967 Z-0.555
X92.271 Y76.077 Z-0.553
X92.377 Y76.143 Z-0.555
X92.469 Y76.206 Z-0.56
X92.534 Y76.256 Z-0.565
X92.589 Y76.303 Z-0.572
X92.651 Y76.364 Z-0.582
X92.697 Y76.417 Z-0.589
X92.726 Y76.456 Z-0.593
X92.744 Y76.488 Z-0.592
X92.764 Y76.542 Z-0.581
X92.785 Y76.605 Z-0.57
X92.803 Y76.68 Z-0.56
X92.818 Y76.757 Z-0.553
X92.827 Y76.833 Z-0.548
X92.833 Y76.922 Z-0.545
Y77.01 Z-0.544
X92.829 Y77.072 Z-0.546
X92.82 Y77.136 Z-0.548
X92.808 Y77.197 Z-0.552
X92.79 Y77.255 Z-0.556
X92.768 Y77.312 Z-0.56
X92.739 Y77.371 Z-0.562
X92.706 Y77.422
X92.669 Y77.468 Z-0.559
X92.63 Y77.509 Z-0.553
X92.579 Y77.549 Z-0.545
X92.536 Y77.579 Z-0.541
X92.484 Y77.609 Z-0.54
X92.432 Y77.634
X92.385 Y77.652 Z-0.542
X92.329 Y77.667 Z-0.544
X92.274 Y77.676 Z-0.545
X92.222 Y77.678 Z-0.544
X92.214
X89.263
X89.216 Y77.728 Z-0.458
X89.188 Y77.759 Z-0.395
X89.176 Y77.773 Z-0.366
X89.188 Y77.759 Z-0.395
X89.216 Y77.728 Z-0.458
X89.263 Y77.678 Z-0.544
X89.226 Y77.64 Z-0.478
X89.194 Y77.604 Z-0.409
X89.174 Y77.582 Z-0.362
G0 Z5
X94.933 Y76.491
G1 Z-0.522 F762
X94.916 Y76.403 Z-0.523 F1000
X94.904 Y76.304 Z-0.525
X94.899 Y76.204 Z-0.528
X94.894 Y75.846 Z-0.524
X94.89 Y75.383 Z-0.517
Y75.112 Z-0.516
X94.892 Y74.964 Z-0.519
X94.895 Y74.86 Z-0.525
X94.9 Y74.779 Z-0.533
X94.906 Y74.712 Z-0.545
X94.914 Y74.66 Z-0.558
X94.923 Y74.614 Z-0.573
X94.937 Y74.559 Z-0.597
X94.958 Y74.494 Z-0.634
X94.981 Y74.436 Z-0.674
X95.011 Y74.371 Z-0.725
X95.051 Y74.293 Z-0.794
X95.082 Y74.235 Z-0.849
X95.105 Y74.189 Z-0.888
X95.126 Y74.142 Z-0.925
X95.13 Y74.108 Z-0.932
X95.133 Y74.058 Z-0.937
X95.137 Y73.953 Z-0.932
X95.142 Y73.862 Z-0.923
X95.15 Y73.772 Z-0.909
X95.161 Y73.685 Z-0.89
X95.175 Y73.598 Z-0.866
X95.192 Y73.511 Z-0.837
X95.212 Y73.422 Z-0.802
X95.231 Y73.35 Z-0.769
X95.263 Y73.248 Z-0.72
X95.291 Y73.171 Z-0.681
X95.324 Y73.096 Z-0.643
X95.358 Y73.031 Z-0.611
X95.39 Y72.978 Z-0.587
X95.421 Y72.937 Z-0.57
X95.466 Y72.883 Z-0.553
X95.48 Y72.869 Z-0.55
X95.522 Y72.832 Z-0.543
X95.567 Y72.796 Z-0.54
X95.628 Y72.755
X95.705 Y72.71 Z-0.541
X95.809 Y72.659 Z-0.542
X95.887 Y72.626 Z-0.541
X95.985 Y72.593
X96.084 Y72.566 Z-0.54
X96.183 Y72.546 Z-0.539
X96.287 Y72.533 Z-0.538
X96.387 Y72.525 Z-0.537
X98.478 Y72.524
X98.524
X98.627 Y72.529
X98.725 Y72.54 Z-0.538
X98.805 Y72.554 Z-0.539
X98.904 Y72.576
X99 Y72.605
X99.092 Y72.639
X99.151 Y72.665 Z-0.538
X99.226 Y72.702 Z-0.537
X99.312 Y72.753 Z-0.536
X99.396 Y72.809 Z-0.535
X99.478 Y72.873 Z-0.533
X99.559 Y72.944 Z-0.532
X99.634 Y73.019 Z-0.531
X99.7 Y73.094 Z-0.532
X99.762 Y73.172 Z-0.533
X99.804 Y73.232 Z-0.534
X99.85 Y73.304 Z-0.536
X99.897 Y73.391
X99.935 Y73.473 Z-0.537
X99.964 Y73.544 Z-0.538
X99.987 Y73.611 Z-0.539
X100.014 Y73.708 Z-0.538
X100.031 Y73.782
X100.043 Y73.856 Z-0.537
X100.054 Y73.937
X100.061 Y74.044 Z-0.535
X100.066 Y74.253 Z-0.528
X100.069 Y74.565 Z-0.523
X100.062 Y75.798 Z-0.535
X100.061 Y76.116 Z-0.537
X100.058 Y76.217
X100.049 Y76.32
X100.04 Y76.387 Z-0.538
X100.021 Y76.484
X99.995 Y76.582
X99.965 Y76.67
X99.926 Y76.764 Z-0.537
X99.881 Y76.854
X99.832 Y76.938
X99.774 Y77.024 Z-0.536
X99.709 Y77.107
X99.637 Y77.188
X99.563 Y77.261 Z-0.537
X99.485 Y77.331
X99.403 Y77.395
X99.318 Y77.454 Z-0.538
X99.23 Y77.506 Z-0.539
X99.139 Y77.552
X99.044 Y77.592
X98.948 Y77.625
X98.851 Y77.65
X98.751 Y77.67 Z-0.538
X98.648 Y77.683
X98.541 Y77.69 Z-0.537
X96.469 Y77.691
X96.464
X96.365 Y77.688 Z-0.538
X96.277 Y77.68 Z-0.539
X96.196 Y77.668 Z-0.54
X96.096 Y77.648 Z-0.542
X96.001 Y77.622 Z-0.544
X95.908 Y77.59 Z-0.545
X95.818 Y77.552 Z-0.546
X95.731 Y77.508
X95.645 Y77.458 Z-0.545
X95.561 Y77.401 Z-0.544
X95.479 Y77.338 Z-0.541
X95.398 Y77.267 Z-0.538
X95.318 Y77.19 Z-0.534
X95.246 Y77.111 Z-0.531
X95.183 Y77.033 Z-0.529
X95.126 Y76.951 Z-0.527
X95.075 Y76.866 Z-0.525
X95.03 Y76.779 Z-0.523
X94.992 Y76.688
X94.96 Y76.595 Z-0.522
X94.935 Y76.5
X94.933 Y76.491
G0 Z5
X101.431 Y77.023
G1 Z-0.419 F762
X101.435 Y77.028 Z-0.429 F1000
X101.457 Y77.056 Z-0.483
X101.481 Y77.021 Z-0.421
X101.491 Y77.008 Z-0.395
X101.481 Y77.021 Z-0.421
X101.457 Y77.056 Z-0.483
Y77.066 Z-0.487
Y77.099 Z-0.498
X101.459 Y77.149 Z-0.507
X101.465 Y77.207 Z-0.516
X101.475 Y77.282 Z-0.533
X101.484 Y77.339 Z-0.55
X101.491 Y77.377 Z-0.565
X101.494 Y77.395 Z-0.573
X101.498 Y77.413 Z-0.581
X101.502 Y77.431 Z-0.59
X101.506 Y77.448 Z-0.598
X101.508 Y77.458 Z-0.604
X101.516 Y77.485 Z-0.618
X101.524 Y77.513 Z-0.634
X101.546 Y77.57 Z-0.666
X101.56 Y77.598 Z-0.681
X101.525 Y77.639 Z-0.602
X101.501 Y77.667 Z-0.541
X101.525 Y77.639 Z-0.602
X101.56 Y77.598 Z-0.681
X101.63 Y77.626 Z-0.635
X101.682 Y77.643 Z-0.606
X101.73 Y77.656 Z-0.583
X101.792 Y77.67 Z-0.559
X101.851 Y77.68 Z-0.541
X101.911 Y77.686 Z-0.53
X101.965 Y77.69 Z-0.524
X102.655 Y77.691 Z-0.523
X102.663
X102.729 Y77.689 Z-0.526
X102.785 Y77.685 Z-0.533
X102.839 Y77.678 Z-0.544
X102.893 Y77.669 Z-0.56
X102.964 Y77.653 Z-0.587
X103.022 Y77.636 Z-0.617
X103.088 Y77.613 Z-0.657
X103.153 Y77.586 Z-0.704
X103.218 Y77.554 Z-0.759
X103.296 Y77.592 Z-0.694
X103.31 Y77.598 Z-0.683
X103.396 Y77.631 Z-0.626
X103.457 Y77.65 Z-0.594
X103.491 Y77.659 Z-0.578
X103.561 Y77.673 Z-0.553
X103.622 Y77.682 Z-0.537
X103.675 Y77.687 Z-0.529
X103.728 Y77.69 Z-0.524
X103.771 Y77.691 Z-0.523
X104.975 Z-0.52
X105.006 Z-0.514
X105.023 Z-0.509
X105.053 Y77.667 Z-0.452
X105.074 Y77.649 Z-0.408
X105.053 Y77.667 Z-0.452
X105.023 Y77.691 Z-0.509
X105.057 Y77.718 Z-0.447
X105.074 Y77.731 Z-0.413
X105.057 Y77.718 Z-0.447
X105.023 Y77.691 Z-0.509
X105.006 Z-0.514
X104.975 Z-0.52
X103.771 Z-0.523
X103.728 Y77.69 Z-0.524
X103.675 Y77.687 Z-0.529
X103.622 Y77.682 Z-0.537
X103.561 Y77.673 Z-0.553
X103.491 Y77.659 Z-0.578
X103.457 Y77.65 Z-0.594
X103.396 Y77.631 Z-0.626
X103.31 Y77.598 Z-0.683
X103.296 Y77.592 Z-0.694
X103.218 Y77.554 Z-0.759
Y77.485 Z-0.695
Y77.42 Z-0.645
Y77.368 Z-0.611
Y77.304 Z-0.579
Y77.264 Z-0.565
Y77.206 Z-0.551
X103.217 Y77.148 Z-0.544
Y77.116
Y74.727
X103.221 Y74.657 Z-0.551
X103.232 Y74.587 Z-0.571
X103.252 Y74.518 Z-0.604
X103.279 Y74.448 Z-0.651
X103.327 Y74.354 Z-0.734
X103.397 Y74.223 Z-0.856
X103.44 Y74.135 Z-0.931
X103.443 Y74.13 Z-0.935
X103.444 Y74.122 Z-0.937
X103.447 Y74.081 Z-0.943
X103.449 Y72.743 Z-0.945
X103.388 Y72.686 Z-0.84
X103.328 Y72.636 Z-0.736
X103.284 Y72.6 Z-0.652
X103.275 Y72.594 Z-0.636
X103.284 Y72.6 Z-0.652
X103.328 Y72.636 Z-0.736
X103.388 Y72.686 Z-0.84
X103.449 Y72.743 Z-0.945
X103.533 Y72.659 Z-0.797
X103.61 Y72.584 Z-0.655
X103.669 Y72.526 Z-0.535
X103.72 Y72.474 Z-0.42
X103.738 Y72.454 Z-0.375
G0 Z5
X106.247 Y72.985
G1 Z-0.462 F762
X106.297 Y72.938 Z-0.569 F1000
X106.347 Y72.889 Z-0.668
X106.381 Y72.856 Z-0.731
X106.464 Y72.774 Z-0.877
X106.505 Y72.735 Z-0.945
X106.448 Y72.67 Z-0.833
X106.399 Y72.607 Z-0.725
X106.363 Y72.556 Z-0.63
X106.344 Y72.531 Z-0.579
X106.326 Y72.512 Z-0.533
X106.344 Y72.531 Z-0.579
X106.363 Y72.556 Z-0.63
X106.399 Y72.607 Z-0.725
X106.448 Y72.67 Z-0.833
X106.505 Y72.735 Z-0.945
X107.838 Z-0.94
X107.889 Y72.731 Z-0.933
X107.893 Z-0.932
X107.934 Y72.711 Z-0.898
X107.997 Y72.679 Z-0.842
X108.181 Y72.58 Z-0.669
X108.24 Y72.555 Z-0.625
X108.3 Y72.535 Z-0.591
X108.36 Y72.521 Z-0.566
X108.419 Y72.513 Z-0.552
X108.479 Y72.51 Z-0.547
X109.649 Y72.512 Z-0.546
X109.701 Y72.518 Z-0.547
X109.766 Y72.53 Z-0.548
X109.811 Y72.544
X109.854 Y72.561 Z-0.547
X109.9 Y72.584
X109.953 Y72.618 Z-0.546
X109.998 Y72.653 Z-0.547
X110.048 Y72.701 Z-0.549
X110.086 Y72.745 Z-0.552
X110.113 Y72.781 Z-0.555
X110.143 Y72.83 Z-0.559
X110.17 Y72.887 Z-0.561
X110.19 Y72.947
X110.205 Y73.014 Z-0.557
X110.213 Y73.089 Z-0.547
X110.216 Y73.121 Z-0.544
X110.218 Y73.157 Z-0.542
X110.219 Y73.183
X110.22 Y73.2
X110.221 Y73.218
X110.222 Y73.237 Z-0.543
X110.223 Y73.268 Z-0.544
X110.224 Y73.3 Z-0.546
Y73.321 Z-0.548
Y73.342 Z-0.549
Y73.362 Z-0.552
X110.223 Y73.379 Z-0.554
X110.222 Y73.405 Z-0.557
Y73.428 Z-0.56
X110.218 Y73.47 Z-0.567
X110.206 Y73.555 Z-0.58
X110.191 Y73.613 Z-0.588
X110.179 Y73.648 Z-0.592
X110.158 Y73.694 Z-0.594
X110.142 Y73.722 Z-0.592
X110.124 Y73.746 Z-0.588
X110.097 Y73.774 Z-0.578
X110.053 Y73.814 Z-0.565
X110.003 Y73.857 Z-0.556
X109.964 Y73.886 Z-0.553
X106.518 Y76.367 Z-0.545
X106.471 Y76.405 Z-0.552
X106.425 Y76.449 Z-0.566
X106.397 Y76.477 Z-0.578
X106.364 Y76.514 Z-0.596
X106.358 Y76.526 Z-0.597
X106.351 Y76.544 Z-0.595
X106.333 Y76.608 Z-0.586
X106.323 Y76.667 Z-0.576
X106.32 Y76.697 Z-0.571
X106.317 Y76.742 Z-0.564
X106.316 Y76.769 Z-0.561
X106.315 Y76.787 Z-0.558
Y76.818 Z-0.556
Y76.838 Z-0.555
X106.316 Y76.872 Z-0.553
X106.317 Y76.907 Z-0.552
X106.318 Y76.929 Z-0.551
X106.32 Y76.96 Z-0.55
X106.321 Y76.98
X106.322 Y77.008 Z-0.552
X106.324 Y77.034 Z-0.553
X106.327 Y77.072 Z-0.555
X106.329 Y77.101 Z-0.558
X106.338 Y77.179 Z-0.569
X106.35 Y77.233 Z-0.573
X106.363 Y77.276 Z-0.574
X106.383 Y77.325 Z-0.573
X106.404 Y77.368 Z-0.57
X106.435 Y77.416 Z-0.565
X106.466 Y77.458 Z-0.56
X106.5 Y77.495 Z-0.555
X106.55 Y77.542 Z-0.551
X106.584 Y77.568 Z-0.549
X106.632 Y77.6 Z-0.548
X106.668 Y77.62
X106.728 Y77.646
X106.776 Y77.66
X106.824 Y77.67 Z-0.547
X106.873 Y77.676 Z-0.546
X110.215 Y77.678 Z-0.544
X110.256 Y77.721 Z-0.465
X110.287 Y77.751 Z-0.401
X110.289 Y77.754 Z-0.395
X110.287 Y77.751 Z-0.401
X110.256 Y77.721 Z-0.465
X110.215 Y77.678 Z-0.544
X110.246 Y77.647 Z-0.487
X110.282 Y77.609 Z-0.411
X110.289 Y77.602 Z-0.395
G0 Z5
X132.088 Y61.939
G1 Z-0.001 F762
X132.34 Y62.192 Z-0.439 F1000
X132.088 Y62.327 Z-0.001
X132.34 Y62.192 Z-0.439
X132.433 Y62.22 Z-0.487
X132.487 Y62.184 Z-0.425
X132.54 Y62.156 Z-0.377
X132.594 Y62.136 Z-0.342
X132.648 Y62.124 Z-0.322
X132.702 Y62.12 Z-0.315
X134.768
X134.949 Y61.939 Z-0.001
X134.768 Y62.12 Z-0.315
X134.949 Y62.301 Z-0.001
X134.768 Y62.12 Z-0.315
X132.702
X132.648 Y62.124 Z-0.322
X132.594 Y62.136 Z-0.342
X132.54 Y62.156 Z-0.377
X132.487 Y62.184 Z-0.425
X132.433 Y62.22 Z-0.487
X132.458 Y62.279 Z-0.425
X132.487 Y62.333 Z-0.377
X132.52 Y62.379 Z-0.342
X132.559 Y62.419 Z-0.321
X132.601 Y62.452 Z-0.314
X134.438 Y63.68 Z-0.313
X134.48 Y63.714 Z-0.32
X134.518 Y63.754 Z-0.341
X134.552 Y63.8 Z-0.376
X134.581 Y63.853 Z-0.424
X134.606 Y63.913 Z-0.487
X134.697 Y63.941 Z-0.439
X134.949 Y63.806 Z-0.001
X134.697 Y63.941 Z-0.439
X134.949 Y64.194 Z-0.001
X134.697 Y63.941 Z-0.439
X134.606 Y63.913 Z-0.487
X134.552 Y63.949 Z-0.425
X134.498 Y63.977 Z-0.377
X134.444 Y63.997 Z-0.342
X134.391 Y64.008 Z-0.322
X134.337 Y64.012 Z-0.315
X132.269
X132.088 Y63.831 Z-0.001
X132.269 Y64.012 Z-0.315
X132.088 Y64.194 Z-0.001
G0 Z5
Y57.083
G1 Z-0.001 F762
X132.276 Y57.272 Z-0.328 F1000
X132.088 Y57.461 Z-0.001
X132.276 Y57.272 Z-0.328
X134.632 Z-0.33
X134.656 Z-0.337
X134.686 Z-0.352
X134.728 Z-0.385
X134.751 Y57.32 Z-0.344
X134.768 Y57.367 Z-0.316
X134.778 Y57.414 Z-0.298
X134.781 Y57.462 Z-0.293
Y58.236
X134.949 Y58.404 Z-0.001
X134.781 Y58.236 Z-0.293
X134.613 Y58.404 Z-0.001
X134.781 Y58.236 Z-0.293
Y57.462
X134.778 Y57.414 Z-0.298
X134.768 Y57.367 Z-0.316
X134.751 Y57.32 Z-0.344
X134.728 Y57.272 Z-0.385
X134.751 Y57.225 Z-0.344
X134.768 Y57.177 Z-0.316
X134.778 Y57.13 Z-0.298
X134.781 Y57.083 Z-0.293
Y56.305
X134.949 Y56.136 Z-0.001
X134.781 Y56.305 Z-0.293
X134.613 Y56.136 Z-0.001
G0 Z5
X132.088 Y55.304
G1 Z-0.001 F762
X132.276 Y55.493 Z-0.328 F1000
X132.088 Y55.682 Z-0.001
X132.276 Y55.493 Z-0.328
X134.761
X134.949 Y55.682 Z-0.001
X134.761 Y55.493 Z-0.328
X134.949 Y55.304 Z-0.001
G0 Z5
X132.088 Y54.238
G1 Z-0.001 F762
X132.276 Y54.426 Z-0.328 F1000
X132.088 Y54.615 Z-0.001
X132.276 Y54.426 Z-0.328
X133.388
X133.43 Y54.424 Z-0.332
X133.472 Y54.417 Z-0.344
X133.514 Y54.405 Z-0.365
X133.557 Y54.389 Z-0.393
Y54.333 Z-0.336
Y54.293 Z-0.308
Y54.263 Z-0.295
Y54.237 Z-0.292
Y53.062
X133.724 Y52.894 Z-0.001
X133.557 Y53.062 Z-0.292
X133.389 Y52.894 Z-0.001
X133.557 Y53.062 Z-0.292
Y54.237
Y54.263 Z-0.295
Y54.293 Z-0.308
Y54.333 Z-0.336
Y54.389 Z-0.393
X133.599 Y54.405 Z-0.365
X133.641 Y54.417 Z-0.344
X133.683 Y54.424 Z-0.332
X133.725 Y54.426 Z-0.328
X134.612
X134.654 Y54.424 Z-0.332
X134.697 Y54.417 Z-0.345
X134.739 Y54.405 Z-0.365
X134.949 Y54.615 Z-0.001
X134.739 Y54.405 Z-0.365
X134.757 Y54.363 Z-0.333
X134.771 Y54.321 Z-0.311
X134.778 Y54.279 Z-0.297
X134.781 Y54.237 Z-0.293
Y52.853
X134.613 Y52.685 Z-0.001
X134.781 Y52.853 Z-0.293
X134.949 Y52.685 Z-0.001
G0 Z5
X132.088 Y51.007
G1 Z-0.001 F762
X132.276 Y51.196 Z-0.328 F1000
X132.088 Y51.385 Z-0.001
X132.276 Y51.196 Z-0.328
X133.3
X133.335 Z-0.334
X133.359 Z-0.344
X133.392 Z-0.365
X133.41 Y51.221 Z-0.343
X133.439 Y51.257 Z-0.318
X133.471 Y51.289 Z-0.304
X133.506 Y51.316 Z-0.299
X133.675 Y51.42 Z-0.31
X133.87 Y51.545 Z-0.319
X134.759 Y52.131 Z-0.331
X134.95 Y52.488 Z-0.001
X134.759 Y52.131 Z-0.331
X134.949 Y52.028 Z-0.001
X134.759 Y52.131 Z-0.331
X133.87 Y51.545 Z-0.319
X133.675 Y51.42 Z-0.31
X133.506 Y51.316 Z-0.299
X133.471 Y51.289 Z-0.304
X133.439 Y51.257 Z-0.318
X133.41 Y51.221 Z-0.343
X133.392 Y51.196 Z-0.365
X133.41 Y51.165 Z-0.333
X133.432 Y51.129 Z-0.304
X133.456 Y51.097 Z-0.284
X133.484 Y51.07 Z-0.271
X133.514 Y51.046 Z-0.267
X133.67 Y50.946 Z-0.279
X133.831 Y50.841 Z-0.288
X134.77 Y50.208 Z-0.312
X134.949 Y50.305 Z-0.001
X134.77 Y50.208 Z-0.312
X134.95 Y49.865 Z-0.001
G0 Z5
X132.046 Y41.708
G1 Z-0.001 F762
X132.214 Y41.876 Z-0.293 F1000
X132.382 Y41.708 Z-0.001
X132.214 Y41.876 Z-0.293
Y43.536
X132.218 Y43.587 Z-0.299
X132.229 Y43.638 Z-0.32
X132.249 Y43.689 Z-0.353
X132.276 Y43.74 Z-0.4
X132.046 Y43.971 Z-0.001
X132.276 Y43.74 Z-0.4
X132.319 Y43.749 Z-0.385
X132.397 Y43.97 Z-0.001
X132.319 Y43.749 Z-0.385
X132.368 Y43.736 Z-0.349
X132.413 Y43.72 Z-0.323
X132.454 Y43.698 Z-0.307
X132.497 Y43.668 Z-0.302
X132.7 Y43.499 Z-0.31
X134.244 Y42.256 Z-0.319
X134.395 Y42.127 Z-0.31
X134.46 Y42.071 Z-0.305
X134.502 Y42.042 Z-0.311
X134.548 Y42.018 Z-0.33
X134.599 Y42 Z-0.362
X134.654 Y41.988 Z-0.406
X134.571 Y41.755 Z-0.001
X134.654 Y41.988 Z-0.406
X134.671 Y41.992 Z-0.412
X134.908 Y41.755 Z-0.001
X134.671 Y41.992 Z-0.412
X134.696 Y42.035 Z-0.369
X134.715 Y42.078 Z-0.336
X134.729 Y42.121 Z-0.312
X134.737 Y42.164 Z-0.297
X134.74 Y42.207 Z-0.293
Y43.636
X134.908 Y43.805 Z-0.001
X134.74 Y43.636 Z-0.293
X134.572 Y43.805 Z-0.001
G0 Z5
X132.046 Y39.265
G1 Z-0.001 F762
X132.214 Y39.433 Z-0.293 F1000
X132.382 Y39.265 Z-0.001
X132.214 Y39.433 Z-0.293
Y41.092
X132.218 Y41.143 Z-0.299
X132.229 Y41.195 Z-0.32
X132.249 Y41.246 Z-0.353
X132.276 Y41.297 Z-0.4
X132.046 Y41.527 Z-0.001
X132.276 Y41.297 Z-0.4
X132.319 Y41.305 Z-0.385
X132.397 Y41.527 Z-0.001
X132.319 Y41.305 Z-0.385
X132.368 Y41.293 Z-0.349
X132.413 Y41.276 Z-0.323
X132.454 Y41.255 Z-0.307
X132.497 Y41.224 Z-0.302
X132.7 Y41.056 Z-0.31
X134.244 Y39.812 Z-0.318
X134.395 Y39.684 Z-0.31
X134.46 Y39.627 Z-0.305
X134.502 Y39.598 Z-0.311
X134.548 Y39.575 Z-0.33
X134.599 Y39.557 Z-0.362
X134.654 Y39.545 Z-0.406
X134.571 Y39.312 Z-0.001
X134.654 Y39.545 Z-0.406
X134.671 Y39.549 Z-0.412
X134.908 Y39.312 Z-0.001
X134.671 Y39.549 Z-0.412
X134.696 Y39.592 Z-0.369
X134.715 Y39.635 Z-0.336
X134.729 Y39.678 Z-0.312
X134.737 Y39.721 Z-0.297
X134.74 Y39.764 Z-0.293
Y41.193
X134.908 Y41.361 Z-0.001
X134.74 Y41.193 Z-0.293
X134.572 Y41.361 Z-0.001
G0 Z5
X132.046 Y36.71
G1 Z-0.001 F762
X132.234 Y36.899 Z-0.328 F1000
X132.046 Y37.088 Z-0.001
X132.234 Y36.899 Z-0.328
X134.571
X134.591 Z-0.33
X134.615 Z-0.337
X134.645 Z-0.352
X134.687 Z-0.385
X134.71 Y36.946 Z-0.344
X134.727 Y36.994 Z-0.316
X134.737 Y37.041 Z-0.298
X134.74 Y37.088 Z-0.293
Y37.863
X134.908 Y38.031 Z-0.001
X134.74 Y37.863 Z-0.293
X134.572 Y38.031 Z-0.001
X134.74 Y37.863 Z-0.293
Y37.088
X134.737 Y37.041 Z-0.298
X134.727 Y36.994 Z-0.316
X134.71 Y36.946 Z-0.344
X134.687 Y36.899 Z-0.385
X134.71 Y36.851 Z-0.344
X134.727 Y36.804 Z-0.316
X134.737 Y36.757 Z-0.298
X134.74 Y36.709 Z-0.293
Y35.931
X134.908 Y35.763 Z-0.001
X134.74 Y35.931 Z-0.293
X134.572 Y35.763 Z-0.001
G0 Z5
X132.046 Y31.956
G1 Z-0.001 F762
X132.234 Y32.145 Z-0.328 F1000
X132.046 Y32.334 Z-0.001
X132.234 Y32.145 Z-0.328
X133.21
X133.252 Y32.143 Z-0.332
X133.294 Y32.136 Z-0.344
X133.336 Y32.124 Z-0.365
X133.378 Y32.107 Z-0.393
X133.421 Y32.124 Z-0.365
X133.463 Y32.136 Z-0.344
X133.505 Y32.143 Z-0.332
X133.547 Y32.145 Z-0.328
X134.571
X134.613 Y32.143 Z-0.332
X134.656 Y32.135 Z-0.345
X134.698 Y32.124 Z-0.365
X134.908 Y32.334 Z-0.001
X134.698 Y32.124 Z-0.365
X134.716 Y32.082 Z-0.333
X134.73 Y32.04 Z-0.311
X134.737 Y31.998 Z-0.297
X134.74 Y31.955 Z-0.293
Y31.164 Z-0.292
X134.736 Y31.036 Z-0.291
X134.718 Y30.874 Z-0.294
X134.708 Y30.82 Z-0.295
X134.694 Y30.772 Z-0.3
X134.676 Y30.72 Z-0.306
X134.653 Y30.667 Z-0.312
X134.631 Y30.629 Z-0.316
X134.593 Y30.574 Z-0.326
X134.554 Y30.532 Z-0.331
X134.518 Y30.496 Z-0.335
X134.486 Y30.47
X134.413 Y30.427 Z-0.338
X134.347 Y30.396
X134.298 Y30.377
X134.242 Y30.362 Z-0.339
X134.19 Y30.353
X134.093 Y30.345 Z-0.338
X134.02 Y30.348 Z-0.336
X133.938 Y30.357 Z-0.335
X133.873 Y30.369 Z-0.334
X133.82 Y30.384 Z-0.333
X133.769 Y30.404 Z-0.331
X133.719 Y30.431 Z-0.328
X133.671 Y30.463 Z-0.327
X133.602 Y30.514 Z-0.33
X133.565 Y30.554 Z-0.317
X133.548 Y30.575 Z-0.312
X133.528 Y30.604 Z-0.311
X133.48 Y30.688 Z-0.313
X133.441 Y30.767 Z-0.31
X133.422 Y30.821 Z-0.306
X133.403 Y30.895 Z-0.301
X133.393 Y30.955 Z-0.298
X133.386 Y31.016 Z-0.294
X133.38 Y31.111 Z-0.293
X133.379 Y31.208 Z-0.292
X133.378 Y31.221
Y31.955
Y31.982 Z-0.295
Y32.012 Z-0.308
Y32.03 Z-0.319
Y32.052 Z-0.336
Y32.077 Z-0.36
Y32.107 Z-0.393
G0 Z5
X132.131 Y22.648
G1 Z-0.001 F762
X132.319 Y22.836 Z-0.328 F1000
X132.131 Y23.025 Z-0.001
X132.319 Y22.836 Z-0.328
X133.294
X133.336 Y22.834 Z-0.332
X133.378 Y22.827 Z-0.344
X133.421 Y22.815 Z-0.365
X133.463 Y22.799 Z-0.393
Y22.768 Z-0.36
Y22.743 Z-0.337
Y22.722 Z-0.32
Y22.703 Z-0.309
Y22.673 Z-0.296
Y22.647 Z-0.293
Y21.915
X133.467 Y21.76
X133.475 Y21.662 Z-0.296
X133.485 Y21.598 Z-0.3
X133.495 Y21.557 Z-0.303
X133.517 Y21.484 Z-0.308
X133.538 Y21.432 Z-0.311
X133.564 Y21.38 Z-0.313
X133.613 Y21.296 Z-0.311
X133.633 Y21.267 Z-0.312
X133.687 Y21.205 Z-0.329
X133.742 Y21.164 Z-0.328
X133.789 Y21.132
X133.831 Y21.107 Z-0.329
X133.883 Y21.083 Z-0.332
X133.938 Y21.065 Z-0.334
X133.978 Y21.056
X134.047 Y21.046 Z-0.335
X134.141 Y21.037 Z-0.336
X134.179 Z-0.339
X134.273 Y21.044
X134.327 Y21.053
X134.383 Y21.069 Z-0.338
X134.432 Y21.087 Z-0.337
X134.489 Y21.113 Z-0.339
X134.558 Y21.153 Z-0.336
X134.587 Y21.175
X134.616 Y21.201 Z-0.334
X134.649 Y21.234 Z-0.329
X134.69 Y21.282 Z-0.322
X134.713 Y21.317 Z-0.317
X134.737 Y21.359 Z-0.312
X134.765 Y21.421 Z-0.305
X134.788 Y21.494 Z-0.297
X134.796 Y21.527 Z-0.294
X134.805 Y21.586 Z-0.293
X134.813 Y21.645 Z-0.292
X134.821 Y21.737 Z-0.291
X134.824 Y21.805 Z-0.292
Y21.841
X134.825 Y22.647 Z-0.293
X134.822 Y22.689 Z-0.297
X134.815 Y22.731 Z-0.311
X134.801 Y22.773 Z-0.333
X134.783 Y22.815 Z-0.365
X134.993 Y23.025 Z-0.001
X134.783 Y22.815 Z-0.365
X134.741 Y22.827 Z-0.345
X134.698 Y22.834 Z-0.332
X134.656 Y22.836 Z-0.328
X133.632
X133.59 Y22.834 Z-0.332
X133.548 Y22.827 Z-0.344
X133.505 Y22.815 Z-0.365
X133.463 Y22.799 Z-0.393
G0 Z5
X132.13 Y17.829
G1 Z-0.001 F762
X132.331 Y18.195 Z-0.348 F1000
X132.131 Y18.305 Z-0.001
X132.331 Y18.195 Z-0.348
X132.867 Y18.539 Z-0.344
X132.959 Y18.602 Z-0.34
X133.034 Y18.659 Z-0.331
X133.117 Y18.727 Z-0.318
X133.177 Y18.781 Z-0.304
X133.21 Y18.814 Z-0.292
X133.228 Y18.833 Z-0.284
X133.321 Y18.949 Z-0.238
X133.338 Y18.967 Z-0.236
X133.355 Y18.984 Z-0.239
X133.375 Y19 Z-0.247
X133.394 Y19.013 Z-0.258
X133.426 Y19.032 Z-0.282
X133.449 Y19.043 Z-0.302
X133.495 Y19.062 Z-0.35
X133.515 Y19.069 Z-0.374
X133.532 Y19.044 Z-0.347
X133.551 Y19.011 Z-0.318
X133.566 Y18.977 Z-0.296
X133.575 Y18.951 Z-0.284
X133.584 Y18.918 Z-0.275
X133.59 Y18.892 Z-0.274
X133.607 Y18.799 Z-0.276
X133.628 Y18.711 Z-0.279
X133.642 Y18.669 Z-0.283
X133.668 Y18.605 Z-0.289
X133.693 Y18.558 Z-0.292
X133.723 Y18.513 Z-0.296
X133.756 Y18.471 Z-0.302
X133.801 Y18.423 Z-0.313
X133.835 Y18.389 Z-0.321
X133.867 Y18.366 Z-0.323
X133.942 Y18.321 Z-0.332
X133.984 Y18.301 Z-0.335
X134.027 Y18.285 Z-0.337
X134.071 Y18.275
X134.123 Y18.267
X134.214 Y18.259 Z-0.338
X134.254 Y18.261
X134.341 Y18.272 Z-0.339
X134.386 Y18.281
X134.443 Y18.3 Z-0.336
X134.477 Y18.315 Z-0.335
X134.524 Y18.338
X134.557 Y18.359 Z-0.336
X134.607 Y18.396
X134.658 Y18.442 Z-0.334
X134.689 Y18.477 Z-0.328
X134.711 Y18.51 Z-0.325
X134.745 Y18.573 Z-0.32
X134.78 Y18.662 Z-0.301
X134.793 Y18.702 Z-0.295
X134.807 Y18.752 Z-0.288
X134.818 Y18.809 Z-0.283
X134.828 Y18.885 Z-0.278
X134.833 Y18.962 Z-0.275
X134.835 Y19.058 Z-0.274
Y19.086 Z-0.275
Y19.973
X134.833 Y20.016 Z-0.28
X134.824 Y20.06 Z-0.295
X134.809 Y20.103 Z-0.321
X134.788 Y20.146 Z-0.356
X134.993 Y20.352 Z-0.001
X134.788 Y20.146 Z-0.356
X134.751 Y20.155 Z-0.341
X134.714 Y20.161 Z-0.331
X134.677 Y20.163 Z-0.328
X133.73
X133.675 Y20.159 Z-0.335
X133.621 Y20.147 Z-0.355
X133.566 Y20.127 Z-0.39
Y20.07 Z-0.33
Y20.03 Z-0.301
Y19.999 Z-0.288
Y19.973 Z-0.284
Y19.463 Z-0.285
X133.565 Y19.427 Z-0.286
X133.564 Y19.41 Z-0.287
X133.561 Y19.347 Z-0.292
X133.558 Y19.303 Z-0.297
X133.556 Y19.279 Z-0.301
X133.551 Y19.244 Z-0.31
X133.547 Y19.22 Z-0.316
X133.533 Y19.142 Z-0.342
X133.526 Y19.113 Z-0.354
X133.516 Y19.073 Z-0.372
X133.515 Y19.069 Z-0.374
X133.516 Y19.073 Z-0.372
X133.526 Y19.113 Z-0.354
X133.533 Y19.142 Z-0.342
X133.547 Y19.22 Z-0.316
X133.551 Y19.244 Z-0.31
X133.556 Y19.279 Z-0.301
X133.558 Y19.303 Z-0.297
X133.561 Y19.347 Z-0.292
X133.564 Y19.41 Z-0.287
X133.565 Y19.427 Z-0.286
X133.566 Y19.463 Z-0.285
Y19.973 Z-0.284
Y19.999 Z-0.288
Y20.03 Z-0.301
Y20.07 Z-0.33
Y20.127 Z-0.39
X133.511 Y20.147 Z-0.355
X133.457 Y20.159 Z-0.335
X133.402 Y20.163 Z-0.328
X132.319
X132.131 Y20.352 Z-0.001
X132.319 Y20.163 Z-0.328
X132.131 Y19.974 Z-0.001
G0 Z5
Y14.373
G1 Z-0.001 F762
X132.341 Y14.163 Z-0.365 F1000
X132.383 Y14.175 Z-0.345
X132.426 Y14.182 Z-0.332
X132.468 Y14.184 Z-0.328
X133.453
X133.495 Y14.182 Z-0.332
X133.537 Y14.175 Z-0.344
X133.579 Y14.163 Z-0.365
X133.622 Y14.147 Z-0.393
Y14.116 Z-0.36
Y14.091 Z-0.336
Y14.069 Z-0.319
Y14.051 Z-0.308
Y14.021 Z-0.295
Y13.284 Z-0.294
Y13.191 Z-0.299
X133.623 Y13.141 Z-0.306
X133.624 Y13.083 Z-0.318
X133.625 Y13.005 Z-0.34
X133.626 Y12.955 Z-0.358
X133.595 Y12.924 Z-0.317
X133.57 Y12.893 Z-0.287
X133.549 Y12.861 Z-0.265
X133.543 Y12.852 Z-0.261
X133.53 Y12.831 Z-0.255
X133.52 Y12.809 Z-0.254
X133.495 Y12.751 Z-0.259
X133.468 Y12.697 Z-0.269
X133.447 Y12.661 Z-0.278
X133.417 Y12.621 Z-0.289
X133.382 Y12.583 Z-0.297
X133.345 Y12.547 Z-0.303
X133.285 Y12.501 Z-0.319
X133.231 Y12.471 Z-0.324
X133.178 Y12.446 Z-0.331
X133.131 Y12.43 Z-0.336
X133.091 Y12.421 Z-0.337
X133.025 Y12.412 Z-0.339
X132.959 Y12.408 Z-0.34
X132.869 Y12.414 Z-0.339
X132.811 Y12.423 Z-0.338
X132.764 Y12.435 Z-0.336
X132.697 Y12.46 Z-0.335
X132.655 Y12.478 Z-0.334
X132.6 Y12.509 Z-0.332
X132.551 Y12.541 Z-0.331
X132.503 Y12.583 Z-0.326
X132.47 Y12.619 Z-0.324
X132.433 Y12.67 Z-0.316
X132.402 Y12.72 Z-0.311
X132.384 Y12.758 Z-0.308
X132.36 Y12.818 Z-0.302
X132.348 Y12.854 Z-0.299
X132.339 Y12.887 Z-0.296
X132.329 Y12.932 Z-0.293
X132.312 Y13.03 Z-0.291
X132.305 Y13.105
X132.301 Y13.174
X132.299 Y13.243 Z-0.292
Y13.995 Z-0.293
X132.302 Y14.037 Z-0.297
X132.309 Y14.079 Z-0.311
X132.323 Y14.121 Z-0.333
X132.341 Y14.163 Z-0.365
X132.323 Y14.121 Z-0.333
X132.309 Y14.079 Z-0.311
X132.302 Y14.037 Z-0.297
X132.299 Y13.995 Z-0.293
Y13.243 Z-0.292
X132.301 Y13.174 Z-0.291
X132.305 Y13.105
X132.312 Y13.03
X132.329 Y12.932 Z-0.293
X132.339 Y12.887 Z-0.296
X132.348 Y12.854 Z-0.299
X132.36 Y12.818 Z-0.302
X132.384 Y12.758 Z-0.308
X132.402 Y12.72 Z-0.311
X132.433 Y12.67 Z-0.316
X132.47 Y12.619 Z-0.324
X132.503 Y12.583 Z-0.326
X132.551 Y12.541 Z-0.331
X132.6 Y12.509 Z-0.332
X132.655 Y12.478 Z-0.334
X132.697 Y12.46 Z-0.335
X132.764 Y12.435 Z-0.336
X132.811 Y12.423 Z-0.338
X132.869 Y12.414 Z-0.339
X132.959 Y12.408 Z-0.34
X133.025 Y12.412 Z-0.339
X133.091 Y12.421 Z-0.337
X133.131 Y12.43 Z-0.336
X133.178 Y12.446 Z-0.331
X133.231 Y12.471 Z-0.324
X133.285 Y12.501 Z-0.319
X133.345 Y12.547 Z-0.303
X133.382 Y12.583 Z-0.297
X133.417 Y12.621 Z-0.289
X133.447 Y12.661 Z-0.278
X133.468 Y12.697 Z-0.269
X133.495 Y12.751 Z-0.259
X133.52 Y12.809 Z-0.254
X133.53 Y12.831 Z-0.255
X133.543 Y12.852 Z-0.261
X133.549 Y12.861 Z-0.265
X133.57 Y12.893 Z-0.287
X133.595 Y12.924 Z-0.317
X133.626 Y12.955 Z-0.358
X133.653 Y12.937 Z-0.323
X133.685 Y12.913 Z-0.286
X133.713 Y12.887 Z-0.257
X133.73 Y12.869 Z-0.244
X133.746 Y12.85 Z-0.234
X133.76 Y12.83 Z-0.23
X133.772 Y12.811
X133.813 Y12.751 Z-0.241
X133.85 Y12.706 Z-0.251
X133.877 Y12.677 Z-0.258
X133.921 Y12.643 Z-0.269
X133.964 Y12.614 Z-0.278
X134.005 Y12.591 Z-0.288
X134.049 Y12.573 Z-0.296
X134.099 Y12.556 Z-0.306
X134.141 Y12.547 Z-0.313
X134.193 Y12.54 Z-0.318
X134.26 Y12.538 Z-0.325
X134.328 Y12.544
X134.381 Y12.554 Z-0.326
X134.424 Y12.566
X134.469 Y12.584 Z-0.324
X134.531 Y12.615 Z-0.322
X134.551 Y12.627 Z-0.32
X134.582 Y12.649 Z-0.317
X134.609 Y12.67
X134.652 Y12.708 Z-0.316
X134.688 Y12.75 Z-0.31
X134.72 Y12.797 Z-0.306
X134.744 Y12.841 Z-0.305
X134.746 Y12.846 Z-0.304
X134.775 Y12.922 Z-0.297
X134.791 Y12.985 Z-0.299
X134.806 Y13.059 Z-0.3
X134.819 Y13.176 Z-0.296
X134.822 Y13.236 Z-0.294
X134.825 Y13.995 Z-0.293
X134.822 Y14.037 Z-0.297
X134.815 Y14.079 Z-0.311
X134.801 Y14.121 Z-0.333
X134.783 Y14.163 Z-0.365
X134.993 Y14.373 Z-0.001
X134.783 Y14.163 Z-0.365
X134.741 Y14.175 Z-0.345
X134.698 Y14.182 Z-0.332
X134.656 Y14.184 Z-0.328
X133.79
X133.748 Y14.182 Z-0.332
X133.706 Y14.175 Z-0.344
X133.664 Y14.163 Z-0.365
X133.622 Y14.147 Z-0.393
G0 Z5
X132.131 Y9.546
G1 Z-0.001 F762
X132.299 Y9.714 Z-0.293 F1000
X132.467 Y9.546 Z-0.001
X132.299 Y9.714 Z-0.293
Y11.303
X132.302 Y11.345 Z-0.297
X132.309 Y11.387 Z-0.311
X132.323 Y11.429 Z-0.333
X132.341 Y11.471 Z-0.365
X132.131 Y11.682 Z-0.001
X132.341 Y11.471 Z-0.365
X132.383 Y11.483 Z-0.345
X132.426 Y11.49 Z-0.332
X132.468 Y11.493 Z-0.328
X133.443
X133.485 Y11.49 Z-0.332
X133.527 Y11.483 Z-0.344
X133.569 Y11.472 Z-0.364
X133.611 Y11.455 Z-0.393
Y11.425 Z-0.359
Y11.399 Z-0.335
Y11.378 Z-0.319
Y11.36 Z-0.307
Y11.329 Z-0.294
Y11.303 Z-0.291
Y9.887
X133.444 Y9.72 Z-0.001
X133.611 Y9.887 Z-0.291
X133.778 Y9.72 Z-0.001
X133.611 Y9.887 Z-0.291
Y11.303
Y11.329 Z-0.294
Y11.36 Z-0.307
Y11.378 Z-0.319
Y11.399 Z-0.335
Y11.425 Z-0.359
Y11.455 Z-0.393
X133.653 Y11.472 Z-0.364
X133.695 Y11.483 Z-0.344
X133.737 Y11.49 Z-0.332
X133.779 Y11.493 Z-0.328
X134.656
X134.698 Y11.49 Z-0.332
X134.741 Y11.483 Z-0.345
X134.783 Y11.471 Z-0.365
X134.993 Y11.682 Z-0.001
X134.783 Y11.471 Z-0.365
X134.801 Y11.429 Z-0.333
X134.815 Y11.387 Z-0.311
X134.822 Y11.345 Z-0.297
X134.825 Y11.303 Z-0.293
Y9.781
X134.657 Y9.612 Z-0.001
X134.825 Y9.781 Z-0.293
X134.993 Y9.612 Z-0.001
G0 Z5
X93.549 Y25.252
G1 Z-0.001 F762
X93.78 Y25.483 Z-0.4 F1000
X93.831 Y25.456 Z-0.353
X93.882 Y25.436 Z-0.319
X93.933 Y25.425 Z-0.299
X93.984 Y25.421 Z-0.293
X95.643
X95.812 Y25.589 Z-0.001
X95.643 Y25.421 Z-0.293
X95.812 Y25.252 Z-0.001
X95.643 Y25.421 Z-0.293
X93.984
X93.933 Y25.425 Z-0.299
X93.882 Y25.436 Z-0.319
X93.831 Y25.456 Z-0.353
X93.78 Y25.483 Z-0.4
X93.771 Y25.525 Z-0.385
X93.549 Y25.603 Z-0.001
X93.771 Y25.525 Z-0.385
X93.783 Y25.574 Z-0.349
X93.8 Y25.619 Z-0.323
X93.822 Y25.661 Z-0.307
X93.852 Y25.704 Z-0.302
X94.02 Y25.906 Z-0.311
X95.263 Y27.449 Z-0.319
X95.344 Y27.545 Z-0.314
X95.449 Y27.666 Z-0.305
X95.478 Y27.708 Z-0.311
X95.502 Y27.754 Z-0.33
X95.519 Y27.805 Z-0.362
X95.531 Y27.86 Z-0.406
X95.765 Y27.777 Z-0.001
X95.531 Y27.86 Z-0.406
X95.528 Y27.877 Z-0.412
X95.765 Y28.114 Z-0.001
X95.528 Y27.877 Z-0.412
X95.485 Y27.902 Z-0.369
X95.442 Y27.921 Z-0.335
X95.398 Y27.935 Z-0.312
X95.355 Y27.943 Z-0.297
X95.312 Y27.946 Z-0.293
X93.884
X93.715 Y28.114 Z-0.001
X93.884 Y27.946 Z-0.293
X93.715 Y27.778 Z-0.001
G0 Z5
X84.105 Y55.694
G1 Z-0.001 F762
X84.305 Y55.893 Z-0.347 F1000
X84.106 Y56.093 Z-0.001
X84.305 Y55.893 Z-0.347
X84.504 Y55.693 Z-0.001
X84.305 Y55.893 Z-0.347
X84.505 Y56.092 Z-0.001
G0 Z5
X85.291 Y57.508
G1 Z-0.001 F762
X85.302 Y57.525 Z-0.02 F1000
X85.391 Y57.66 Z-0.174
X85.448 Y57.751 Z-0.273
X85.292 Y57.847 Z-0.001
X85.448 Y57.751 Z-0.273
X85.553 Y57.808 Z-0.272
X85.651 Y57.867
X85.73 Y57.92 Z-0.274
X85.805 Y57.978
X85.915 Y58.067
X85.95 Y58.09 Z-0.286
X85.971 Y58.101 Z-0.298
X86.014 Y58.118 Z-0.327
X86.039 Y58.126 Z-0.348
X86.091 Y58.138 Z-0.397
X86.107 Y58.141 Z-0.414
X86.141 Y58.23 Z-0.355
X86.166 Y58.304 Z-0.312
X86.195 Y58.396 Z-0.263
X86.202 Y58.42 Z-0.251
X86.121 Y58.565 Z-0.001
X86.202 Y58.42 Z-0.251
X86.346 Y58.564 Z-0.001
X86.202 Y58.42 Z-0.251
X86.195 Y58.396 Z-0.263
X86.166 Y58.304 Z-0.312
X86.141 Y58.23 Z-0.355
X86.107 Y58.141 Z-0.414
X86.135 Y58.088 Z-0.366
X86.154 Y58.036 Z-0.332
X86.166 Y57.983 Z-0.311
X86.17 Y57.93 Z-0.304
X86.167 Y55.866
X86.342 Y55.69 Z-0.001
X86.167 Y55.866 Z-0.304
X85.992 Y55.691 Z-0.001
G0 Z5
X43.778 Y71.614
G1 Z-0.001 F762
X44.718 Y70.986 Z-1.088 F1000
X44.298 Y70.358 Z-0.001
X44.718 Y70.986 Z-1.088
X46.199
X46.29 Y70.989 Z-1.094
X46.381 Y70.999 Z-1.111
X46.471 Y71.015 Z-1.139
X46.562 Y71.038 Z-1.179
X46.652 Y71.068 Z-1.23
X46.743 Y71.103 Z-1.292
X46.834 Y71.146 Z-1.366
X46.924 Y71.195 Z-1.451
X47.193 Y70.926 Z-0.984
X47.194 Y70.924 Z-0.981
X47.195 Y70.923 Z-0.979
X47.208 Y70.896 Z-0.933
X47.234 Y70.834 Z-0.826
X47.24 Y70.816 Z-0.794
X47.234 Y70.834 Z-0.826
X47.208 Y70.896 Z-0.933
X47.195 Y70.923 Z-0.979
X47.194 Y70.924 Z-0.981
X47.193 Y70.926 Z-0.984
X46.924 Y71.195 Z-1.451
X46.949 Y71.3 Z-1.408
X46.966 Y71.405 Z-1.378
X46.977 Y71.509 Z-1.359
X46.981 Y71.614 Z-1.353
Y72.275
X46.977 Y72.38 Z-1.359
X46.967 Y72.485 Z-1.377
X46.949 Y72.59 Z-1.408
X46.924 Y72.694 Z-1.45
X46.893 Y72.799 Z-1.505
X46.854 Y72.904 Z-1.572
X46.749 Z-1.446
X46.701 Z-1.392
X46.61 Z-1.3
X46.526 Z-1.226
X46.447 Z-1.17
X46.41 Z-1.148
X46.374 Z-1.129
X46.338 Z-1.114
X46.303 Z-1.103
X46.268 Z-1.095
X46.234 Z-1.09
X45.34 Z-1.088
X45.249 Y72.907 Z-1.094
X45.158 Y72.917 Z-1.111
X45.068 Y72.933 Z-1.139
X44.977 Y72.956 Z-1.179
X44.886 Y72.986 Z-1.23
X44.796 Y73.021 Z-1.292
X44.705 Y73.064 Z-1.366
X44.614 Y73.113 Z-1.451
X44.334 Y72.83 Z-0.96
X44.319 Y72.806 Z-0.918
X44.311 Y72.789 Z-0.89
X44.295 Y72.746 Z-0.814
X44.311 Y72.789 Z-0.89
X44.319 Y72.806 Z-0.918
X44.334 Y72.83 Z-0.96
X44.614 Y73.113 Z-1.451
X44.59 Y73.218 Z-1.408
X44.572 Y73.323 Z-1.378
X44.562 Y73.427 Z-1.359
X44.558 Y73.532 Z-1.353
Y75.359
X44.562 Y75.464 Z-1.359
X44.572 Y75.569 Z-1.378
X44.59 Y75.674 Z-1.408
X44.614 Y75.778 Z-1.451
X44.334 Y76.062 Z-0.959
X44.319 Y76.086 Z-0.918
X44.311 Y76.102 Z-0.89
X44.294 Y76.149 Z-0.808
X44.311 Y76.102 Z-0.89
X44.319 Y76.086 Z-0.918
X44.334 Y76.062 Z-0.959
X44.614 Y75.778 Z-1.451
X44.705 Y75.827 Z-1.366
X44.796 Y75.87 Z-1.292
X44.886 Y75.906 Z-1.23
X44.977 Y75.935 Z-1.179
X45.068 Y75.958 Z-1.139
X45.158 Y75.974 Z-1.111
X45.249 Y75.984 Z-1.094
X45.34 Y75.988 Z-1.088
X46.199
X46.29 Y75.984 Z-1.094
X46.381 Y75.974 Z-1.111
X46.471 Y75.958 Z-1.139
X46.562 Y75.935 Z-1.179
X46.652 Y75.906 Z-1.23
X46.743 Y75.87 Z-1.292
X46.834 Y75.827 Z-1.366
X46.924 Y75.778 Z-1.451
X47.761 Y76.615 Z-0.001
X46.924 Y75.778 Z-1.451
X46.949 Y75.674 Z-1.408
X46.966 Y75.569 Z-1.378
X46.977 Y75.464 Z-1.359
X46.981 Y75.359 Z-1.353
Y73.532
X46.977 Y73.427 Z-1.359
X46.967 Y73.323 Z-1.377
X46.949 Y73.218 Z-1.408
X46.924 Y73.113 Z-1.45
X46.893 Y73.009 Z-1.505
X46.854 Y72.904 Z-1.572
G0 Z5
X39.574 Y76.172
G1 Z-0.768 F762
X39.581 Y76.148 Z-0.81 F1000
X39.605 Y76.087 Z-0.915
X39.623 Y76.051 Z-0.979
X39.624 Y76.049 Z-0.981
X39.894 Y75.778 Z-1.451
X39.984 Y75.827 Z-1.366
X40.075 Y75.87 Z-1.292
X40.165 Y75.906 Z-1.23
X40.256 Y75.935 Z-1.179
X40.347 Y75.958 Z-1.139
X40.437 Y75.974 Z-1.111
X40.528 Y75.984 Z-1.094
X40.619 Y75.988 Z-1.088
X41.513 Z-1.09
X41.547 Z-1.095
X41.582 Z-1.103
X41.617 Z-1.114
X41.653 Z-1.129
X41.689 Z-1.148
X41.727 Z-1.17
X41.805 Z-1.226
X41.889 Z-1.3
X41.98 Z-1.392
X42.029 Z-1.446
X42.133 Z-1.572
X42.172 Y76.092 Z-1.505
X42.204 Y76.197 Z-1.45
X42.228 Y76.302 Z-1.408
X42.246 Y76.406 Z-1.377
X42.256 Y76.511 Z-1.359
X42.26 Y76.616 Z-1.353
Y77.281
X43.04 Y78.062 Z-0.001
X42.26 Y77.281 Z-1.353
X41.479 Y78.062 Z-0.001
X42.26 Y77.281 Z-1.353
Y76.616
X42.256 Y76.511 Z-1.359
X42.246 Y76.406 Z-1.377
X42.228 Y76.302 Z-1.408
X42.204 Y76.197 Z-1.45
X42.172 Y76.092 Z-1.505
X42.133 Y75.988 Z-1.572
X42.172 Y75.883 Z-1.505
X42.204 Y75.778 Z-1.45
X42.228 Y75.673 Z-1.408
X42.246 Y75.569 Z-1.377
X42.256 Y75.464 Z-1.359
X42.26 Y75.359 Z-1.353
Y73.532
X42.256 Y73.427 Z-1.359
X42.246 Y73.323 Z-1.378
X42.228 Y73.218 Z-1.408
X42.203 Y73.113 Z-1.451
X43.04 Y72.276 Z-0.001
X42.203 Y73.113 Z-1.451
X42.113 Y73.064 Z-1.366
X42.022 Y73.021 Z-1.292
X41.932 Y72.986 Z-1.23
X41.841 Y72.956 Z-1.179
X41.75 Y72.933 Z-1.139
X41.66 Y72.917 Z-1.111
X41.569 Y72.907 Z-1.094
X41.478 Y72.904 Z-1.088
X40.619
X40.528 Y72.907 Z-1.094
X40.437 Y72.917 Z-1.111
X40.347 Y72.933 Z-1.139
X40.256 Y72.956 Z-1.179
X40.165 Y72.986 Z-1.23
X40.075 Y73.021 Z-1.292
X39.984 Y73.064 Z-1.366
X39.894 Y73.113 Z-1.451
X39.624 Y72.842 Z-0.981
X39.623 Y72.84 Z-0.978
X39.604 Y72.802 Z-0.912
X39.581 Y72.743 Z-0.81
X39.575 Y72.723 Z-0.774
X39.581 Y72.743 Z-0.81
X39.604 Y72.802 Z-0.912
X39.623 Y72.84 Z-0.978
X39.624 Y72.842 Z-0.981
X39.894 Y73.113 Z-1.451
X39.869 Y73.218 Z-1.408
X39.851 Y73.323 Z-1.378
X39.841 Y73.427 Z-1.359
X39.837 Y73.532 Z-1.353
Y75.359
X39.841 Y75.464 Z-1.359
X39.851 Y75.569 Z-1.378
X39.869 Y75.674 Z-1.408
X39.894 Y75.778 Z-1.451
G0 Z5
X34.974 Y76.16
G1 Z-0.788 F762
X34.982 Y76.136 Z-0.831 F1000
X35.005 Y76.081 Z-0.926
X35.021 Y76.05 Z-0.981
Y76.049
Z-0.982
X35.024 Y76.045 Z-0.988
X35.291 Y75.778 Z-1.451
X35.266 Y75.674 Z-1.408
X35.249 Y75.569 Z-1.378
X35.238 Y75.464 Z-1.359
X35.235 Y75.359 Z-1.353
Y74.871
X35.238 Y74.775 Z-1.358
X35.246 Y74.68 Z-1.374
X35.261 Y74.584 Z-1.399
X35.282 Y74.488 Z-1.435
X35.308 Y74.392 Z-1.481
X35.282 Y74.296 Z-1.435
X35.261 Y74.2 Z-1.399
X35.246 Y74.104 Z-1.374
X35.238 Y74.008 Z-1.358
X35.235 Y73.912 Z-1.353
Y73.524
X35.238 Y73.421 Z-1.359
X35.248 Y73.318 Z-1.377
X35.265 Y73.214 Z-1.406
X35.289 Y73.111 Z-1.448
X35.024 Y72.846 Z-0.988
X35.021 Y72.842 Z-0.982
Z-0.981
X35.006 Y72.812 Z-0.929
X34.981 Y72.752 Z-0.826
X34.975 Y72.734 Z-0.794
X34.981 Y72.752 Z-0.826
X35.006 Y72.812 Z-0.929
X35.021 Y72.842 Z-0.981
Z-0.982
X35.024 Y72.846 Z-0.988
X35.289 Y73.111 Z-1.448
X35.38 Y73.062 Z-1.362
X35.471 Y73.019 Z-1.287
X35.562 Y72.982 Z-1.224
X35.653 Y72.953 Z-1.173
X35.743 Y72.929 Z-1.133
X35.834 Y72.913 Z-1.104
X35.925 Y72.903 Z-1.087
X36.016 Y72.9 Z-1.081
X37.51
X38.446 Y73.523 Z-0.001
X37.51 Y72.9 Z-1.081
X37.925 Y72.276 Z-0.001
X37.51 Y72.9 Z-1.081
X36.016
X35.925 Y72.903 Z-1.087
X35.834 Y72.913 Z-1.104
X35.743 Y72.929 Z-1.133
X35.653 Y72.953 Z-1.173
X35.562 Y72.982 Z-1.224
X35.471 Y73.019 Z-1.287
X35.38 Y73.062 Z-1.362
X35.289 Y73.111 Z-1.448
X35.265 Y73.214 Z-1.406
X35.248 Y73.318 Z-1.377
X35.238 Y73.421 Z-1.359
X35.235 Y73.524 Z-1.353
Y73.912
X35.238 Y74.008 Z-1.358
X35.246 Y74.104 Z-1.374
X35.261 Y74.2 Z-1.399
X35.282 Y74.296 Z-1.435
X35.308 Y74.392 Z-1.481
X35.426 Z-1.316
X35.532 Z-1.18
X35.627 Z-1.069
X35.715 Z-0.981
X35.756 Z-0.945
X35.795 Z-0.914
X35.834 Z-0.888
X35.871 Z-0.867
X35.908 Z-0.851
X35.944 Z-0.84
X35.98 Z-0.833
X36.884 Z-0.831
X36.97 Y74.396 Z-0.837
X37.055 Y74.407 Z-0.857
X37.141 Y74.426 Z-0.89
X37.227 Y74.453 Z-0.937
X37.313 Y74.488 Z-0.997
X37.399 Y74.53 Z-1.07
X37.484 Y74.58 Z-1.156
X37.57 Y74.638 Z-1.256
X37.656 Y74.703 Z-1.369
X37.879 Y74.479 Z-0.982
Z-0.981
X37.893 Y74.451 Z-0.933
X37.917 Y74.392 Z-0.831
X37.928 Y74.361 Z-0.776
X37.917 Y74.392 Z-0.831
X37.893 Y74.451 Z-0.933
X37.879 Y74.479 Z-0.981
Z-0.982
X37.656 Y74.703 Z-1.369
X37.663 Y74.787 Z-1.357
X37.665 Y74.871 Z-1.353
Y75.359
X37.662 Y75.464 Z-1.359
X37.651 Y75.569 Z-1.378
X37.634 Y75.674 Z-1.408
X37.609 Y75.778 Z-1.451
X37.879 Y76.049 Z-0.982
Z-0.981
X37.889 Y76.069 Z-0.946
X37.915 Y76.129 Z-0.843
X37.926 Y76.163 Z-0.784
X37.915 Y76.129 Z-0.843
X37.889 Y76.069 Z-0.946
X37.879 Y76.049 Z-0.981
Z-0.982
X37.609 Y75.778 Z-1.451
X37.518 Y75.827 Z-1.366
X37.428 Y75.87 Z-1.292
X37.337 Y75.906 Z-1.23
X37.246 Y75.935 Z-1.179
X37.156 Y75.958 Z-1.139
X37.065 Y75.974 Z-1.111
X36.975 Y75.984 Z-1.094
X36.884 Y75.988 Z-1.088
X36.016
X35.925 Y75.984 Z-1.094
X35.835 Y75.974 Z-1.111
X35.744 Y75.958 Z-1.139
X35.653 Y75.935 Z-1.179
X35.563 Y75.906 Z-1.23
X35.472 Y75.87 Z-1.292
X35.381 Y75.827 Z-1.366
X35.291 Y75.778 Z-1.451
G0 Z5
X29.364 Y71.615
G1 Z-0.001 F762
X29.664 Y71.315 Z-0.521 F1000
X29.364 Y71.015 Z-0.001
X29.664 Y71.315 Z-0.521
X42.747 Y71.297 Z-0.552
X42.958 Y71.615 Z-0.001
X42.747 Y71.297 Z-0.552
X43.228 Y70.978 Z-0.001
G0 Z5
X29.364 Y72.276
G1 Z-0.001 F762
X30.145 Y73.057 Z-1.353 F1000
X30.925 Y72.276 Z-0.001
X30.145 Y73.057 Z-1.353
Y74.689
X30.148 Y74.785 Z-1.358
X30.157 Y74.881 Z-1.374
X30.171 Y74.977 Z-1.399
X30.192 Y75.073 Z-1.435
X30.218 Y75.169 Z-1.481
X30.192 Y75.265 Z-1.435
X30.171 Y75.361 Z-1.399
X30.157 Y75.457 Z-1.374
X30.148 Y75.553 Z-1.358
X30.145 Y75.648 Z-1.353
Y77.281
X29.364 Y78.062 Z-0.001
X30.145 Y77.281 Z-1.353
X30.925 Y78.062 Z-0.001
X30.145 Y77.281 Z-1.353
Y75.648
X30.148 Y75.553 Z-1.358
X30.157 Y75.457 Z-1.374
X30.171 Y75.361 Z-1.399
X30.192 Y75.265 Z-1.435
X30.218 Y75.169 Z-1.481
X30.336 Z-1.316
X30.442 Z-1.18
X30.537 Z-1.069
X30.625 Z-0.981
X30.666 Z-0.945
X30.705 Z-0.914
X30.744 Z-0.888
X30.781 Z-0.867
X30.818 Z-0.851
X30.854 Z-0.84
X30.89 Z-0.833
X32.15 Z-0.831
X32.185 Z-0.833
X32.221 Z-0.84
X32.257 Z-0.851
X32.294 Z-0.867
X32.332 Z-0.888
X32.37 Z-0.914
X32.41 Z-0.945
X32.451 Z-0.981
X32.538 Z-1.069
X32.633 Z-1.18
X32.739 Z-1.316
X32.857 Z-1.481
X32.884 Y75.073 Z-1.435
X32.904 Y74.977 Z-1.399
X32.919 Y74.881 Z-1.374
X32.928 Y74.785 Z-1.358
X32.931 Y74.689 Z-1.353
Y73.057
X33.711 Y72.276 Z-0.001
X32.931 Y73.057 Z-1.353
X32.15 Y72.276 Z-0.001
X32.931 Y73.057 Z-1.353
Y74.689
X32.928 Y74.785 Z-1.358
X32.919 Y74.881 Z-1.374
X32.904 Y74.977 Z-1.399
X32.884 Y75.073 Z-1.435
X32.857 Y75.169 Z-1.481
X32.884 Y75.265 Z-1.435
X32.904 Y75.361 Z-1.399
X32.919 Y75.457 Z-1.374
X32.928 Y75.553 Z-1.358
X32.931 Y75.648 Z-1.353
Y77.281
X32.15 Y78.062 Z-0.001
X32.931 Y77.281 Z-1.353
X33.711 Y78.062 Z-0.001
G0 Z5
X29.702 Y57.524
G1 Z-0.001 F762
X29.713 Y57.54 Z-0.02 F1000
X29.802 Y57.675 Z-0.174
X29.859 Y57.766 Z-0.273
X29.703 Y57.863 Z-0.001
X29.859 Y57.766 Z-0.273
X29.935 Y57.807 Z-0.272
X30.033 Y57.864
X30.115 Y57.918 Z-0.274
X30.189 Y57.972 Z-0.275
X30.289 Y58.053 Z-0.272
X30.318 Y58.077
X30.343 Y58.094 Z-0.279
X30.381 Y58.116 Z-0.297
X30.425 Y58.134 Z-0.327
X30.473 Y58.147 Z-0.369
X30.518 Y58.156 Z-0.414
X30.552 Y58.245 Z-0.355
X30.578 Y58.32 Z-0.312
X30.606 Y58.411 Z-0.263
X30.613 Y58.435 Z-0.251
X30.532 Y58.58 Z-0.001
X30.613 Y58.435 Z-0.251
X30.757 Y58.58 Z-0.001
X30.613 Y58.435 Z-0.251
X30.606 Y58.411 Z-0.263
X30.578 Y58.32 Z-0.312
X30.552 Y58.245 Z-0.355
X30.518 Y58.156 Z-0.414
X30.546 Y58.104 Z-0.366
X30.565 Y58.051 Z-0.332
X30.577 Y57.998 Z-0.311
X30.581 Y57.946 Z-0.304
X30.578 Y55.881
X30.753 Y55.706 Z-0.001
X30.578 Y55.881 Z-0.304
X30.403 Y55.706 Z-0.001
G0 Z5
X7.985 Y53.667
G1 Z-0.001 F762
X8.165 Y53.323 Z-0.312 F1000
X7.985 Y53.227 Z-0.001
X8.165 Y53.323 Z-0.312
X9.103 Y52.691 Z-0.288
X9.265 Y52.585 Z-0.278
X9.42 Y52.486 Z-0.267
X9.451 Y52.462 Z-0.272
X9.478 Y52.434 Z-0.284
X9.503 Y52.402 Z-0.305
X9.525 Y52.366 Z-0.334
X9.542 Y52.336 Z-0.366
X9.576 Z-0.344
X9.6 Z-0.334
X9.619 Z-0.329
X10.658 Z-0.328
X10.847 Y52.525 Z-0.001
X10.658 Y52.336 Z-0.328
X10.847 Y52.147 Z-0.001
X10.658 Y52.336 Z-0.328
X9.619 Z-0.329
X9.6 Z-0.334
X9.576 Z-0.344
X9.542 Z-0.366
X9.525 Y52.311 Z-0.344
X9.496 Y52.275 Z-0.319
X9.464 Y52.243 Z-0.304
X9.428 Y52.216 Z-0.299
X9.259 Y52.11 Z-0.311
X9.085 Y52 Z-0.319
X8.176 Y51.4 Z-0.331
X7.985 Y51.503 Z-0.001
X8.176 Y51.4 Z-0.331
X7.985 Y51.044 Z-0.001
G0 Z5
Y49.888
G1 Z-0.001 F762
X8.15 Y49.558 Z-0.287 F1000
X7.985 Y49.477 Z-0.001
X8.15 Y49.558 Z-0.287
X8.847 Y49.035 Z-0.293
X8.885 Y49.006
X9.001 Y48.921 Z-0.292
X9.158 Y48.811 Z-0.282
X9.201 Y48.776 Z-0.287
X9.23 Y48.743 Z-0.302
X9.241 Y48.729 Z-0.311
X9.27 Y48.692 Z-0.348
X9.293 Y48.663 Z-0.386
X9.276 Y48.641 Z-0.361
X9.264 Y48.626 Z-0.345
X9.246 Y48.603 Z-0.328
X9.211 Y48.564 Z-0.308
X9.172 Y48.532 Z-0.302
X9.117 Y48.496 Z-0.306
X9.005 Y48.421 Z-0.313
X8.168 Y47.828 Z-0.318
X7.985 Y47.923 Z-0.001
X8.168 Y47.828 Z-0.318
X7.985 Y47.473 Z-0.001
X8.168 Y47.828 Z-0.318
X9.005 Y48.421 Z-0.313
X9.117 Y48.496 Z-0.306
X9.172 Y48.532 Z-0.302
X9.211 Y48.564 Z-0.308
X9.246 Y48.603 Z-0.328
X9.264 Y48.626 Z-0.345
X9.276 Y48.641 Z-0.361
X9.293 Y48.663 Z-0.386
X9.325 Y48.665 Z-0.378
X9.345 Y48.666 Z-0.376
X9.37 Y48.667 Z-0.378
X9.409 Y48.669 Z-0.392
X9.434 Y48.701 Z-0.358
X9.45 Y48.721 Z-0.343
X9.474 Y48.75 Z-0.327
X9.501 Y48.776 Z-0.317
X9.529 Y48.799 Z-0.314
X9.631 Y48.868 Z-0.319
X10.658 Y49.596 Z-0.329
X10.847 Y49.498 Z-0.001
X10.658 Y49.596 Z-0.329
X10.847 Y49.966 Z-0.001
X10.658 Y49.596 Z-0.329
X9.631 Y48.868 Z-0.319
X9.529 Y48.799 Z-0.314
X9.501 Y48.776 Z-0.317
X9.474 Y48.75 Z-0.327
X9.45 Y48.721 Z-0.343
X9.434 Y48.701 Z-0.358
X9.409 Y48.669 Z-0.392
X9.429 Y48.642 Z-0.357
X9.443 Y48.622 Z-0.336
X9.464 Y48.594 Z-0.313
X9.486 Y48.566 Z-0.298
X9.51 Y48.542 Z-0.289
X9.537 Y48.52 Z-0.285
X9.575 Y48.494 Z-0.288
X9.702 Y48.406 Z-0.299
X10.666 Y47.703 Z-0.315
X10.847 Y47.796 Z-0.001
X10.666 Y47.703 Z-0.315
X10.847 Y47.342 Z-0.001
G0 Z5
X4.205 Y47.79
G1 Z-0.001 F762
X4.386 Y47.553 Z-0.315 F1000
X4.205 Y47.411 Z-0.001
X4.386 Y47.553 Z-0.315
X6.465 Y47.015 Z-0.26
X6.705 Y46.957 Z-0.248
X6.748 Y46.941 Z-0.255
X6.789 Y46.918 Z-0.274
X6.829 Y46.889 Z-0.305
X6.866 Y46.852 Z-0.349
X7.067 Y47.005 Z-0.001
X6.866 Y46.852 Z-0.349
X6.867 Y46.818 Z-0.347
Y46.794 Z-0.348
X7.067 Y46.641 Z-0.001
X6.867 Y46.794 Z-0.348
X6.829 Y46.755 Z-0.301
X6.79 Y46.724 Z-0.268
X6.748 Y46.7 Z-0.247
X6.704 Y46.684 Z-0.241
X6.648 Y46.671 Z-0.245
X6.355 Y46.605 Z-0.27
X6.192 Y46.566 Z-0.28
X6.028 Y46.524 Z-0.286
X5.822 Y46.469 Z-0.288
X5.698 Y46.435 Z-0.289
X4.524 Y46.108 Z-0.281
X4.506 Y46.103 Z-0.28
X4.466 Y46.089 Z-0.285
X4.428 Y46.069 Z-0.299
X4.391 Y46.044 Z-0.323
X4.205 Y46.185 Z-0.001
X4.391 Y46.044 Z-0.323
X4.381 Y45.996 Z-0.305
X4.377 Y45.947 Z-0.299
X4.379 Y45.907 Z-0.303
X4.387 Y45.867 Z-0.316
X4.205 Y45.729 Z-0.001
X4.387 Y45.867 Z-0.316
X4.425 Y45.838 Z-0.287
X4.466 Y45.816 Z-0.269
X4.509 Y45.801 Z-0.264
X4.681 Y45.756 Z-0.27
X6.179 Y45.338 Z-0.276
X6.702 Y45.201 Z-0.261
X6.749 Y45.185 Z-0.267
X6.79 Y45.163 Z-0.284
X6.828 Y45.136 Z-0.312
X6.865 Y45.102 Z-0.352
X7.067 Y45.255 Z-0.001
X6.865 Y45.102 Z-0.352
X6.867 Y45.055 Z-0.347
X6.866 Y45.024 Z-0.349
X7.067 Y44.87 Z-0.001
X6.866 Y45.024 Z-0.349
X6.828 Y44.987 Z-0.303
X6.789 Y44.957 Z-0.27
X6.747 Y44.934 Z-0.251
X6.703 Y44.918 Z-0.244
X6.62 Y44.899 Z-0.25
X6.404 Y44.85 Z-0.263
X4.39 Y44.351 Z-0.321
X4.205 Y44.498 Z-0.001
X4.39 Y44.351 Z-0.321
X4.205 Y44.11 Z-0.001
G0 Z5
Y51.262
G1 Z-0.001 F762
X4.41 Y51.467 Z-0.356 F1000
X4.389 Y51.511 Z-0.32
X4.374 Y51.554 Z-0.295
X4.365 Y51.597 Z-0.279
X4.362 Y51.641 Z-0.274
Y52.531
X4.364 Y52.627 Z-0.275
X4.368 Y52.71 Z-0.277
X4.377 Y52.785 Z-0.281
X4.388 Y52.848 Z-0.287
X4.404 Y52.91 Z-0.294
X4.423 Y52.965 Z-0.303
X4.453 Y53.041 Z-0.32
X4.47 Y53.073 Z-0.323
X4.501 Y53.127 Z-0.327
X4.522 Y53.153 Z-0.331
X4.546 Y53.178 Z-0.335
X4.586 Y53.214 Z-0.336
X4.638 Y53.253
X4.676 Y53.277 Z-0.335
X4.719 Y53.299
X4.764 Y53.317 Z-0.337
X4.812 Y53.332 Z-0.339
X4.858 Y53.342
X4.935 Y53.352 Z-0.338
X4.984 Y53.355
X5.065 Y53.348 Z-0.337
X5.127 Y53.339
X5.176 Y53.327
X5.21 Y53.315 Z-0.336
X5.263 Y53.289 Z-0.331
X5.331 Y53.248 Z-0.322
X5.366 Y53.223 Z-0.321
X5.405 Y53.184 Z-0.311
X5.445 Y53.139 Z-0.301
X5.48 Y53.094 Z-0.295
X5.509 Y53.047 Z-0.292
X5.538 Y52.99 Z-0.287
X5.563 Y52.924 Z-0.28
X5.586 Y52.834 Z-0.276
X5.604 Y52.745 Z-0.273
X5.612 Y52.701 Z-0.274
X5.618 Y52.679 Z-0.279
X5.63 Y52.643 Z-0.292
X5.647 Y52.605 Z-0.317
X5.668 Y52.567 Z-0.35
X5.683 Y52.544 Z-0.374
X5.705 Y52.553 Z-0.348
X5.748 Y52.571 Z-0.302
X5.772 Y52.582 Z-0.281
X5.805 Y52.601 Z-0.257
X5.828 Y52.617 Z-0.245
X5.848 Y52.634 Z-0.238
X5.868 Y52.654 Z-0.237
X5.886 Y52.675 Z-0.241
X5.931 Y52.734 Z-0.265
X5.973 Y52.784 Z-0.286
X6.026 Y52.838 Z-0.306
X6.08 Y52.886 Z-0.317
X6.169 Y52.959 Z-0.332
X6.24 Y53.013 Z-0.34
X6.33 Y53.075 Z-0.344
X6.867 Y53.419 Z-0.348
X7.067 Y53.309 Z-0.001
X6.867 Y53.419 Z-0.348
X7.067 Y53.784 Z-0.001
X6.867 Y53.419 Z-0.348
X6.33 Y53.075 Z-0.344
X6.24 Y53.013 Z-0.34
X6.169 Y52.959 Z-0.332
X6.08 Y52.886 Z-0.317
X6.026 Y52.838 Z-0.306
X5.973 Y52.784 Z-0.286
X5.931 Y52.734 Z-0.265
X5.886 Y52.675 Z-0.241
X5.868 Y52.654 Z-0.237
X5.848 Y52.634 Z-0.238
X5.828 Y52.617 Z-0.245
X5.805 Y52.601 Z-0.257
X5.772 Y52.582 Z-0.281
X5.748 Y52.571 Z-0.302
X5.705 Y52.553 Z-0.348
X5.683 Y52.544 Z-0.374
X5.666 Y52.474 Z-0.343
X5.656 Y52.424 Z-0.325
X5.644 Y52.349 Z-0.304
X5.64 Y52.315 Z-0.297
X5.633 Y52.205 Z-0.287
X5.632 Y52.117 Z-0.284
Y52.08
Y51.641
Y51.614 Z-0.288
Y51.584 Z-0.301
Y51.565 Z-0.313
Y51.543 Z-0.33
Y51.518 Z-0.355
Y51.487 Z-0.39
X5.577 Y51.467 Z-0.355
X5.523 Y51.455 Z-0.335
X5.468 Y51.451 Z-0.328
X4.521
X4.484 Y51.453 Z-0.331
X4.447 Y51.458 Z-0.341
X4.41 Y51.467 Z-0.356
X4.447 Y51.458 Z-0.341
X4.484 Y51.453 Z-0.331
X4.521 Y51.451 Z-0.328
X5.468
X5.523 Y51.455 Z-0.335
X5.577 Y51.467 Z-0.355
X5.632 Y51.487 Z-0.39
X5.687 Y51.467 Z-0.355
X5.741 Y51.455 Z-0.335
X5.796 Y51.451 Z-0.328
X6.878
X7.067 Y51.64 Z-0.001
X6.878 Y51.451 Z-0.328
X7.067 Y51.262 Z-0.001
G0 Z5
X5.872 Y65.139
G1 Z-0.001 F762
X5.802 Y65.055 Z-0.133 F1000
X5.741 Y64.979 Z-0.249
X5.702 Y64.926 Z-0.322
X5.78 Y64.869 Z-0.195
X5.899 Y64.778 Z-0.001
X5.78 Y64.869 Z-0.195
X5.702 Y64.926 Z-0.322
X5.692 Y64.923
X5.638 Y64.904 Z-0.32
X5.578 Y64.876 Z-0.318
X5.529 Y64.848 Z-0.319
X5.466 Y64.801 Z-0.316
X5.413 Y64.755 Z-0.314
X5.383 Y64.724 Z-0.311
X5.354 Y64.691 Z-0.304
X5.32 Y64.634 Z-0.302
X5.28 Y64.559 Z-0.3
X5.251 Y64.488 Z-0.292
X5.228 Y64.42 Z-0.288
X5.211 Y64.356 Z-0.287
X5.198 Y64.281 Z-0.288
X5.19 Y64.203
X5.185 Y64.082 Z-0.289
X5.188 Y63.962 Z-0.288
X5.195 Y63.885 Z-0.287
X5.206 Y63.81 Z-0.286
X5.219 Y63.753
X5.244 Y63.677 Z-0.288
X5.272 Y63.603 Z-0.294
X5.317 Y63.517 Z-0.295
X5.341 Y63.476 Z-0.296
X5.372 Y63.437 Z-0.3
X5.41 Y63.398 Z-0.301
X5.457 Y63.357
X5.494 Y63.329 Z-0.304
X5.546 Y63.3
X5.597 Y63.277 Z-0.308
X5.647 Y63.26 Z-0.313
X5.69 Y63.251 Z-0.314
X5.764 Y63.241 Z-0.313
X5.799 Y63.24 Z-0.316
X5.866 Y63.245 Z-0.319
X5.916 Y63.253 Z-0.321
X5.958 Y63.265 Z-0.322
X5.999 Y63.281 Z-0.321
X6.048 Y63.307 Z-0.322
X6.063 Y63.315 Z-0.323
X6.118 Y63.358 Z-0.322
X6.16 Y63.396 Z-0.321
X6.183 Y63.422
X6.204 Y63.452 Z-0.324
X6.249 Y63.528 Z-0.328
X6.274 Y63.581 Z-0.327
X6.31 Y63.663 Z-0.324
X6.341 Y63.746
X6.368 Y63.831
X6.448 Y64.167 Z-0.33
X6.487 Y64.321 Z-0.331
X6.523 Y64.447
X6.567 Y64.583 Z-0.329
X6.597 Y64.661 Z-0.332
X6.628 Y64.723 Z-0.33
X6.66 Y64.777 Z-0.331
X6.694 Y64.825 Z-0.332
X6.73 Y64.867
X6.791 Y64.924 Z-0.328
X6.813 Y64.943 Z-0.33
X6.832 Y64.955
X6.89 Y64.987 Z-0.327
X6.939 Y65.01 Z-0.326
X6.982 Y65.023 Z-0.324
X7.034 Y65.034 Z-0.32
X7.106 Y65.041 Z-0.318
X7.162 Z-0.313
X7.241 Y65.033 Z-0.311
X7.29 Y65.023 Z-0.309
X7.334 Y65.009 Z-0.306
X7.385 Y64.987 Z-0.303
X7.447 Y64.954 Z-0.302
X7.494 Y64.922 Z-0.298
X7.549 Y64.875 Z-0.299
X7.594 Y64.831
X7.631 Y64.785 Z-0.297
X7.664 Y64.735 Z-0.295
X7.701 Y64.666 Z-0.296
X7.729 Y64.601 Z-0.294
X7.759 Y64.512 Z-0.296
X7.776 Y64.45
X7.791 Y64.378
X7.801 Y64.297 Z-0.294
X7.807 Y64.189
Y64.117
X7.801 Y64.004 Z-0.296
X7.792 Y63.918 Z-0.298
X7.78 Y63.851 Z-0.301
X7.761 Y63.772 Z-0.305
X7.722 Y63.651 Z-0.309
X7.703 Y63.603 Z-0.314
X7.673 Y63.541 Z-0.316
X7.642 Y63.488 Z-0.318
X7.608 Y63.436 Z-0.32
X7.572 Y63.391 Z-0.322
X7.529 Y63.349
X7.45 Y63.281 Z-0.321
X7.421 Y63.26 Z-0.322
X7.339 Y63.216 Z-0.323
X7.28 Y63.188
X7.224 Y63.167 Z-0.322
X7.177 Y63.154 Z-0.32
X7.09 Y63.218 Z-0.179
X6.979 Y63.304 Z-0.001
X7.09 Y63.218 Z-0.179
X7.177 Y63.154 Z-0.32
X7.128 Y63.09 Z-0.226
X7.03 Y62.972 Z-0.04
X7.01 Y62.947 Z-0.001
G0 Z5
X5.067 Y65.529
G1 Z-0.001 F762
X5.235 Y65.698 Z-0.293 F1000
X5.403 Y65.529 Z-0.001
X5.235 Y65.698 Z-0.293
Y66.472
X5.238 Y66.52 Z-0.298
X5.248 Y66.567 Z-0.316
X5.265 Y66.614 Z-0.344
X5.288 Y66.662 Z-0.385
X5.265 Y66.709 Z-0.344
X5.248 Y66.756 Z-0.316
X5.238 Y66.804 Z-0.298
X5.235 Y66.851 Z-0.293
Y67.629
X5.067 Y67.798 Z-0.001
X5.235 Y67.629 Z-0.293
X5.403 Y67.798 Z-0.001
X5.235 Y67.629 Z-0.293
Y66.851
X5.238 Y66.804 Z-0.298
X5.248 Y66.756 Z-0.316
X5.265 Y66.709 Z-0.344
X5.288 Y66.662 Z-0.385
X5.33 Z-0.352
X5.36 Z-0.337
X5.384 Z-0.33
X7.74 Z-0.328
X7.929 Y66.851 Z-0.001
X7.74 Y66.662 Z-0.328
X7.929 Y66.473 Z-0.001
G0 Z5
X5.067 Y71.227
G1 Z-0.001 F762
X5.277 Y71.437 Z-0.365 F1000
X5.259 Y71.479 Z-0.333
X5.246 Y71.521 Z-0.311
X5.238 Y71.563 Z-0.297
X5.235 Y71.605 Z-0.293
Y72.306
Y72.36 Z-0.292
X5.237 Y72.481 Z-0.291
X5.243 Y72.575
X5.257 Y72.684 Z-0.293
X5.263 Y72.723 Z-0.294
X5.273 Y72.762 Z-0.297
X5.295 Y72.831 Z-0.305
X5.314 Y72.878 Z-0.311
X5.341 Y72.927 Z-0.316
X5.373 Y72.974 Z-0.323
X5.398 Y73.005 Z-0.328
X5.443 Y73.051 Z-0.334
X5.474 Y73.079 Z-0.335
X5.501 Y73.098 Z-0.336
X5.569 Y73.138 Z-0.338
X5.609 Y73.157
X5.667 Y73.18
X5.725 Y73.197 Z-0.339
X5.783 Y73.207
X5.887 Y73.216 Z-0.338
X5.956 Y73.212 Z-0.336
X6.036 Y73.203 Z-0.335
X6.102 Y73.192 Z-0.334
X6.159 Y73.175 Z-0.333
X6.212 Y73.153 Z-0.33
X6.26 Y73.126 Z-0.328
X6.312 Y73.093 Z-0.327
X6.374 Y73.046 Z-0.329
X6.427 Y72.986 Z-0.312
X6.446 Y72.957 Z-0.311
X6.496 Y72.871 Z-0.312
X6.529 Y72.802 Z-0.311
X6.543 Y72.768 Z-0.309
X6.561 Y72.713 Z-0.304
X6.574 Y72.653 Z-0.3
X6.586 Y72.573 Z-0.296
X6.593 Y72.486 Z-0.293
X6.596 Y72.371
Y72.338
Y71.605
Y71.579 Z-0.296
Y71.549 Z-0.308
Y71.53 Z-0.32
Y71.509 Z-0.337
Y71.484 Z-0.36
Y71.453 Z-0.393
X6.554 Y71.437 Z-0.365
X6.512 Y71.425 Z-0.344
X6.47 Y71.418 Z-0.332
X6.427 Y71.416 Z-0.328
X5.404
X5.362 Y71.418 Z-0.332
X5.319 Y71.425 Z-0.345
X5.277 Y71.437 Z-0.365
X5.319 Y71.425 Z-0.345
X5.362 Y71.418 Z-0.332
X5.404 Y71.416 Z-0.328
X6.427
X6.47 Y71.418 Z-0.332
X6.512 Y71.425 Z-0.344
X6.554 Y71.437 Z-0.365
X6.596 Y71.453 Z-0.393
X6.639 Y71.437 Z-0.365
X6.681 Y71.425 Z-0.344
X6.723 Y71.418 Z-0.332
X6.765 Y71.416 Z-0.328
X7.74
X7.929 Y71.227 Z-0.001
X7.74 Y71.416 Z-0.328
X7.929 Y71.604 Z-0.001
G0 Z5
X5.663 Y32.615
G1 Z-0.001 F762
X5.567 Y32.763 Z-0.209 F1000
X5.525 Y32.833 Z-0.302
X5.614 Y32.889 Z-0.168
X5.725 Y32.965 Z-0.001
X5.614 Y32.889 Z-0.168
X5.525 Y32.833 Z-0.302
X5.479 Y32.849 Z-0.301
X5.429 Y32.872 Z-0.298
X5.386 Y32.897 Z-0.294
X5.33 Y32.937 Z-0.289
X5.246 Y33.007 Z-0.282
X5.218 Y33.039 Z-0.275
X5.184 Y33.086 Z-0.272
X5.145 Y33.148 Z-0.267
X5.117 Y33.202 Z-0.263
X5.099 Y33.25 Z-0.259
X5.087 Y33.297 Z-0.256
X5.076 Y33.362 Z-0.252
X5.066 Y33.472 Z-0.25
X5.069 Y33.54
X5.076 Y33.606 Z-0.251
X5.087 Y33.664 Z-0.252
X5.104 Y33.719 Z-0.253
X5.123 Y33.766 Z-0.256
X5.153 Y33.828 Z-0.264
X5.172 Y33.858 Z-0.267
X5.215 Y33.921 Z-0.273
X5.242 Y33.951 Z-0.279
X5.276 Y33.984 Z-0.285
X5.324 Y34.022 Z-0.289
X5.375 Y34.057 Z-0.294
X5.394 Y34.068 Z-0.296
X5.443 Y34.09 Z-0.299
X5.499 Y34.109 Z-0.306
X5.539 Y34.119 Z-0.31
X5.603 Y34.128 Z-0.312
X5.662 Y34.132
X5.709 Y34.129 Z-0.313
X5.765 Y34.122 Z-0.312
X5.808 Y34.113 Z-0.308
X5.859 Y34.095 Z-0.299
X5.896 Y34.08 Z-0.293
X5.93 Y34.061 Z-0.286
X5.972 Y34.032 Z-0.277
X6.01 Y34.001 Z-0.27
X6.04 Y33.97 Z-0.263
X6.077 Y33.925 Z-0.252
X6.125 Y33.856 Z-0.235
X6.137 Y33.837 Z-0.234
X6.159 Y33.808 Z-0.243
X6.186 Y33.78 Z-0.262
X6.22 Y33.752 Z-0.293
X6.245 Y33.735 Z-0.319
X6.25 Y33.682 Z-0.292
X6.255 Y33.632 Z-0.271
X6.259 Y33.578 Z-0.254
X6.261 Y33.531 Z-0.243
X6.265 Y33.49 Z-0.24
X6.27 Y33.433 Z-0.239
X6.179 Y33.349 Z-0.076
X6.133 Y33.312 Z-0.001
X6.179 Y33.349 Z-0.076
X6.27 Y33.433 Z-0.239
X6.333 Y33.37 Z-0.144
X6.412 Y33.298 Z-0.037
X6.44 Y33.273 Z-0.001
X6.412 Y33.298 Z-0.037
X6.333 Y33.37 Z-0.144
X6.27 Y33.433 Z-0.239
X6.265 Y33.49 Z-0.24
X6.261 Y33.531 Z-0.243
X6.259 Y33.578 Z-0.254
X6.255 Y33.632 Z-0.271
X6.25 Y33.682 Z-0.292
X6.245 Y33.735 Z-0.319
X6.261 Y33.747 Z-0.298
X6.283 Y33.767 Z-0.271
X6.303 Y33.786 Z-0.25
X6.32 Y33.806 Z-0.235
X6.336 Y33.826 Z-0.225
X6.349 Y33.846 Z-0.22
X6.361 Y33.866
X6.371 Y33.886 Z-0.224
X6.41 Y33.965 Z-0.248
X6.443 Y34.022 Z-0.265
X6.468 Y34.055 Z-0.277
X6.499 Y34.088 Z-0.288
X6.547 Y34.131 Z-0.298
X6.596 Y34.17 Z-0.309
X6.647 Y34.198 Z-0.312
X6.695 Y34.221 Z-0.317
X6.735 Y34.236 Z-0.321
X6.786 Y34.249 Z-0.324
X6.84 Y34.258 Z-0.325
X6.944 Y34.267 Z-0.323
X7.035 Y34.259 Z-0.32
X7.103 Y34.25 Z-0.319
X7.167 Y34.237 Z-0.317
X7.226 Y34.219 Z-0.314
X7.263 Y34.203 Z-0.311
X7.322 Y34.169 Z-0.304
X7.386 Y34.126 Z-0.298
X7.452 Y34.072 Z-0.293
X7.488 Y34.038 Z-0.285
X7.509 Y34.014 Z-0.281
X7.566 Y33.938 Z-0.276
X7.597 Y33.892 Z-0.273
X7.624 Y33.844 Z-0.269
X7.646 Y33.797 Z-0.265
X7.663 Y33.747 Z-0.26
X7.678 Y33.687 Z-0.256
X7.687 Y33.63 Z-0.254
X7.7 Y33.504 Z-0.251
X7.697 Y33.429 Z-0.252
X7.689 Y33.362 Z-0.254
X7.677 Y33.295 Z-0.257
X7.664 Y33.245 Z-0.261
X7.643 Y33.189 Z-0.267
X7.613 Y33.133 Z-0.272
X7.573 Y33.07 Z-0.276
X7.54 Y33.025 Z-0.279
X7.503 Y32.985 Z-0.29
X7.488 Y32.97 Z-0.294
X7.412 Y32.908 Z-0.3
X7.35 Y32.865 Z-0.306
X7.298 Y32.835 Z-0.311
X7.251 Y32.815 Z-0.313
X7.193 Y32.795
X7.094 Y32.861 Z-0.158
X6.994 Y32.93 Z-0.001
X7.094 Y32.861 Z-0.158
X7.193 Y32.795 Z-0.313
X7.149 Y32.73 Z-0.222
X7.063 Y32.61 Z-0.047
X7.04 Y32.579 Z-0.001
G0 Z5
X5.733 Y32.117
G1 Z-0.001 F762
X5.647 Y31.962 Z-0.215 F1000
X5.61 Y31.89 Z-0.311
X5.724 Y31.832 Z-0.146
X5.826 Y31.777 Z-0.001
X5.724 Y31.832 Z-0.146
X5.61 Y31.89 Z-0.311
X5.554 Y31.866 Z-0.312
X5.489 Y31.832
X5.386 Y31.767 Z-0.311
X5.373 Y31.757 Z-0.31
X5.307 Y31.694 Z-0.308
X5.261 Y31.644 Z-0.306
X5.225 Y31.597 Z-0.303
X5.193 Y31.544 Z-0.299
X5.155 Y31.47 Z-0.296
X5.129 Y31.409 Z-0.291
X5.094 Y31.303 Z-0.288
X5.077 Y31.238 Z-0.286
X5.062 Y31.163 Z-0.283
X5.053 Y31.082 Z-0.281
X5.047 Y30.964
X5.05 Y30.857 Z-0.28
X5.057 Y30.76
X5.068 Y30.676 Z-0.282
X5.083 Y30.602 Z-0.285
X5.105 Y30.522 Z-0.286
X5.131 Y30.446
X5.17 Y30.355 Z-0.29
X5.203 Y30.287 Z-0.295
X5.22 Y30.258 Z-0.296
X5.254 Y30.208 Z-0.297
X5.3 Y30.147 Z-0.302
X5.356 Y30.081 Z-0.308
X5.391 Y30.046 Z-0.312
X5.448 Y29.997 Z-0.315
X5.511 Y29.951
X5.575 Y29.911 Z-0.316
X5.66 Y29.864 Z-0.32
X5.708 Y29.842
X5.837 Y29.794 Z-0.325
X5.936 Y29.763 Z-0.329
X6.02 Y29.742 Z-0.332
X6.08 Y29.731 Z-0.333
X6.167 Y29.721 Z-0.334
X6.321 Y29.71 Z-0.337
X6.378 Y29.708 Z-0.339
X6.474 Y29.713 Z-0.337
X6.588 Y29.721
X6.674 Y29.733 Z-0.336
X6.749 Y29.748 Z-0.334
X6.812 Y29.765 Z-0.333
X6.902 Y29.795 Z-0.33
X7.04 Y29.85 Z-0.327
X7.065 Y29.861 Z-0.325
X7.097 Y29.879 Z-0.322
X7.195 Y29.942 Z-0.32
X7.259 Y29.988 Z-0.318
X7.302 Y30.024 Z-0.317
X7.349 Y30.07 Z-0.313
X7.4 Y30.13 Z-0.309
X7.449 Y30.199 Z-0.307
X7.497 Y30.275 Z-0.306
X7.527 Y30.329 Z-0.301
X7.545 Y30.368 Z-0.3
X7.591 Y30.483 Z-0.299
X7.617 Y30.559 Z-0.298
X7.634 Y30.62
X7.65 Y30.696 Z-0.296
X7.662 Y30.792 Z-0.295
X7.673 Y30.945
Y30.983 Z-0.297
X7.665 Y31.113 Z-0.298
X7.654 Y31.207 Z-0.3
X7.641 Y31.275 Z-0.302
X7.618 Y31.364 Z-0.304
X7.576 Y31.493 Z-0.307
X7.538 Y31.585 Z-0.309
X7.502 Y31.662 Z-0.31
X7.46 Y31.742 Z-0.313
X7.416 Y31.814 Z-0.318
X7.355 Y31.902 Z-0.323
X7.326 Y31.938 Z-0.329
X7.298 Y31.964 Z-0.341
X7.397 Y32.16 Z-0.001
X7.298 Y31.964 Z-0.341
X7.252 Y31.972 Z-0.326
X7.206 Y31.975 Z-0.321
X6.673
X6.63 Y31.973 Z-0.326
X6.587 Y31.965 Z-0.339
X6.543 Y31.953 Z-0.36
X6.336 Y32.16 Z-0.001
X6.543 Y31.953 Z-0.36
X6.526 Y31.912 Z-0.331
X6.514 Y31.871 Z-0.309
X6.507 Y31.831 Z-0.296
X6.504 Y31.79 Z-0.292
X6.505 Y31.116 Z-0.291
X6.338 Y30.949 Z-0.001
X6.505 Y31.116 Z-0.291
X6.672 Y30.949 Z-0.001
G0 Z5
X6.28 Y19.183
G1 Z-0.308 F762
X6.307 Y19.206 Z-0.274 F1000
X6.333 Y19.232 Z-0.247
X6.351 Y19.252 Z-0.232
X6.366 Y19.272 Z-0.223
X6.382 Y19.297 Z-0.22
X6.399 Y19.33 Z-0.224
X6.433 Y19.392 Z-0.238
X6.467 Y19.448 Z-0.251
X6.485 Y19.475 Z-0.257
X6.515 Y19.509 Z-0.268
X6.555 Y19.548 Z-0.277
X6.606 Y19.591 Z-0.286
X6.653 Y19.626 Z-0.294
X6.704 Y19.653 Z-0.297
X6.75 Y19.674 Z-0.303
X6.805 Y19.693 Z-0.309
X6.858 Y19.705 Z-0.312
X6.923 Y19.713
X7.004 Y19.72 Z-0.311
X7.047 Y19.717 Z-0.309
X7.154 Y19.704 Z-0.308
X7.22 Y19.691 Z-0.307
X7.275 Y19.673 Z-0.304
X7.329 Y19.649 Z-0.3
X7.371 Y19.624 Z-0.296
X7.43 Y19.584 Z-0.291
X7.502 Y19.526 Z-0.288
X7.533 Y19.494 Z-0.279
X7.569 Y19.447 Z-0.275
X7.623 Y19.37 Z-0.27
X7.656 Y19.312 Z-0.266
X7.679 Y19.26 Z-0.262
X7.695 Y19.211 Z-0.258
X7.708 Y19.153 Z-0.254
X7.717 Y19.095 Z-0.252
X7.726 Y19.009 Z-0.25
X7.729 Y18.952
X7.72 Y18.844 Z-0.251
X7.712 Y18.782 Z-0.254
X7.697 Y18.719 Z-0.26
X7.679 Y18.663 Z-0.267
X7.654 Y18.603 Z-0.27
X7.639 Y18.573 Z-0.271
X7.601 Y18.512 Z-0.274
X7.562 Y18.458 Z-0.277
X7.526 Y18.415 Z-0.282
X7.492 Y18.38 Z-0.289
X7.439 Y18.34 Z-0.293
X7.38 Y18.299 Z-0.299
X7.336 Y18.274 Z-0.305
X7.287 Y18.25 Z-0.31
X7.232 Y18.23 Z-0.311
X7.172 Y18.214 Z-0.31
X7.107 Y18.204
X7.01 Y18.195 Z-0.312
X6.984 Z-0.313
X6.876 Y18.204 Z-0.314
X6.813 Y18.216 Z-0.313
X6.765 Y18.23 Z-0.309
X6.719 Y18.248 Z-0.304
X6.685 Y18.264 Z-0.301
X6.631 Y18.295 Z-0.298
X6.583 Y18.332 Z-0.288
X6.535 Y18.375 Z-0.278
X6.505 Y18.405 Z-0.269
X6.478 Y18.438 Z-0.258
X6.444 Y18.494 Z-0.244
X6.408 Y18.56 Z-0.224
X6.39 Y18.597 Z-0.215
X6.38 Y18.618 Z-0.213
X6.367 Y18.638 Z-0.215
X6.353 Y18.659 Z-0.223
X6.336 Y18.679 Z-0.237
X6.317 Y18.699 Z-0.256
X6.296 Y18.719 Z-0.281
X6.278 Y18.733 Z-0.303
Y18.732 Z-0.302
X6.242 Y18.705 Z-0.26
X6.223 Y18.689 Z-0.242
X6.207 Y18.673 Z-0.23
X6.193 Y18.658 Z-0.221
X6.18 Y18.642 Z-0.216
X6.167 Y18.624 Z-0.215
X6.116 Y18.537 Z-0.234
X6.1 Y18.512 Z-0.242
X6.066 Y18.473 Z-0.259
X6.04 Y18.447 Z-0.268
X5.994 Y18.407 Z-0.28
X5.944 Y18.372 Z-0.293
X5.932 Y18.366 Z-0.295
X5.88 Y18.342 Z-0.302
X5.833 Y18.327 Z-0.309
X5.793 Y18.318 Z-0.312
X5.709 Y18.31
X5.681 Y18.309 Z-0.31
X5.597 Y18.317 Z-0.309
X5.538 Y18.327 Z-0.308
X5.485 Y18.342 Z-0.307
X5.443 Y18.359 Z-0.304
X5.403 Y18.381 Z-0.299
X5.352 Y18.416 Z-0.295
X5.294 Y18.462 Z-0.292
X5.264 Y18.494 Z-0.285
X5.241 Y18.521 Z-0.28
X5.192 Y18.589 Z-0.275
X5.163 Y18.639 Z-0.271
X5.143 Y18.681 Z-0.266
X5.128 Y18.724 Z-0.261
X5.114 Y18.78 Z-0.256
X5.104 Y18.839 Z-0.253
X5.095 Y18.943 Z-0.25
X5.097 Y18.982
X5.105 Y19.067 Z-0.252
X5.113 Y19.121 Z-0.255
X5.125 Y19.172 Z-0.259
X5.144 Y19.224 Z-0.265
X5.167 Y19.271 Z-0.269
X5.205 Y19.333 Z-0.275
X5.249 Y19.393 Z-0.279
X5.285 Y19.433 Z-0.288
X5.334 Y19.474 Z-0.293
X5.386 Y19.513 Z-0.297
X5.435 Y19.542 Z-0.303
X5.478 Y19.562 Z-0.307
X5.513 Y19.574 Z-0.309
X5.574 Y19.587 Z-0.31
X5.665 Y19.599 Z-0.311
X5.702 Y19.602 Z-0.313
X5.77 Y19.596
X5.816 Y19.589 Z-0.312
X5.853 Y19.579 Z-0.308
X5.908 Y19.558 Z-0.299
X5.945 Y19.54 Z-0.294
X5.949 Y19.538 Z-0.293
X6 Y19.501 Z-0.279
X6.042 Y19.465 Z-0.269
X6.069 Y19.437 Z-0.26
X6.107 Y19.391 Z-0.241
X6.15 Y19.32 Z-0.223
X6.169 Y19.289 Z-0.218
X6.182 Y19.271 Z-0.22
X6.205 Y19.245 Z-0.232
X6.221 Y19.23 Z-0.244
X6.244 Y19.21 Z-0.266
X6.28 Y19.183 Z-0.308
X6.281 Y19.141 Z-0.289
X6.282 Y19.094 Z-0.273
