%
(1001)
(T1  D=3.175 CR=0 - ZMIN=-5.8 - flat end mill)
G90 G94
G17
G21

(Holes - 1/8)
M9
T1 M6
S5000 M3
G54
G0 X19.118 Y16.344
Z10
Z5
Z0.5
G1 Z-4 F330
X19.156 Y16.339 F1400
X19.153 Y16.376
X19.122 Y16.398
X19.085 Y16.392
X19.06 Y16.364
X19.055 Y16.327
X19.068 Y16.292
X19.093 Y16.264
X19.127 Y16.247
X19.164 Y16.245
X19.2 Y16.256
X19.23 Y16.278
X19.254 Y16.308
X19.28 Y16.378
X19.27 Y16.452
X19.229 Y16.515
X19.168 Y16.558
X19.095 Y16.575
X19.02 Y16.568
X18.952 Y16.537
X18.896 Y16.487
X18.816 Y16.36
X18.809 Y16.21
X18.869 Y16.073
X18.98 Y15.971
X19.12 Y15.919
X19.27
X19.412 Y15.967
X19.532 Y16.057
X19.621 Y16.178
X19.672 Y16.319
X19.682 Y16.469
X19.653 Y16.616
X19.587 Y16.751
X19.49 Y16.865
X19.369 Y16.953
X19.231 Y17.012
X19.083 Y17.037
X18.933 Y17.029
X18.788 Y16.993
X18.652 Y16.928
X18.533 Y16.837
X18.432 Y16.726
X18.356 Y16.597
X18.303 Y16.457
X18.276 Y16.309
X18.277 Y16.159
X18.302 Y16.011
X18.354 Y15.87
X18.427 Y15.739
X18.521 Y15.623
X18.632 Y15.522
X18.758 Y15.441
X18.895 Y15.379
X19.039 Y15.339
X19.188 Y15.32
X19.338 Y15.324
X19.486 Y15.349
X19.629 Y15.395
X19.764 Y15.46
X19.889 Y15.543
X20.002 Y15.642
X20.1 Y15.755
X20.182 Y15.881
X20.248 Y16.015
X20.296 Y16.158
X20.326 Y16.305
X20.336 Y16.454
X20.329 Y16.604
X20.302 Y16.752
X20.259 Y16.895
X20.198 Y17.032
X20.122 Y17.162
X20.03 Y17.281
X19.926 Y17.389
X19.81 Y17.483
X19.684 Y17.565
X19.55 Y17.632
X19.409 Y17.683
X19.263 Y17.719
X19.115 Y17.74
X18.965 Y17.744
X18.815 Y17.732
X18.668 Y17.704
X18.524 Y17.662
X18.385 Y17.605
X18.253 Y17.533
X18.129 Y17.449
X18.014 Y17.353
X17.909 Y17.246
X17.815 Y17.129
X17.733 Y17.004
X17.663 Y16.871
X17.607 Y16.732
X17.564 Y16.588
X17.535 Y16.441
X17.52 Y16.291
Y16.141
X17.533 Y15.992
X17.56 Y15.844
X17.6 Y15.7
X17.653 Y15.56
X17.719 Y15.425
X17.796 Y15.296
X17.884 Y15.175
X17.983 Y15.062
X18.092 Y14.959
X18.208 Y14.864
X18.333 Y14.781
X18.464 Y14.708
X18.601 Y14.647
X18.743 Y14.598
X18.888 Y14.56
X19.036 Y14.535
X19.185 Y14.523
X19.336 Y14.522
X19.485 Y14.534
X19.633 Y14.558
X19.783 Y14.595
X19.925 Y14.643
X20.067 Y14.704
X20.202 Y14.775
X20.33 Y14.856
X20.456 Y14.951
X20.569 Y15.052
X20.679 Y15.166
X20.778 Y15.288
X20.866 Y15.416
X20.947 Y15.557
X21.015 Y15.699
X21.071 Y15.848
X21.117 Y16.006
X21.149 Y16.162
X21.169 Y16.324
X21.176 Y16.492
X21.169 Y16.653
X21.15 Y16.817
X21.116 Y16.984
X21.07 Y17.143
X21.011 Y17.299
X20.937 Y17.456
X20.853 Y17.602
X20.757 Y17.742
X20.647 Y17.878
X20.526 Y18.004
X20.398 Y18.118
X20.258 Y18.224
X20.107 Y18.32
X19.949 Y18.404
X19.788 Y18.473
X19.617 Y18.531
X19.439 Y18.575
X19.26 Y18.605
X19.081 Y18.621
X18.898 Y18.622
X18.711 Y18.607
X18.528 Y18.579
X18.347 Y18.535
X18.171 Y18.477
X17.997 Y18.404
X17.826 Y18.316
X17.665 Y18.215
X17.512 Y18.102
X17.368 Y17.977
X17.233 Y17.838
X17.109 Y17.688
X16.996 Y17.526
X16.896 Y17.358
X16.811 Y17.181
X16.74 Y16.999
X16.683 Y16.808
X16.641 Y16.611
X16.615 Y16.411
X16.605 Y16.208
X16.612 Y16.006
X16.634 Y15.804
X16.673 Y15.604
X16.728 Y15.406
X16.8 Y15.212
X16.887 Y15.023
X16.99 Y14.841
X17.108 Y14.666
X17.24 Y14.501
X17.385 Y14.346
X17.544 Y14.203
X17.713 Y14.072
X17.893 Y13.955
X18.083 Y13.853
X18.282 Y13.765
X18.488 Y13.694
X18.7 Y13.639
X18.917 Y13.601
X19.136 Y13.58
X19.359 Y13.577
X19.582 Y13.592
X19.804 Y13.625
X20.024 Y13.676
X20.239 Y13.745
X20.45 Y13.831
X20.654 Y13.935
X20.85 Y14.054
X21.037 Y14.191
X21.212 Y14.342
X21.376 Y14.507
X21.527 Y14.686
X21.663 Y14.877
X21.784 Y15.079
X21.889 Y15.292
X21.977 Y15.513
X22.047 Y15.741
X22.099 Y15.975
X22.132 Y16.213
X22.146 Y16.454
X22.14 Y16.697
X22.115 Y16.94
X22.071 Y17.18
X22.006 Y17.418
X21.923 Y17.651
X21.821 Y17.877
X21.7 Y18.094
X21.562 Y18.303
X21.407 Y18.501
X21.235 Y18.686
X21.049 Y18.858
X20.848 Y19.015
X20.635 Y19.156
X20.41 Y19.28
X20.175 Y19.385
X19.931 Y19.472
X19.68 Y19.54
X19.423 Y19.587
X19.163 Y19.614
X18.9 Y19.619
X18.636 Y19.604
X18.373 Y19.567
X18.113 Y19.509
X17.857 Y19.43
X17.608 Y19.33
X17.367 Y19.21
X17.135 Y19.071
X16.914 Y18.912
X16.706 Y18.736
X16.511 Y18.543
X16.333 Y18.335
X16.171 Y18.112
X16.027 Y17.876
X15.902 Y17.627
X15.796 Y17.369
X15.712 Y17.101
X15.674 Y16.935
X15.666 Y16.889
X15.641 Y16.7
X15.603 Y16.409
X15.598 Y16.336
X15.605 Y16.263
X15.701 Y15.534
X15.711 Y15.461
X15.72 Y15.425
X15.733 Y15.388
X16.035 Y14.659
X16.068 Y14.586
X16.119 Y14.513
X16.572 Y13.923
X16.605 Y13.882
X16.644 Y13.841
X16.718 Y13.782
X17.302 Y13.334
X17.375 Y13.287
X17.448 Y13.254
X18.177 Y12.953
X18.214 Y12.942
X18.25 Y12.935
X19.052 Y12.829
X19.125 Y12.823
X19.198 Y12.831
X20.001 Y12.937
X20.037 Y12.946
X20.073 Y12.958
X20.803 Y13.26
X20.876 Y13.294
X20.952 Y13.347
X21.532 Y13.793
X21.614 Y13.861
X21.678 Y13.941
X22.117 Y14.513
X22.169 Y14.586
X22.202 Y14.659
X22.504 Y15.388
X22.516 Y15.425
X22.525 Y15.461
X22.631 Y16.263
X22.639 Y16.336
X22.633 Y16.409
X22.528 Y17.21
X22.521 Y17.247
X22.51 Y17.283
X22.39 Y17.575
X22.209 Y18.012
X22.178 Y18.085
X22.156 Y18.122
X22.116 Y18.176
X21.678 Y18.747
X21.622 Y18.817
X21.583 Y18.856
X20.949 Y19.343
X20.876 Y19.395
X20.803 Y19.428
X20.073 Y19.73
X20.037 Y19.743
X20.001 Y19.751
X19.198 Y19.857
X19.125 Y19.864
X19.052 Y19.859
X18.245 Y19.753
X18.211 Y19.746
X18.177 Y19.735
X17.448 Y19.433
X17.375 Y19.401
X17.338 Y19.381
X17.263 Y19.324
X16.693 Y18.887
X16.621 Y18.826
X16.554 Y18.741
X16.107 Y18.158
X16.08 Y18.122
X16.059 Y18.085
X15.989 Y17.918
X15.786 Y17.429
X15.727 Y17.283
X15.716 Y17.247
X15.709 Y17.21
X15.666 Y16.889
X15.665 Y16.859 F1000
G3 X15.921 Y16.547 I0.318
G1 X15.982 Y16.541 Z-3.994
X16.038 Y16.555 Z-3.977
X16.089 Y16.568 Z-3.949
X16.134 Y16.58 Z-3.912
X16.167 Y16.605 Z-3.863
X16.191 Y16.624 Z-3.807
X16.206 Y16.635 Z-3.746
X16.212 Y16.639 Z-3.683
G0 Z5
X19.118 Y33.579
Z0.5
G1 Z-4 F330
X19.104 Y33.614 F1400
X19.073 Y33.593
X19.07 Y33.556
X19.093 Y33.526
X19.13 Y33.518
X19.164 Y33.533
X19.188 Y33.562
X19.2 Y33.598
X19.198 Y33.635
X19.181 Y33.669
X19.153 Y33.694
X19.119 Y33.709
X19.082 Y33.714
X19.008 Y33.702
X18.948 Y33.657
X18.914 Y33.59
X18.908 Y33.515
X18.929 Y33.443
X18.973 Y33.382
X19.034 Y33.339
X19.105 Y33.315
X19.255 Y33.309
X19.388 Y33.379
X19.478 Y33.499
X19.51 Y33.646
X19.485 Y33.793
X19.41 Y33.923
X19.298 Y34.022
X19.16 Y34.081
X19.011 Y34.098
X18.863 Y34.071
X18.729 Y34.005
X18.616 Y33.906
X18.531 Y33.782
X18.481 Y33.641
X18.465 Y33.492
X18.484 Y33.343
X18.536 Y33.202
X18.617 Y33.077
X18.722 Y32.968
X18.845 Y32.884
X18.984 Y32.826
X19.13 Y32.794
X19.28 Y32.792
X19.428 Y32.816
X19.569 Y32.867
X19.699 Y32.943
X19.814 Y33.039
X19.911 Y33.154
X19.987 Y33.283
X20.041 Y33.423
X20.073 Y33.569
X20.08 Y33.719
X20.066 Y33.868
X20.028 Y34.014
X19.969 Y34.152
X19.891 Y34.28
X19.796 Y34.395
X19.685 Y34.496
X19.561 Y34.581
X19.427 Y34.648
X19.284 Y34.695
X19.137 Y34.724
X18.987 Y34.732
X18.838 Y34.722
X18.691 Y34.692
X18.549 Y34.644
X18.414 Y34.579
X18.288 Y34.497
X18.173 Y34.401
X18.07 Y34.291
X17.982 Y34.17
X17.908 Y34.039
X17.851 Y33.901
X17.809 Y33.757
X17.785 Y33.609
X17.778 Y33.459
X17.787 Y33.309
X17.813 Y33.161
X17.854 Y33.017
X17.911 Y32.878
X17.983 Y32.746
X18.068 Y32.623
X18.165 Y32.509
X18.274 Y32.405
X18.393 Y32.314
X18.52 Y32.235
X18.655 Y32.17
X18.796 Y32.118
X18.941 Y32.08
X19.09 Y32.058
X19.239 Y32.049
X19.389 Y32.056
X19.538 Y32.076
X19.684 Y32.111
X19.826 Y32.16
X19.962 Y32.222
X20.093 Y32.296
X20.216 Y32.382
X20.33 Y32.479
X20.435 Y32.586
X20.53 Y32.702
X20.614 Y32.827
X20.687 Y32.958
X20.747 Y33.095
X20.796 Y33.237
X20.831 Y33.383
X20.854 Y33.531
X20.864 Y33.681
X20.862 Y33.831
X20.846 Y33.98
X20.818 Y34.127
X20.778 Y34.272
X20.725 Y34.412
X20.662 Y34.548
X20.587 Y34.678
X20.502 Y34.802
X20.407 Y34.918
X20.301 Y35.029
X20.188 Y35.128
X20.064 Y35.221
X19.935 Y35.302
X19.801 Y35.372
X19.656 Y35.434
X19.512 Y35.482
X19.358 Y35.52
X19.203 Y35.545
X19.048 Y35.557
X18.885
X18.728 Y35.544
X18.571 Y35.519
X18.411 Y35.479
X18.26 Y35.429
X18.11 Y35.365
X17.962 Y35.287
X17.825 Y35.201
X17.692 Y35.102
X17.565 Y34.989
X17.451 Y34.87
X17.345 Y34.741
X17.246 Y34.599
X17.161 Y34.452
X17.088 Y34.3
X17.026 Y34.136
X16.977 Y33.968
X16.942 Y33.8
X16.92 Y33.626
X16.912 Y33.447
X16.919 Y33.269
X16.939 Y33.094
X16.975 Y32.918
X17.025 Y32.742
X17.089 Y32.572
X17.165 Y32.409
X17.256 Y32.25
X17.361 Y32.095
X17.478 Y31.95
X17.606 Y31.816
X17.744 Y31.692
X17.894 Y31.578
X18.056 Y31.474
X18.224 Y31.384
X18.399 Y31.309
X18.579 Y31.247
X18.766 Y31.2
X18.959 Y31.167
X19.155 Y31.15
X19.351 Y31.148
X19.547 Y31.162
X19.74 Y31.192
X19.934 Y31.238
X20.125 Y31.3
X20.311 Y31.378
X20.492 Y31.471
X20.664 Y31.577
X20.828 Y31.698
X20.982 Y31.832
X21.125 Y31.978
X21.257 Y32.137
X21.377 Y32.307
X21.484 Y32.487
X21.576 Y32.677
X21.653 Y32.874
X21.715 Y33.077
X21.76 Y33.286
X21.788 Y33.498
X21.799 Y33.713
X21.793 Y33.928
X21.769 Y34.144
X21.729 Y34.358
X21.67 Y34.569
X21.595 Y34.776
X21.503 Y34.977
X21.394 Y35.171
X21.269 Y35.356
X21.13 Y35.532
X20.976 Y35.697
X20.809 Y35.849
X20.628 Y35.989
X20.437 Y36.114
X20.235 Y36.223
X20.024 Y36.317
X19.805 Y36.394
X19.58 Y36.453
X19.35 Y36.494
X19.116 Y36.517
X18.881 Y36.52
X18.644 Y36.505
X18.409 Y36.471
X18.176 Y36.417
X17.947 Y36.345
X17.724 Y36.255
X17.509 Y36.146
X17.301 Y36.02
X17.103 Y35.877
X16.918 Y35.718
X16.744 Y35.543
X16.584 Y35.355
X16.44 Y35.153
X16.311 Y34.94
X16.2 Y34.716
X16.106 Y34.482
X16.031 Y34.242
X15.976 Y33.994
X15.94 Y33.742
X15.925 Y33.487
X15.93 Y33.23
X15.956 Y32.974
X16.002 Y32.719
X16.069 Y32.468
X16.157 Y32.222
X16.264 Y31.983
X16.391 Y31.752
X16.536 Y31.532
X16.7 Y31.322
X16.88 Y31.126
X17.076 Y30.944
X17.287 Y30.779
X17.511 Y30.63
X17.748 Y30.498
X17.996 Y30.386
X18.253 Y30.294
X18.517 Y30.222
X18.786 Y30.171
X19.06 Y30.143
X19.337 Y30.136
X19.615 Y30.152
X19.892 Y30.19
X20.166 Y30.25
X20.329 Y30.301
X20.373 Y30.317
X20.582 Y30.404
X20.856 Y30.518
X20.908 Y30.55
X21.099 Y30.696
X21.532 Y31.028
X21.589 Y31.072
X21.62 Y31.102
X21.645 Y31.133
X22.116 Y31.747
X22.158 Y31.804
X22.188 Y31.862
X22.49 Y32.591
X22.518 Y32.664
X22.531 Y32.737
X22.636 Y33.538
X22.638 Y33.575
X22.637 Y33.611
X22.542 Y34.34
X22.52 Y34.486
X22.464 Y34.632
X22.192 Y35.288
X22.175 Y35.324
X22.154 Y35.361
X22.043 Y35.507
X21.636 Y36.036
X21.585 Y36.09
X20.949 Y36.578
X20.876 Y36.63
X20.803 Y36.663
X20.073 Y36.965
X20.037 Y36.977
X20.001 Y36.986
X19.198 Y37.092
X19.125 Y37.1
X19.052 Y37.094
X18.25 Y36.988
X18.214 Y36.981
X18.177 Y36.97
X17.448 Y36.669
X17.375 Y36.637
X17.338 Y36.616
X17.302 Y36.589
X16.652 Y36.09
X16.608 Y36.045
X16.572 Y36
X16.135 Y35.43
X16.083 Y35.361
X16.061 Y35.324
X16.045 Y35.288
X15.773 Y34.632
X15.717 Y34.486
X15.695 Y34.34
X15.599 Y33.611
X15.597 Y33.575
X15.6 Y33.538
X15.705 Y32.737
X15.718 Y32.664
X15.746 Y32.591
X16.048 Y31.862
X16.064 Y31.828
X16.084 Y31.795
X16.591 Y31.133
X16.62 Y31.099
X16.655 Y31.066
X17.327 Y30.55
X17.387 Y30.515
X17.654 Y30.404
X18.177 Y30.188
X18.214 Y30.177
X18.25 Y30.17
X19.052 Y30.064
X19.125 Y30.059
X19.198 Y30.066
X20.001 Y30.172
X20.037 Y30.18
X20.073 Y30.193
X20.373 Y30.317
G3 X20.542 Y30.709 I-0.132 J0.289 F1000
G1 X20.512 Y30.755 Z-3.995
X20.483 Y30.799 Z-3.981
X20.456 Y30.84 Z-3.958
X20.412 Y30.863 Z-3.922
X20.376 Y30.883 Z-3.878
X20.347 Y30.899 Z-3.827
X20.328 Y30.909 Z-3.771
X20.318 Y30.914 Z-3.711
X20.317 Y30.915 Z-3.683
G0 Z5
X19.119 Y50.695
Z0.5
G1 Z-4 F330
X19.156 Y50.69 F1400
X19.154 Y50.728
X19.123 Y50.749
X19.086 Y50.743
X19.06 Y50.715
X19.056 Y50.678
X19.069 Y50.643
X19.094 Y50.615
X19.128 Y50.598
X19.165 Y50.596
X19.201 Y50.608
X19.231 Y50.629
X19.254 Y50.659
X19.281 Y50.729
X19.271 Y50.803
X19.23 Y50.866
X19.169 Y50.909
X19.096 Y50.927
X19.021 Y50.919
X18.953 Y50.888
X18.897 Y50.838
X18.817 Y50.711
X18.81 Y50.561
X18.87 Y50.424
X18.981 Y50.322
X19.121 Y50.27
X19.271
X19.413 Y50.318
X19.533 Y50.408
X19.622 Y50.529
X19.673 Y50.67
X19.683 Y50.82
X19.654 Y50.967
X19.588 Y51.102
X19.491 Y51.216
X19.37 Y51.305
X19.232 Y51.363
X19.084 Y51.388
X18.934 Y51.38
X18.789 Y51.344
X18.653 Y51.279
X18.534 Y51.188
X18.433 Y51.077
X18.357 Y50.948
X18.304 Y50.808
X18.277 Y50.66
Y50.51
X18.303 Y50.362
X18.355 Y50.222
X18.428 Y50.091
X18.522 Y49.974
X18.633 Y49.873
X18.759 Y49.792
X18.896 Y49.73
X19.04 Y49.69
X19.189 Y49.672
X19.339 Y49.675
X19.487 Y49.7
X19.63 Y49.746
X19.765 Y49.811
X19.89 Y49.894
X20.002 Y49.993
X20.101 Y50.106
X20.183 Y50.232
X20.249 Y50.367
X20.297 Y50.509
X20.327 Y50.656
X20.337 Y50.805
X20.33 Y50.955
X20.303 Y51.103
X20.26 Y51.246
X20.199 Y51.384
X20.123 Y51.513
X20.031 Y51.632
X19.927 Y51.74
X19.811 Y51.835
X19.685 Y51.916
X19.551 Y51.983
X19.41 Y52.035
X19.264 Y52.071
X19.116 Y52.091
X18.966 Y52.095
X18.816 Y52.083
X18.669 Y52.056
X18.525 Y52.013
X18.386 Y51.956
X18.254 Y51.885
X18.13 Y51.801
X18.015 Y51.704
X17.91 Y51.598
X17.816 Y51.48
X17.734 Y51.355
X17.664 Y51.222
X17.608 Y51.083
X17.565 Y50.939
X17.536 Y50.792
X17.521 Y50.643
Y50.493
X17.534 Y50.343
X17.561 Y50.196
X17.601 Y50.051
X17.654 Y49.911
X17.72 Y49.776
X17.797 Y49.647
X17.885 Y49.526
X17.984 Y49.413
X18.092 Y49.31
X18.209 Y49.216
X18.334 Y49.132
X18.465 Y49.059
X18.602 Y48.998
X18.744 Y48.949
X18.889 Y48.912
X19.037 Y48.887
X19.186 Y48.874
X19.337
X19.486 Y48.885
X19.634 Y48.909
X19.784 Y48.946
X19.926 Y48.994
X20.068 Y49.055
X20.203 Y49.126
X20.331 Y49.207
X20.456 Y49.302
X20.57 Y49.403
X20.68 Y49.517
X20.779 Y49.639
X20.867 Y49.767
X20.948 Y49.908
X21.016 Y50.05
X21.072 Y50.199
X21.118 Y50.358
X21.15 Y50.514
X21.17 Y50.675
X21.177 Y50.843
X21.17 Y51.004
X21.15 Y51.169
X21.117 Y51.336
X21.071 Y51.494
X21.012 Y51.65
X20.938 Y51.807
X20.854 Y51.953
X20.758 Y52.093
X20.648 Y52.229
X20.527 Y52.355
X20.398 Y52.47
X20.259 Y52.575
X20.107 Y52.672
X19.95 Y52.755
X19.789 Y52.824
X19.618 Y52.882
X19.44 Y52.927
X19.261 Y52.957
X19.082 Y52.972
X18.899 Y52.973
X18.712 Y52.959
X18.528 Y52.93
X18.348 Y52.886
X18.172 Y52.829
X17.998 Y52.756
X17.827 Y52.667
X17.665 Y52.567
X17.512 Y52.453
X17.369 Y52.328
X17.234 Y52.19
X17.109 Y52.039
X16.996 Y51.878
X16.897 Y51.709
X16.812 Y51.533
X16.741 Y51.35
X16.684 Y51.159
X16.642 Y50.963
X16.616 Y50.762
X16.606 Y50.56
X16.613 Y50.357
X16.635 Y50.155
X16.674 Y49.955
X16.729 Y49.758
X16.8 Y49.564
X16.888 Y49.375
X16.991 Y49.192
X17.109 Y49.017
X17.241 Y48.852
X17.386 Y48.697
X17.544 Y48.554
X17.714 Y48.424
X17.894 Y48.306
X18.084 Y48.204
X18.283 Y48.116
X18.489 Y48.045
X18.7 Y47.99
X18.918 Y47.952
X19.137 Y47.931
X19.36 Y47.928
X19.583 Y47.943
X19.804 Y47.976
X20.024 Y48.027
X20.24 Y48.096
X20.451 Y48.182
X20.655 Y48.286
X20.851 Y48.406
X21.038 Y48.542
X21.213 Y48.693
X21.377 Y48.858
X21.528 Y49.037
X21.664 Y49.228
X21.785 Y49.43
X21.89 Y49.643
X21.978 Y49.864
X22.048 Y50.092
X22.1 Y50.326
X22.133 Y50.565
X22.147 Y50.806
X22.141 Y51.049
X22.116 Y51.291
X22.072 Y51.532
X22.007 Y51.769
X21.924 Y52.002
X21.822 Y52.228
X21.701 Y52.446
X21.563 Y52.654
X21.407 Y52.852
X21.236 Y53.037
X21.05 Y53.209
X20.849 Y53.366
X20.636 Y53.507
X20.411 Y53.631
X20.176 Y53.737
X19.932 Y53.824
X19.681 Y53.891
X19.424 Y53.938
X19.164 Y53.965
X18.901 Y53.97
X18.637 Y53.955
X18.374 Y53.918
X18.114 Y53.86
X17.858 Y53.781
X17.609 Y53.681
X17.368 Y53.561
X17.136 Y53.422
X16.915 Y53.264
X16.706 Y53.087
X16.512 Y52.895
X16.334 Y52.686
X16.172 Y52.463
X16.028 Y52.227
X15.903 Y51.979
X15.797 Y51.72
X15.712 Y51.452
X15.673 Y51.277
X15.665 Y51.231
X15.629 Y50.96
X15.6 Y50.741
X15.597 Y50.705
X15.598 Y50.668
X15.697 Y49.915
X15.715 Y49.793
X15.771 Y49.648
X16.042 Y48.992
X16.058 Y48.955
X16.08 Y48.919
X16.135 Y48.845
X16.605 Y48.232
X16.646 Y48.19
X16.718 Y48.133
X17.302 Y47.685
X17.338 Y47.659
X17.374 Y47.638
X17.448 Y47.606
X18.177 Y47.304
X18.214 Y47.293
X18.25 Y47.286
X19.052 Y47.18
X19.125 Y47.174
X19.198 Y47.182
X20.001 Y47.288
X20.037 Y47.297
X20.073 Y47.31
X20.803 Y47.612
X20.876 Y47.645
X20.949 Y47.696
X21.532 Y48.144
X21.59 Y48.19
X21.617 Y48.215
X21.639 Y48.241
X22.116 Y48.863
X22.157 Y48.919
X22.224 Y49.065
X22.466 Y49.648
X22.521 Y49.793
X22.542 Y49.939
X22.619 Y50.522
X22.637 Y50.668
X22.639 Y50.705
X22.636 Y50.741
X22.53 Y51.543
X22.516 Y51.616
X22.488 Y51.689
X22.186 Y52.418
X22.173 Y52.445
X22.156 Y52.473
X22.116 Y52.528
X21.641 Y53.147
X21.616 Y53.175
X21.587 Y53.204
X20.949 Y53.694
X20.901 Y53.73
X20.877 Y53.745
X20.852 Y53.758
X20.073 Y54.081
X20.037 Y54.094
X20.001 Y54.103
X19.198 Y54.209
X19.125 Y54.216
X19.052 Y54.21
X18.25 Y54.105
X18.214 Y54.098
X18.177 Y54.087
X17.391 Y53.761
X17.335 Y53.73
X17.144 Y53.584
X16.657 Y53.21
X16.623 Y53.178
X16.596 Y53.147
X16.135 Y52.546
X16.087 Y52.482
X16.066 Y52.45
X16.05 Y52.418
X15.748 Y51.689
X15.721 Y51.616
X15.706 Y51.543
X15.665 Y51.231
X15.663 Y51.201 F1000
Y51.2
G3 X15.92 Y50.889 I0.317
G1 X15.981 Y50.883 Z-3.994
X16.036 Y50.897 Z-3.977
X16.087 Y50.91 Z-3.949
X16.133 Y50.922 Z-3.912
X16.166 Y50.947 Z-3.863
X16.19 Y50.965 Z-3.807
X16.205 Y50.977 Z-3.746
X16.21 Y50.981 Z-3.683
G0 Z5
X19.118 Y67.826
Z0.5
G1 Z-4 F330
X19.083 Y67.84 F1400
X19.076 Y67.804
X19.1 Y67.775
X19.138 Y67.771
X19.169 Y67.791
X19.183 Y67.826
X19.179 Y67.863
X19.163 Y67.897
X19.134 Y67.922
X19.099 Y67.934
X19.062 Y67.932
X19.026 Y67.919
X18.996 Y67.896
X18.953 Y67.835
X18.943 Y67.761
X18.966 Y67.689
X19.015 Y67.632
X19.08 Y67.596
X19.154 Y67.584
X19.228 Y67.597
X19.295 Y67.63
X19.406 Y67.732
X19.451 Y67.875
X19.428 Y68.024
X19.348 Y68.15
X19.226 Y68.237
X19.081 Y68.276
X18.931 Y68.267
X18.792 Y68.21
X18.675 Y68.117
X18.589 Y67.994
X18.541 Y67.851
X18.531 Y67.702
X18.559 Y67.554
X18.623 Y67.419
X18.718 Y67.302
X18.836 Y67.21
X18.972 Y67.148
X19.119 Y67.117
X19.269 Y67.114
X19.417 Y67.141
X19.555 Y67.198
X19.681 Y67.279
X19.789 Y67.384
X19.876 Y67.506
X19.94 Y67.642
X19.979 Y67.787
X19.992 Y67.936
X19.979 Y68.086
X19.942 Y68.231
X19.881 Y68.368
X19.8 Y68.494
X19.699 Y68.605
X19.583 Y68.7
X19.454 Y68.777
X19.315 Y68.833
X19.169 Y68.868
X19.02 Y68.882
X18.87 Y68.875
X18.723 Y68.847
X18.58 Y68.8
X18.446 Y68.733
X18.322 Y68.649
X18.21 Y68.549
X18.111 Y68.436
X18.029 Y68.311
X17.962 Y68.177
X17.913 Y68.035
X17.881 Y67.888
X17.869 Y67.739
X17.873 Y67.589
X17.897 Y67.44
X17.937 Y67.296
X17.994 Y67.157
X18.067 Y67.026
X18.155 Y66.904
X18.255 Y66.793
X18.368 Y66.694
X18.49 Y66.607
X18.622 Y66.535
X18.76 Y66.477
X18.904 Y66.434
X19.051 Y66.407
X19.201 Y66.395
X19.351 Y66.399
X19.499 Y66.418
X19.645 Y66.453
X19.787 Y66.502
X19.923 Y66.565
X20.053 Y66.641
X20.173 Y66.73
X20.285 Y66.83
X20.387 Y66.941
X20.477 Y67.06
X20.556 Y67.188
X20.622 Y67.323
X20.675 Y67.463
X20.714 Y67.608
X20.74 Y67.756
X20.752 Y67.905
X20.751 Y68.055
X20.736 Y68.204
X20.708 Y68.352
X20.666 Y68.496
X20.612 Y68.636
X20.546 Y68.77
X20.468 Y68.898
X20.38 Y69.02
X20.281 Y69.132
X20.173 Y69.237
X20.056 Y69.331
X19.932 Y69.415
X19.802 Y69.489
X19.665 Y69.552
X19.524 Y69.603
X19.379 Y69.642
X19.232 Y69.669
X19.083 Y69.684
X18.929 Y69.687
X18.779 Y69.678
X18.626 Y69.656
X18.477 Y69.622
X18.332 Y69.577
X18.187 Y69.518
X18.051 Y69.45
X17.915 Y69.368
X17.788 Y69.276
X17.67 Y69.175
X17.555 Y69.06
X17.453 Y68.94
X17.36 Y68.811
X17.274 Y68.669
X17.203 Y68.527
X17.142 Y68.376
X17.092 Y68.216
X17.057 Y68.058
X17.033 Y67.894
X17.023 Y67.724
X17.026 Y67.56
X17.042 Y67.393
X17.073 Y67.223
X17.117 Y67.06
X17.173 Y66.9
X17.244 Y66.74
X17.328 Y66.587
X17.423 Y66.443
X17.53 Y66.305
X17.652 Y66.173
X17.782 Y66.052
X17.92 Y65.943
X18.07 Y65.843
X18.23 Y65.754
X18.395 Y65.678
X18.564 Y65.617
X18.741 Y65.569
X18.925 Y65.534
X19.11 Y65.515
X19.295 Y65.51
X19.48 Y65.52
X19.668 Y65.545
X19.855 Y65.587
X20.038 Y65.642
X20.215 Y65.712
X20.385 Y65.796
X20.552 Y65.895
X20.711 Y66.008
X20.862 Y66.134
X21.002 Y66.272
X21.13 Y66.42
X21.245 Y66.578
X21.35 Y66.748
X21.441 Y66.926
X21.518 Y67.113
X21.58 Y67.307
X21.627 Y67.504
X21.657 Y67.705
X21.671 Y67.908
X21.669 Y68.113
X21.65 Y68.319
X21.615 Y68.524
X21.563 Y68.727
X21.494 Y68.926
X21.409 Y69.12
X21.309 Y69.307
X21.193 Y69.487
X21.063 Y69.656
X20.919 Y69.816
X20.762 Y69.964
X20.593 Y70.1
X20.413 Y70.223
X20.222 Y70.331
X20.023 Y70.424
X19.816 Y70.5
X19.602 Y70.561
X19.382 Y70.604
X19.159 Y70.63
X18.934 Y70.637
X18.708 Y70.627
X18.482 Y70.598
X18.258 Y70.551
X18.038 Y70.486
X17.822 Y70.403
X17.613 Y70.302
X17.412 Y70.185
X17.22 Y70.051
X17.039 Y69.902
X16.87 Y69.738
X16.713 Y69.56
X16.571 Y69.369
X16.445 Y69.167
X16.334 Y68.954
X16.24 Y68.732
X16.164 Y68.503
X16.107 Y68.267
X16.069 Y68.026
X16.049 Y67.782
X16.05 Y67.536
X16.07 Y67.29
X16.111 Y67.045
X16.171 Y66.804
X16.25 Y66.566
X16.349 Y66.335
X16.466 Y66.112
X16.602 Y65.898
X16.755 Y65.694
X16.925 Y65.502
X17.11 Y65.325
X17.309 Y65.162
X17.523 Y65.015
X17.748 Y64.884
X17.984 Y64.772
X18.228 Y64.679
X18.481 Y64.606
X18.74 Y64.553
X19.003 Y64.52
X19.27 Y64.509
X19.537 Y64.519
X19.803 Y64.551
X20.067 Y64.604
X20.327 Y64.679
X20.582 Y64.775
X20.829 Y64.891
X21.066 Y65.027
X21.293 Y65.182
X21.507 Y65.355
X21.707 Y65.546
X21.893 Y65.754
X22.061 Y65.976
X22.212 Y66.213
X22.294 Y66.368
X22.314 Y66.411
X22.375 Y66.559
X22.496 Y66.85
X22.521 Y66.923
X22.533 Y66.996
X22.629 Y67.725
X22.637 Y67.798
X22.639 Y67.834
X22.636 Y67.871
X22.54 Y68.6
X22.516 Y68.746
X22.458 Y68.891
X22.186 Y69.547
X22.168 Y69.584
X22.145 Y69.62
X21.632 Y70.289
X21.6 Y70.322
X21.569 Y70.349
X20.949 Y70.825
X20.876 Y70.876
X20.803 Y70.91
X20.073 Y71.212
X20.039 Y71.224
X19.928 Y71.243
X19.198 Y71.339
X19.125 Y71.346
X19.052 Y71.341
X18.323 Y71.245
X18.199 Y71.224
X18.177 Y71.217
X17.841 Y71.078
X17.448 Y70.915
X17.375 Y70.883
X17.338 Y70.863
X17.302 Y70.836
X16.668 Y70.349
X16.613 Y70.298
X16.572 Y70.247
X16.092 Y69.62
X16.069 Y69.584
X16.05 Y69.547
X15.778 Y68.891
X15.721 Y68.746
X15.696 Y68.6
X15.6 Y67.871
X15.598 Y67.834
X15.599 Y67.798
X15.646 Y67.433
X15.704 Y66.996
X15.716 Y66.923
X15.741 Y66.85
X16.043 Y66.121
X16.059 Y66.085
X16.08 Y66.049
X16.135 Y65.975
X16.582 Y65.392
X16.612 Y65.355
X16.65 Y65.317
X17.31 Y64.809
X17.379 Y64.766
X17.448 Y64.736
X18.177 Y64.434
X18.214 Y64.423
X18.25 Y64.416
X19.052 Y64.311
X19.125 Y64.305
X19.198 Y64.313
X20.001 Y64.419
X20.037 Y64.428
X20.073 Y64.44
X20.803 Y64.742
X20.864 Y64.769
X20.895 Y64.787
X20.949 Y64.827
X21.532 Y65.275
X21.594 Y65.324
X21.655 Y65.392
X22.116 Y65.993
X22.163 Y66.057
X22.194 Y66.121
X22.314 Y66.411
G3 X22.156 Y66.807 I-0.297 J0.111 F1000
G1 X22.108 Y66.818 Z-3.996
X22.061 Y66.829 Z-3.984
X22.016 Y66.839 Z-3.965
X21.966 Y66.827 Z-3.931
X21.922 Y66.816 Z-3.888
X21.888 Y66.807 Z-3.836
X21.865 Y66.801 Z-3.779
X21.855 Y66.795 Z-3.731
X21.852 Y66.793 Z-3.683
G0 Z5
X41.98 Y57.156
Z0.5
G1 Z-4 F330
X41.943 Y57.151 F1400
X41.955 Y57.115
X41.99 Y57.103
X42.025 Y57.117
X42.042 Y57.15
X42.037 Y57.188
X42.016 Y57.218
X41.985 Y57.239
X41.948 Y57.247
X41.911 Y57.24
X41.879 Y57.22
X41.855 Y57.191
X41.84 Y57.157
X41.832 Y57.082
X41.86 Y57.013
X41.915 Y56.962
X41.986 Y56.936
X42.061 Y56.937
X42.131 Y56.963
X42.19 Y57.01
X42.231 Y57.072
X42.277 Y57.215
X42.246 Y57.362
X42.154 Y57.48
X42.022 Y57.551
X41.872 Y57.567
X41.727 Y57.529
X41.602 Y57.448
X41.508 Y57.33
X41.452 Y57.191
X41.438 Y57.042
X41.466 Y56.895
X41.53 Y56.759
X41.627 Y56.645
X41.75 Y56.558
X41.889 Y56.503
X42.038 Y56.481
X42.187 Y56.493
X42.33 Y56.538
X42.462 Y56.61
X42.577 Y56.706
X42.67 Y56.824
X42.74 Y56.956
X42.782 Y57.1
X42.798 Y57.249
X42.787 Y57.399
X42.749 Y57.544
X42.688 Y57.681
X42.603 Y57.805
X42.499 Y57.913
X42.379 Y58.003
X42.246 Y58.073
X42.104 Y58.12
X41.956 Y58.146
X41.806 Y58.149
X41.657 Y58.129
X41.513 Y58.089
X41.376 Y58.027
X41.249 Y57.948
X41.135 Y57.851
X41.034 Y57.74
X40.95 Y57.615
X40.883 Y57.481
X40.834 Y57.339
X40.804 Y57.192
X40.793 Y57.043
X40.801 Y56.893
X40.828 Y56.745
X40.873 Y56.602
X40.935 Y56.466
X41.013 Y56.338
X41.106 Y56.22
X41.212 Y56.114
X41.33 Y56.021
X41.458 Y55.943
X41.594 Y55.88
X41.736 Y55.832
X41.883 Y55.801
X42.032 Y55.786
X42.182 Y55.787
X42.331 Y55.805
X42.478 Y55.838
X42.619 Y55.887
X42.755 Y55.95
X42.884 Y56.027
X43.004 Y56.117
X43.114 Y56.219
X43.214 Y56.331
X43.301 Y56.453
X43.376 Y56.583
X43.438 Y56.72
X43.486 Y56.862
X43.52 Y57.008
X43.541 Y57.156
X43.546 Y57.306
X43.537 Y57.456
X43.515 Y57.604
X43.478 Y57.75
X43.428 Y57.891
X43.365 Y58.027
X43.291 Y58.157
X43.204 Y58.28
X43.107 Y58.394
X43 Y58.5
X42.884 Y58.595
X42.76 Y58.68
X42.63 Y58.753
X42.493 Y58.815
X42.352 Y58.865
X42.206 Y58.903
X42.058 Y58.928
X41.909 Y58.94
X41.759
X41.61 Y58.927
X41.462 Y58.903
X41.316 Y58.866
X41.174 Y58.817
X41.037 Y58.757
X40.901 Y58.684
X40.775 Y58.602
X40.653 Y58.508
X40.54 Y58.405
X40.436 Y58.295
X40.338 Y58.172
X40.253 Y58.046
X40.175 Y57.907
X40.11 Y57.765
X40.056 Y57.619
X40.013 Y57.462
X39.983 Y57.308
X39.965 Y57.15
X39.96 Y56.984
X39.968 Y56.825
X39.989 Y56.664
X40.025 Y56.5
X40.071 Y56.345
X40.131 Y56.191
X40.205 Y56.038
X40.289 Y55.896
X40.385 Y55.759
X40.496 Y55.626
X40.614 Y55.505
X40.741 Y55.394
X40.882 Y55.29
X41.03 Y55.197
X41.183 Y55.118
X41.345 Y55.051
X41.515 Y54.995
X41.688 Y54.954
X41.862 Y54.927
X42.042 Y54.913
X42.225 Y54.914
X42.406 Y54.93
X42.583 Y54.96
X42.761 Y55.005
X42.938 Y55.065
X43.109 Y55.138
X43.273 Y55.225
X43.429 Y55.325
X43.58 Y55.439
X43.723 Y55.567
X43.854 Y55.705
X43.974 Y55.853
X44.082 Y56.01
X44.178 Y56.178
X44.261 Y56.355
X44.331 Y56.539
X44.385 Y56.727
X44.423 Y56.919
X44.447 Y57.114
X44.454 Y57.313
X44.446 Y57.513
X44.421 Y57.714
X44.38 Y57.913
X44.324 Y58.107
X44.252 Y58.297
X44.164 Y58.482
X44.062 Y58.659
X43.944 Y58.829
X43.812 Y58.99
X43.667 Y59.141
X43.51 Y59.281
X43.341 Y59.408
X43.161 Y59.522
X42.972 Y59.622
X42.776 Y59.706
X42.572 Y59.774
X42.362 Y59.826
X42.148 Y59.861
X41.931 Y59.879
X41.712 Y59.88
X41.492 Y59.863
X41.274 Y59.828
X41.058 Y59.775
X40.846 Y59.705
X40.639 Y59.618
X40.439 Y59.514
X40.247 Y59.394
X40.065 Y59.257
X39.893 Y59.106
X39.733 Y58.942
X39.586 Y58.763
X39.453 Y58.573
X39.336 Y58.372
X39.235 Y58.161
X39.15 Y57.942
X39.083 Y57.717
X39.035 Y57.484
X39.004 Y57.249
X38.993 Y57.01
X39.001 Y56.77
X39.029 Y56.531
X39.075 Y56.294
X39.141 Y56.06
X39.226 Y55.832
X39.329 Y55.61
X39.451 Y55.396
X39.589 Y55.191
X39.745 Y54.998
X39.916 Y54.817
X40.102 Y54.649
X40.301 Y54.496
X40.513 Y54.36
X40.736 Y54.24
X40.97 Y54.138
X41.212 Y54.054
X41.46 Y53.991
X41.714 Y53.947
X41.972 Y53.923
X42.232 Y53.92
X42.493 Y53.939
X42.752 Y53.978
X43.008 Y54.038
X43.259 Y54.119
X43.505 Y54.22
X43.742 Y54.341
X43.97 Y54.481
X44.186 Y54.64
X44.39 Y54.816
X44.58 Y55.009
X44.755 Y55.217
X44.913 Y55.44
X45.053 Y55.675
X45.174 Y55.921
X45.275 Y56.177
X45.356 Y56.442
X45.415 Y56.714
X45.453 Y56.991
X45.468 Y57.271
X45.461 Y57.552
X45.431 Y57.832
X45.379 Y58.11
X45.304 Y58.384
X45.207 Y58.653
X45.088 Y58.914
X44.949 Y59.165
X44.788 Y59.406
X44.609 Y59.633
X44.41 Y59.847
X44.195 Y60.044
X43.963 Y60.224
X43.717 Y60.386
X43.458 Y60.528
X43.188 Y60.649
X42.907 Y60.748
X42.619 Y60.825
X42.324 Y60.878
X42.025 Y60.908
X41.723 Y60.914
X41.421 Y60.895
X41.119 Y60.852
X40.822 Y60.785
X40.529 Y60.693
X40.244 Y60.578
X39.968 Y60.441
X39.702 Y60.28
X39.45 Y60.099
X39.212 Y59.897
X38.99 Y59.675
X38.787 Y59.436
X38.602 Y59.18
X38.438 Y58.91
X38.295 Y58.626
X38.176 Y58.33
X38.08 Y58.025
X38.009 Y57.713
X37.963 Y57.394
X37.943 Y57.072
X37.948 Y56.748
X37.98 Y56.424
X38.038 Y56.103
X38.121 Y55.787
X38.23 Y55.477
X38.364 Y55.176
X38.523 Y54.886
X38.704 Y54.608
X38.908 Y54.345
X39.134 Y54.099
X39.379 Y53.87
X39.642 Y53.662
X39.923 Y53.474
X40.219 Y53.309
X40.527 Y53.168
X40.848 Y53.051
X41.178 Y52.961
X41.515 Y52.897
X41.857 Y52.86
X42.202 Y52.851
X42.548 Y52.869
X42.893 Y52.915
X43.233 Y52.989
X43.568 Y53.091
X43.895 Y53.219
X44.211 Y53.374
X44.515 Y53.554
X44.804 Y53.759
X44.904 Y53.843
X44.941 Y53.875
X45.27 Y54.167
X45.311 Y54.206
X45.387 Y54.313
X45.894 Y55.047
X45.916 Y55.082
X45.933 Y55.117
X46.291 Y56.062
X46.301 Y56.099
X46.307 Y56.135
X46.423 Y57.083
X46.429 Y57.156
X46.423 Y57.229
X46.308 Y58.176
X46.301 Y58.213
X46.291 Y58.249
X45.96 Y59.124
X45.933 Y59.194
X45.916 Y59.229
X45.89 Y59.27
X45.387 Y59.998
X45.311 Y60.104
X45.27 Y60.144
X44.581 Y60.755
X44.508 Y60.815
X44.435 Y60.857
X43.706 Y61.24
X43.568 Y61.311
X43.56 Y61.314
X43.414 Y61.353
X42.685 Y61.533
X42.539 Y61.568
X42.393 Y61.574
X41.518
X41.445 Y61.571
X41.372 Y61.556
X40.497 Y61.34
X40.393 Y61.311
X40.351 Y61.29
X39.556 Y60.873
X39.475 Y60.83
X39.444 Y60.809
X39.412 Y60.783
X38.691 Y60.144
X38.639 Y60.09
X38.574 Y59.998
X38.071 Y59.27
X38.038 Y59.216
X38.017 Y59.163
X37.725 Y58.394
X37.67 Y58.249
X37.66 Y58.213
X37.654 Y58.176
X37.539 Y57.229
X37.532 Y57.156
X37.539 Y57.083
X37.654 Y56.135
X37.66 Y56.099
X37.67 Y56.062
X38.017 Y55.148
X38.039 Y55.095
X38.071 Y55.042
X38.6 Y54.275
X38.639 Y54.221
X38.691 Y54.167
X39.412 Y53.528
X39.444 Y53.502
X39.475 Y53.481
X39.834 Y53.292
X40.351 Y53.021
X40.393 Y53.001
X40.497 Y52.971
X41.372 Y52.755
X41.445 Y52.74
X41.518 Y52.737
X42.393
X42.539 Y52.743
X42.831 Y52.814
X43.414 Y52.958
X43.56 Y52.997
X43.568 Y53.001
X43.706 Y53.071
X44.435 Y53.454
X44.508 Y53.496
X44.581 Y53.557
X44.904 Y53.843
G3 X44.936 Y54.268 I-0.219 J0.23 F1000
G1 X44.893 Y54.301 Z-3.995
X44.851 Y54.334 Z-3.981
X44.812 Y54.364 Z-3.958
X44.761 Y54.375 Z-3.92
X44.718 Y54.384 Z-3.872
X44.685 Y54.39 Z-3.816
X44.664 Y54.389 Z-3.751
X44.656 Z-3.683
G0 Z5
X41.98 Y26.547
Z0.5
G1 Z-4 F330
X41.946 Y26.561 F1400
X41.939 Y26.525
X41.963 Y26.496
X42 Y26.492
X42.032 Y26.512
X42.046 Y26.547
X42.042 Y26.584
X42.025 Y26.618
X41.997 Y26.643
X41.962 Y26.655
X41.924 Y26.653
X41.889 Y26.64
X41.859 Y26.617
X41.815 Y26.556
X41.805 Y26.482
X41.829 Y26.41
X41.877 Y26.353
X41.943 Y26.317
X42.017 Y26.305
X42.091 Y26.317
X42.158 Y26.351
X42.268 Y26.453
X42.313 Y26.596
X42.291 Y26.745
X42.211 Y26.871
X42.089 Y26.958
X41.944 Y26.997
X41.794 Y26.987
X41.655 Y26.931
X41.538 Y26.838
X41.452 Y26.715
X41.404 Y26.572
X41.394 Y26.423
X41.422 Y26.275
X41.486 Y26.14
X41.58 Y26.023
X41.699 Y25.931
X41.835 Y25.869
X41.982 Y25.838
X42.132 Y25.835
X42.279 Y25.862
X42.418 Y25.919
X42.544 Y26
X42.652 Y26.105
X42.739 Y26.227
X42.803 Y26.363
X42.841 Y26.508
X42.855 Y26.657
X42.842 Y26.807
X42.805 Y26.952
X42.744 Y27.089
X42.663 Y27.215
X42.562 Y27.326
X42.446 Y27.421
X42.317 Y27.498
X42.178 Y27.554
X42.032 Y27.589
X41.883 Y27.603
X41.733 Y27.596
X41.585 Y27.568
X41.443 Y27.521
X41.309 Y27.454
X41.184 Y27.37
X41.073 Y27.27
X40.974 Y27.157
X40.891 Y27.032
X40.824 Y26.898
X40.776 Y26.756
X40.744 Y26.609
X40.731 Y26.46
X40.736 Y26.31
X40.76 Y26.161
X40.8 Y26.017
X40.857 Y25.878
X40.93 Y25.747
X41.017 Y25.625
X41.118 Y25.514
X41.23 Y25.415
X41.353 Y25.328
X41.484 Y25.256
X41.623 Y25.198
X41.766 Y25.155
X41.914 Y25.128
X42.063 Y25.116
X42.213 Y25.12
X42.362 Y25.139
X42.508 Y25.174
X42.65 Y25.223
X42.786 Y25.286
X42.915 Y25.362
X43.036 Y25.451
X43.148 Y25.551
X43.249 Y25.662
X43.34 Y25.781
X43.418 Y25.909
X43.484 Y26.044
X43.537 Y26.184
X43.577 Y26.329
X43.603 Y26.476
X43.615 Y26.626
X43.614 Y26.776
X43.599 Y26.925
X43.57 Y27.073
X43.529 Y27.217
X43.475 Y27.357
X43.409 Y27.491
X43.331 Y27.619
X43.242 Y27.741
X43.143 Y27.853
X43.036 Y27.958
X42.919 Y28.052
X42.795 Y28.136
X42.664 Y28.21
X42.528 Y28.273
X42.387 Y28.324
X42.242 Y28.363
X42.095 Y28.39
X41.945 Y28.405
X41.791 Y28.408
X41.642 Y28.399
X41.489 Y28.377
X41.34 Y28.343
X41.195 Y28.298
X41.049 Y28.239
X40.913 Y28.171
X40.778 Y28.089
X40.65 Y27.997
X40.532 Y27.896
X40.417 Y27.781
X40.315 Y27.661
X40.222 Y27.532
X40.137 Y27.39
X40.066 Y27.248
X40.005 Y27.097
X39.955 Y26.937
X39.919 Y26.779
X39.896 Y26.615
X39.885 Y26.445
X39.888 Y26.281
X39.905 Y26.114
X39.936 Y25.944
X39.979 Y25.781
X40.036 Y25.621
X40.107 Y25.461
X40.191 Y25.308
X40.285 Y25.164
X40.393 Y25.026
X40.514 Y24.894
X40.644 Y24.773
X40.782 Y24.664
X40.932 Y24.564
X41.093 Y24.475
X41.258 Y24.399
X41.427 Y24.338
X41.604 Y24.29
X41.788 Y24.255
X41.973 Y24.236
X42.158 Y24.231
X42.343 Y24.241
X42.53 Y24.266
X42.718 Y24.307
X42.9 Y24.363
X43.077 Y24.433
X43.248 Y24.517
X43.414 Y24.616
X43.574 Y24.729
X43.725 Y24.855
X43.864 Y24.993
X43.992 Y25.141
X44.108 Y25.299
X44.212 Y25.468
X44.304 Y25.647
X44.381 Y25.834
X44.443 Y26.027
X44.489 Y26.225
X44.52 Y26.426
X44.534 Y26.629
X44.532 Y26.834
X44.513 Y27.04
X44.478 Y27.245
X44.425 Y27.448
X44.357 Y27.647
X44.272 Y27.841
X44.172 Y28.028
X44.056 Y28.208
X43.926 Y28.377
X43.782 Y28.537
X43.625 Y28.685
X43.456 Y28.821
X43.275 Y28.944
X43.085 Y29.052
X42.885 Y29.145
X42.678 Y29.221
X42.464 Y29.282
X42.245 Y29.325
X42.022 Y29.351
X41.797 Y29.358
X41.57 Y29.348
X41.344 Y29.319
X41.12 Y29.272
X40.9 Y29.207
X40.685 Y29.124
X40.476 Y29.023
X40.275 Y28.906
X40.083 Y28.772
X39.902 Y28.623
X39.733 Y28.459
X39.576 Y28.281
X39.434 Y28.09
X39.307 Y27.888
X39.197 Y27.675
X39.103 Y27.453
X39.027 Y27.224
X38.97 Y26.988
X38.931 Y26.747
X38.912 Y26.503
X38.913 Y26.257
X38.933 Y26.011
X38.973 Y25.766
X39.033 Y25.525
X39.113 Y25.287
X39.212 Y25.056
X39.329 Y24.833
X39.465 Y24.619
X39.618 Y24.415
X39.788 Y24.223
X39.973 Y24.046
X40.172 Y23.883
X40.385 Y23.736
X40.61 Y23.605
X40.846 Y23.493
X41.091 Y23.4
X41.344 Y23.327
X41.602 Y23.274
X41.866 Y23.241
X42.132 Y23.23
X42.4 Y23.24
X42.666 Y23.272
X42.93 Y23.325
X43.19 Y23.4
X43.445 Y23.495
X43.692 Y23.612
X43.929 Y23.748
X44.155 Y23.903
X44.37 Y24.076
X44.57 Y24.267
X44.755 Y24.475
X44.924 Y24.697
X45.075 Y24.934
X45.155 Y25.086
X45.175 Y25.129
X45.246 Y25.302
X45.367 Y25.593
X45.379 Y25.63
X45.388 Y25.666
X45.494 Y26.468
X45.501 Y26.541
X45.496 Y26.614
X45.39 Y27.415
X45.383 Y27.452
X45.372 Y27.488
X45.048 Y28.271
X45.019 Y28.324
X44.991 Y28.363
X44.497 Y29.006
X44.466 Y29.04
X44.435 Y29.067
X43.833 Y29.529
X43.769 Y29.577
X43.738 Y29.598
X43.706 Y29.614
X42.977 Y29.916
X42.904 Y29.945
X42.831 Y29.959
X42.028 Y30.064
X41.992 Y30.067
X41.955 Y30.066
X41.809 Y30.048
X41.191 Y29.967
X41.08 Y29.95
X41.044 Y29.94
X40.351 Y29.653
X40.205 Y29.586
X40.129 Y29.529
X39.517 Y29.06
X39.475 Y29.019
X39.418 Y28.946
X38.971 Y28.363
X38.944 Y28.327
X38.923 Y28.291
X38.891 Y28.217
X38.6 Y27.515
X38.59 Y27.488
X38.578 Y27.452
X38.571 Y27.415
X38.466 Y26.614
X38.46 Y26.541
X38.467 Y26.468
X38.573 Y25.666
X38.581 Y25.63
X38.594 Y25.593
X38.896 Y24.864
X38.93 Y24.791
X38.98 Y24.718
X39.427 Y24.135
X39.475 Y24.075
X39.574 Y23.99
X40.144 Y23.552
X40.205 Y23.507
X40.241 Y23.486
X40.642 Y23.32
X40.934 Y23.199
X41.08 Y23.143
X41.226 Y23.122
X41.809 Y23.046
X41.955 Y23.027
X41.992 Y23.026
X42.028 Y23.029
X42.831 Y23.135
X42.867 Y23.14
X42.904 Y23.15
X42.977 Y23.178
X43.706 Y23.48
X43.734 Y23.493
X43.761 Y23.511
X43.852 Y23.579
X44.435 Y24.027
X44.463 Y24.051
X44.491 Y24.081
X44.581 Y24.197
X44.981 Y24.718
X45.019 Y24.769
X45.045 Y24.816
X45.175 Y25.129
G3 X45.017 Y25.525 I-0.297 J0.111 F1000
G1 X44.969 Y25.536 Z-3.996
X44.922 Y25.547 Z-3.984
X44.877 Y25.558 Z-3.965
X44.827 Y25.545 Z-3.931
X44.784 Y25.534 Z-3.888
X44.749 Y25.525 Z-3.836
X44.726 Y25.519 Z-3.779
X44.716 Y25.513 Z-3.731
X44.713 Y25.512 Z-3.683
G0 Z5
X57.445 Y16.344
Z0.5
G1 Z-4 F330
X57.422 Y16.314 F1400
X57.456 Y16.297
X57.49 Y16.314
X57.503 Y16.349
X57.492 Y16.384
X57.462 Y16.407
X57.425 Y16.413
X57.388 Y16.405
X57.357 Y16.385
X57.336 Y16.354
X57.328 Y16.317
X57.332 Y16.279
X57.346 Y16.245
X57.393 Y16.187
X57.463 Y16.158
X57.538 Y16.162
X57.605 Y16.194
X57.657 Y16.248
X57.688 Y16.317
X57.695 Y16.391
X57.68 Y16.465
X57.61 Y16.598
X57.484 Y16.678
X57.335 Y16.695
X57.191 Y16.65
X57.076 Y16.555
X57.001 Y16.425
X56.971 Y16.278
X56.99 Y16.129
X57.05 Y15.991
X57.146 Y15.877
X57.271 Y15.793
X57.413 Y15.745
X57.563 Y15.734
X57.71 Y15.761
X57.847 Y15.822
X57.967 Y15.912
X58.063 Y16.028
X58.131 Y16.161
X58.172 Y16.306
X58.184 Y16.455
X58.165 Y16.604
X58.119 Y16.747
X58.045 Y16.878
X57.95 Y16.994
X57.836 Y17.09
X57.706 Y17.165
X57.565 Y17.217
X57.417 Y17.243
X57.267 Y17.245
X57.119 Y17.221
X56.976 Y17.175
X56.843 Y17.107
X56.721 Y17.02
X56.614 Y16.915
X56.523 Y16.795
X56.452 Y16.663
X56.399 Y16.522
X56.367 Y16.376
X56.356 Y16.226
X56.365 Y16.077
X56.395 Y15.93
X56.444 Y15.788
X56.512 Y15.654
X56.595 Y15.529
X56.695 Y15.417
X56.807 Y15.318
X56.932 Y15.234
X57.065 Y15.165
X57.206 Y15.115
X57.352 Y15.08
X57.501 Y15.065
X57.651 Y15.066
X57.8 Y15.086
X57.946 Y15.122
X58.086 Y15.175
X58.22 Y15.243
X58.344 Y15.326
X58.46 Y15.422
X58.564 Y15.53
X58.655 Y15.649
X58.734 Y15.777
X58.798 Y15.912
X58.848 Y16.054
X58.883 Y16.2
X58.903 Y16.348
X58.908 Y16.498
X58.897 Y16.648
X58.871 Y16.796
X58.831 Y16.94
X58.777 Y17.08
X58.709 Y17.214
X58.628 Y17.34
X58.536 Y17.459
X58.433 Y17.567
X58.32 Y17.666
X58.198 Y17.754
X58.069 Y17.829
X57.933 Y17.893
X57.792 Y17.943
X57.646 Y17.981
X57.498 Y18.005
X57.349 Y18.015
X57.199 Y18.013
X57.05 Y17.997
X56.902 Y17.968
X56.758 Y17.925
X56.619 Y17.871
X56.484 Y17.805
X56.355 Y17.728
X56.234 Y17.64
X56.12 Y17.542
X56.015 Y17.435
X55.92 Y17.319
X55.834 Y17.196
X55.759 Y17.066
X55.694 Y16.931
X55.641 Y16.791
X55.598 Y16.643
X55.568 Y16.496
X55.55 Y16.342
X55.544 Y16.19
X55.55 Y16.038
X55.57 Y15.882
X55.6 Y15.733
X55.645 Y15.581
X55.701 Y15.434
X55.767 Y15.294
X55.849 Y15.153
X55.938 Y15.023
X56.039 Y14.9
X56.153 Y14.781
X56.272 Y14.676
X56.402 Y14.578
X56.544 Y14.488
X56.687 Y14.413
X56.84 Y14.348
X57.001 Y14.294
X57.161 Y14.254
X57.326 Y14.227
X57.498 Y14.213
X57.667 Y14.212
X57.836 Y14.226
X58.009 Y14.253
X58.179 Y14.295
X58.342 Y14.349
X58.504 Y14.417
X58.663 Y14.5
X58.813 Y14.594
X58.954 Y14.699
X59.089 Y14.818
X59.217 Y14.95
X59.332 Y15.09
X59.435 Y15.237
X59.528 Y15.396
X59.609 Y15.564
X59.676 Y15.738
X59.728 Y15.916
X59.766 Y16.097
X59.79 Y16.285
X59.799 Y16.477
X59.793 Y16.667
X59.771 Y16.856
X59.734 Y17.043
X59.681 Y17.229
X59.613 Y17.412
X59.53 Y17.591
X59.434 Y17.761
X59.324 Y17.923
X59.201 Y18.076
X59.064 Y18.221
X58.915 Y18.355
X58.755 Y18.478
X58.584 Y18.588
X58.405 Y18.684
X58.219 Y18.765
X58.026 Y18.831
X57.828 Y18.882
X57.624 Y18.918
X57.417 Y18.936
X57.208 Y18.938
X56.997 Y18.924
X56.788 Y18.892
X56.581 Y18.843
X56.378 Y18.778
X56.18 Y18.697
X55.989 Y18.599
X55.805 Y18.486
X55.63 Y18.357
X55.465 Y18.215
X55.311 Y18.059
X55.17 Y17.89
X55.042 Y17.71
X54.929 Y17.519
X54.83 Y17.318
X54.748 Y17.109
X54.682 Y16.893
X54.634 Y16.672
X54.603 Y16.446
X54.59 Y16.218
X54.596 Y15.989
X54.621 Y15.759
X54.664 Y15.531
X54.725 Y15.307
X54.805 Y15.087
X54.902 Y14.873
X55.017 Y14.667
X55.148 Y14.47
X55.296 Y14.283
X55.458 Y14.109
X55.635 Y13.946
X55.825 Y13.799
X56.027 Y13.666
X56.24 Y13.55
X56.463 Y13.45
X56.693 Y13.369
X56.931 Y13.305
X57.174 Y13.261
X57.421 Y13.237
X57.67 Y13.232
X57.92 Y13.248
X58.169 Y13.283
X58.415 Y13.339
X58.657 Y13.415
X58.893 Y13.51
X59.122 Y13.624
X59.342 Y13.757
X59.551 Y13.908
X59.748 Y14.075
X59.932 Y14.259
X60.101 Y14.458
X60.254 Y14.67
X60.391 Y14.895
X60.509 Y15.132
X60.609 Y15.378
X60.688 Y15.632
X60.748 Y15.893
X60.786 Y16.158
X60.803 Y16.427
X60.798 Y16.698
X60.771 Y16.969
X60.723 Y17.237
X60.653 Y17.502
X60.562 Y17.761
X60.45 Y18.012
X60.317 Y18.255
X60.165 Y18.488
X59.993 Y18.708
X59.804 Y18.915
X59.676 Y19.034
X59.64 Y19.064
X59.49 Y19.179
X59.235 Y19.374
X59.202 Y19.395
X59.169 Y19.411
X58.44 Y19.714
X58.367 Y19.742
X58.294 Y19.756
X57.491 Y19.862
X57.455 Y19.864
X57.419 Y19.863
X57.273 Y19.845
X56.64 Y19.762
X56.543 Y19.747
X56.397 Y19.691
X55.741 Y19.419
X55.704 Y19.403
X55.668 Y19.382
X55.591 Y19.324
X55.02 Y18.887
X54.939 Y18.814
X54.881 Y18.741
X54.434 Y18.158
X54.387 Y18.085
X54.355 Y18.012
X54.063 Y17.309
X54.053 Y17.283
X54.043 Y17.247
X54.036 Y17.21
X53.93 Y16.409
X53.925 Y16.336
X53.932 Y16.263
X54.028 Y15.534
X54.038 Y15.461
X54.047 Y15.425
X54.063 Y15.379
X54.362 Y14.659
X54.395 Y14.586
X54.446 Y14.513
X54.894 Y13.93
X54.939 Y13.873
X54.964 Y13.847
X54.99 Y13.824
X55.612 Y13.347
X55.668 Y13.306
X55.814 Y13.238
X56.397 Y12.997
X56.543 Y12.941
X56.689 Y12.92
X57.273 Y12.843
X57.419 Y12.825
X57.455 Y12.824
X57.491 Y12.826
X58.294 Y12.932
X58.33 Y12.937
X58.367 Y12.947
X58.44 Y12.974
X59.169 Y13.277
X59.224 Y13.306
X59.315 Y13.375
X59.898 Y13.823
X59.927 Y13.848
X59.955 Y13.877
X60.444 Y14.513
X60.482 Y14.565
X60.509 Y14.612
X60.831 Y15.388
X60.844 Y15.425
X60.852 Y15.461
X60.862 Y15.534
X60.958 Y16.263
X60.966 Y16.336
X60.961 Y16.409
X60.855 Y17.21
X60.848 Y17.247
X60.837 Y17.283
X60.717 Y17.575
X60.536 Y18.012
X60.482 Y18.122
X60.457 Y18.158
X59.962 Y18.803
X59.93 Y18.838
X59.898 Y18.865
X59.64 Y19.064
G3 X59.216 Y19.014 I-0.184 J-0.258 F1000
G1 X59.192 Y18.965 Z-3.995
X59.168 Y18.918 Z-3.981
X59.146 Y18.874 Z-3.958
X59.142 Y18.838 Z-3.933
X59.138 Y18.805 Z-3.904
X59.143 Y18.767 Z-3.856
X59.147 Y18.739 Z-3.802
X59.15 Y18.722 Z-3.744
X59.151 Y18.716 Z-3.683
G0 Z5
X57.445 Y36.749
Z0.5
G1 Z-4 F330
X57.431 Y36.715 F1400
X57.468 Y36.708
X57.496 Y36.732
X57.5 Y36.769
X57.48 Y36.801
X57.445 Y36.815
X57.408 Y36.811
X57.374 Y36.794
X57.35 Y36.766
X57.337 Y36.731
X57.34 Y36.693
X57.353 Y36.658
X57.375 Y36.628
X57.436 Y36.585
X57.51 Y36.574
X57.582 Y36.598
X57.639 Y36.646
X57.675 Y36.712
X57.687 Y36.786
X57.675 Y36.86
X57.641 Y36.927
X57.539 Y37.037
X57.396 Y37.082
X57.248 Y37.06
X57.121 Y36.98
X57.034 Y36.858
X56.995 Y36.713
X57.005 Y36.563
X57.061 Y36.424
X57.155 Y36.307
X57.278 Y36.221
X57.42 Y36.173
X57.569 Y36.163
X57.717 Y36.191
X57.852 Y36.255
X57.969 Y36.349
X58.061 Y36.468
X58.124 Y36.604
X58.155 Y36.751
X58.157 Y36.901
X58.13 Y37.048
X58.073 Y37.187
X57.992 Y37.313
X57.887 Y37.421
X57.765 Y37.508
X57.629 Y37.572
X57.485 Y37.61
X57.335 Y37.624
X57.186 Y37.611
X57.04 Y37.574
X56.903 Y37.513
X56.777 Y37.432
X56.666 Y37.331
X56.571 Y37.215
X56.495 Y37.086
X56.438 Y36.947
X56.403 Y36.801
X56.389 Y36.652
X56.396 Y36.502
X56.424 Y36.354
X56.472 Y36.212
X56.539 Y36.078
X56.622 Y35.953
X56.722 Y35.842
X56.835 Y35.743
X56.96 Y35.66
X57.095 Y35.593
X57.237 Y35.545
X57.383 Y35.513
X57.533 Y35.5
X57.683 Y35.505
X57.831 Y35.529
X57.975 Y35.569
X58.114 Y35.626
X58.245 Y35.699
X58.367 Y35.786
X58.478 Y35.887
X58.577 Y35.999
X58.664 Y36.122
X58.736 Y36.253
X58.794 Y36.392
X58.837 Y36.535
X58.864 Y36.683
X58.876 Y36.832
X58.872 Y36.982
X58.853 Y37.131
X58.818 Y37.277
X58.769 Y37.419
X58.706 Y37.555
X58.63 Y37.684
X58.541 Y37.805
X58.441 Y37.917
X58.331 Y38.018
X58.211 Y38.109
X58.083 Y38.187
X57.948 Y38.253
X57.808 Y38.306
X57.663 Y38.346
X57.516 Y38.372
X57.366 Y38.384
X57.216 Y38.383
X57.067 Y38.368
X56.92 Y38.339
X56.776 Y38.298
X56.636 Y38.244
X56.501 Y38.178
X56.373 Y38.1
X56.252 Y38.011
X56.139 Y37.912
X56.035 Y37.805
X55.94 Y37.688
X55.856 Y37.564
X55.782 Y37.433
X55.72 Y37.297
X55.669 Y37.156
X55.629 Y37.011
X55.602 Y36.864
X55.587 Y36.714
X55.584 Y36.56
X55.593 Y36.411
X55.615 Y36.258
X55.649 Y36.109
X55.694 Y35.964
X55.753 Y35.818
X55.821 Y35.682
X55.904 Y35.547
X55.996 Y35.419
X56.096 Y35.301
X56.211 Y35.186
X56.331 Y35.084
X56.46 Y34.991
X56.602 Y34.906
X56.744 Y34.835
X56.895 Y34.774
X57.055 Y34.724
X57.213 Y34.688
X57.377 Y34.665
X57.547 Y34.654
X57.711 Y34.657
X57.878 Y34.674
X58.048 Y34.705
X58.212 Y34.748
X58.371 Y34.805
X58.531 Y34.876
X58.684 Y34.96
X58.828 Y35.054
X58.966 Y35.162
X59.099 Y35.283
X59.22 Y35.413
X59.329 Y35.551
X59.428 Y35.701
X59.518 Y35.862
X59.593 Y36.027
X59.654 Y36.196
X59.702 Y36.373
X59.737 Y36.557
X59.757 Y36.742
X59.761 Y36.927
X59.751 Y37.112
X59.726 Y37.299
X59.685 Y37.487
X59.629 Y37.669
X59.559 Y37.846
X59.475 Y38.017
X59.377 Y38.183
X59.263 Y38.343
X59.137 Y38.494
X58.999 Y38.633
X58.851 Y38.761
X58.693 Y38.877
X58.524 Y38.981
X58.345 Y39.073
X58.158 Y39.15
X57.965 Y39.212
X57.767 Y39.258
X57.566 Y39.289
X57.363 Y39.303
X57.158 Y39.301
X56.952 Y39.282
X56.747 Y39.247
X56.545 Y39.194
X56.345 Y39.126
X56.151 Y39.041
X55.964 Y38.941
X55.785 Y38.825
X55.615 Y38.695
X55.455 Y38.551
X55.307 Y38.394
X55.171 Y38.225
X55.049 Y38.044
X54.941 Y37.854
X54.848 Y37.654
X54.771 Y37.447
X54.71 Y37.233
X54.667 Y37.014
X54.642 Y36.791
X54.634 Y36.566
X54.645 Y36.339
X54.673 Y36.113
X54.72 Y35.889
X54.786 Y35.669
X54.869 Y35.454
X54.969 Y35.245
X55.086 Y35.044
X55.22 Y34.852
X55.369 Y34.671
X55.533 Y34.502
X55.712 Y34.345
X55.902 Y34.203
X56.104 Y34.076
X56.317 Y33.966
X56.539 Y33.872
X56.768 Y33.796
X57.004 Y33.739
X57.245 Y33.7
X57.489 Y33.681
X57.735 Y33.682
X57.981 Y33.702
X58.226 Y33.742
X58.468 Y33.802
X58.705 Y33.882
X58.936 Y33.981
X59.16 Y34.098
X59.374 Y34.234
X59.577 Y34.387
X59.769 Y34.557
X59.946 Y34.742
X60.109 Y34.941
X60.257 Y35.154
X60.387 Y35.379
X60.499 Y35.615
X60.592 Y35.86
X60.665 Y36.113
X60.719 Y36.371
X60.751 Y36.635
X60.762 Y36.901
X60.752 Y37.169
X60.72 Y37.435
X60.667 Y37.699
X60.592 Y37.959
X60.497 Y38.214
X60.381 Y38.461
X60.244 Y38.698
X60.089 Y38.924
X59.916 Y39.139
X59.725 Y39.339
X59.518 Y39.524
X59.295 Y39.693
X59.059 Y39.844
X58.906 Y39.925
X58.863 Y39.944
X58.665 Y40.026
X58.44 Y40.119
X58.367 Y40.147
X58.294 Y40.162
X57.491 Y40.267
X57.455 Y40.27
X57.419 Y40.269
X57.273 Y40.251
X56.671 Y40.172
X56.543 Y40.152
X56.397 Y40.097
X55.741 Y39.825
X55.704 Y39.809
X55.668 Y39.788
X55.596 Y39.734
X55.026 Y39.297
X54.939 Y39.22
X54.884 Y39.151
X54.437 Y38.568
X54.389 Y38.495
X54.355 Y38.419
X54.055 Y37.693
X54.043 Y37.657
X54.036 Y37.62
X53.931 Y36.819
X53.925 Y36.746
X53.932 Y36.673
X54.038 Y35.871
X54.046 Y35.835
X54.058 Y35.798
X54.36 Y35.069
X54.393 Y34.996
X54.443 Y34.923
X54.89 Y34.34
X54.939 Y34.279
X54.987 Y34.232
X55.606 Y33.757
X55.668 Y33.712
X55.814 Y33.644
X56.397 Y33.402
X56.543 Y33.347
X56.733 Y33.32
X57.273 Y33.249
X57.419 Y33.23
X57.455 Y33.229
X57.491 Y33.232
X58.294 Y33.338
X58.33 Y33.343
X58.367 Y33.352
X58.44 Y33.38
X59.169 Y33.682
X59.198 Y33.696
X59.227 Y33.714
X59.315 Y33.781
X59.898 Y34.229
X59.928 Y34.254
X59.957 Y34.284
X60.448 Y34.923
X60.482 Y34.971
X60.51 Y35.02
X60.832 Y35.798
X60.845 Y35.835
X60.853 Y35.871
X60.959 Y36.673
X60.965 Y36.746
X60.96 Y36.819
X60.854 Y37.62
X60.847 Y37.657
X60.836 Y37.693
X60.512 Y38.475
X60.499 Y38.502
X60.482 Y38.528
X60.454 Y38.568
X60.006 Y39.151
X59.959 Y39.211
X59.929 Y39.244
X59.898 Y39.271
X59.295 Y39.734
X59.232 Y39.782
X59.2 Y39.802
X59.169 Y39.817
X58.863 Y39.944
G3 X58.467 Y39.786 I-0.111 J-0.297 F1000
G1 X58.455 Y39.738 Z-3.996
X58.445 Y39.691 Z-3.984
X58.434 Y39.647 Z-3.965
X58.447 Y39.596 Z-3.931
X58.458 Y39.553 Z-3.888
X58.467 Y39.519 Z-3.836
X58.473 Y39.495 Z-3.779
X58.478 Y39.485 Z-3.731
X58.48 Y39.482 Z-3.683
G0 Z5
X68.411 Y57.155
Z0.5
G1 Z-4 F330
X68.381 Y57.134 F1400
X68.408 Y57.108
X68.445 Y57.113
X68.468 Y57.142
X68.469 Y57.18
X68.447 Y57.21
X68.414 Y57.228
X68.376 Y57.232
X68.34 Y57.221
X68.311 Y57.198
X68.292 Y57.166
X68.284 Y57.129
X68.287 Y57.092
X68.314 Y57.022
X68.371 Y56.973
X68.444 Y56.954
X68.518 Y56.964
X68.584 Y56.999
X68.634 Y57.055
X68.664 Y57.124
X68.672 Y57.198
X68.647 Y57.346
X68.551 Y57.462
X68.414 Y57.524
X68.264 Y57.525
X68.125 Y57.47
X68.014 Y57.369
X67.94 Y57.238
X67.912 Y57.091
X67.927 Y56.942
X67.984 Y56.803
X68.077 Y56.685
X68.197 Y56.595
X68.336 Y56.539
X68.485 Y56.519
X68.634 Y56.535
X68.776 Y56.585
X68.902 Y56.665
X69.008 Y56.771
X69.092 Y56.896
X69.149 Y57.035
X69.176 Y57.182
X69.177 Y57.332
X69.147 Y57.479
X69.092 Y57.619
X69.013 Y57.746
X68.912 Y57.857
X68.794 Y57.95
X68.661 Y58.019
X68.519 Y58.068
X68.371 Y58.091
X68.221
X68.073 Y58.067
X67.93 Y58.021
X67.796 Y57.954
X67.673 Y57.868
X67.564 Y57.765
X67.471 Y57.647
X67.396 Y57.517
X67.34 Y57.378
X67.302 Y57.233
X67.286 Y57.084
X67.288 Y56.934
X67.311 Y56.786
X67.353 Y56.641
X67.413 Y56.504
X67.489 Y56.375
X67.582 Y56.257
X67.688 Y56.151
X67.807 Y56.059
X67.935 Y55.982
X68.072 Y55.921
X68.216 Y55.876
X68.363 Y55.849
X68.513 Y55.839
X68.663 Y55.846
X68.811 Y55.87
X68.955 Y55.911
X69.094 Y55.967
X69.226 Y56.038
X69.35 Y56.123
X69.464 Y56.22
X69.567 Y56.329
X69.658 Y56.448
X69.736 Y56.576
X69.801 Y56.712
X69.851 Y56.853
X69.887 Y56.999
X69.908 Y57.147
X69.914 Y57.297
X69.905 Y57.447
X69.882 Y57.595
X69.844 Y57.74
X69.793 Y57.881
X69.728 Y58.017
X69.651 Y58.145
X69.562 Y58.266
X69.462 Y58.378
X69.352 Y58.48
X69.233 Y58.571
X69.106 Y58.652
X68.972 Y58.72
X68.833 Y58.776
X68.69 Y58.819
X68.543 Y58.85
X68.394 Y58.867
X68.244 Y58.872
X68.094 Y58.863
X67.946 Y58.841
X67.8 Y58.807
X67.657 Y58.761
X67.519 Y58.702
X67.386 Y58.633
X67.26 Y58.552
X67.14 Y58.461
X67.029 Y58.361
X66.926 Y58.252
X66.832 Y58.135
X66.746 Y58.007
X66.672 Y57.877
X66.608 Y57.736
X66.555 Y57.593
X66.515 Y57.447
X66.485 Y57.292
X66.469 Y57.141
X66.464 Y56.982
X66.472 Y56.825
X66.492 Y56.672
X66.527 Y56.513
X66.572 Y56.362
X66.63 Y56.214
X66.702 Y56.065
X66.783 Y55.928
X66.877 Y55.795
X66.984 Y55.666
X67.097 Y55.551
X67.222 Y55.442
X67.359 Y55.341
X67.499 Y55.254
X67.648 Y55.178
X67.808 Y55.111
X67.969 Y55.059
X68.133 Y55.02
X68.306 Y54.993
X68.48 Y54.98
X68.653 Y54.981
X68.827 Y54.997
X69.004 Y55.027
X69.176 Y55.07
X69.343 Y55.127
X69.508 Y55.199
X69.67 Y55.285
X69.823 Y55.383
X69.966 Y55.491
X70.102 Y55.614
X70.231 Y55.749
X70.348 Y55.894
X70.453 Y56.047
X70.545 Y56.208
X70.625 Y56.379
X70.693 Y56.559
X70.745 Y56.742
X70.782 Y56.929
X70.805 Y57.118
X70.812 Y57.311
X70.803 Y57.506
X70.779 Y57.702
X70.74 Y57.894
X70.685 Y58.082
X70.615 Y58.265
X70.529 Y58.444
X70.428 Y58.618
X70.313 Y58.784
X70.185 Y58.941
X70.044 Y59.087
X69.892 Y59.222
X69.729 Y59.344
X69.556 Y59.454
X69.373 Y59.55
X69.181 Y59.631
X68.983 Y59.698
X68.778 Y59.748
X68.569 Y59.782
X68.357 Y59.8
X68.144
X67.931 Y59.783
X67.718 Y59.749
X67.509 Y59.698
X67.303 Y59.629
X67.102 Y59.544
X66.908 Y59.443
X66.721 Y59.326
X66.545 Y59.194
X66.378 Y59.047
X66.222 Y58.886
X66.08 Y58.713
X65.951 Y58.527
X65.837 Y58.332
X65.739 Y58.126
X65.656 Y57.913
X65.592 Y57.693
X65.544 Y57.466
X65.515 Y57.236
X65.505 Y57.004
X65.513 Y56.77
X65.54 Y56.537
X65.586 Y56.306
X65.65 Y56.078
X65.733 Y55.855
X65.834 Y55.639
X65.953 Y55.43
X66.088 Y55.231
X66.24 Y55.043
X66.407 Y54.866
X66.588 Y54.703
X66.782 Y54.555
X66.989 Y54.422
X67.207 Y54.305
X67.435 Y54.206
X67.67 Y54.125
X67.913 Y54.063
X68.161 Y54.021
X68.412 Y53.998
X68.665 Y53.996
X68.919 Y54.014
X69.172 Y54.052
X69.422 Y54.111
X69.667 Y54.19
X69.906 Y54.289
X70.138 Y54.408
X70.36 Y54.545
X70.571 Y54.7
X70.77 Y54.872
X70.955 Y55.061
X71.126 Y55.264
X71.28 Y55.482
X71.416 Y55.712
X71.534 Y55.953
X71.633 Y56.203
X71.711 Y56.463
X71.769 Y56.728
X71.806 Y56.999
X71.82 Y57.272
X71.813 Y57.546
X71.783 Y57.82
X71.732 Y58.092
X71.658 Y58.361
X71.563 Y58.623
X71.446 Y58.878
X71.309 Y59.124
X71.153 Y59.358
X70.977 Y59.58
X70.783 Y59.788
X70.573 Y59.981
X70.347 Y60.156
X70.106 Y60.314
X69.852 Y60.453
X69.587 Y60.571
X69.313 Y60.668
X69.03 Y60.742
X68.741 Y60.794
X68.449 Y60.823
X68.153 Y60.828
X67.857 Y60.81
X67.563 Y60.767
X67.272 Y60.701
X66.986 Y60.611
X66.707 Y60.499
X66.437 Y60.363
X66.178 Y60.206
X65.931 Y60.028
X65.699 Y59.83
X65.482 Y59.614
X65.283 Y59.379
X65.103 Y59.129
X64.942 Y58.864
X64.803 Y58.585
X64.687 Y58.296
X64.593 Y57.997
X64.524 Y57.691
X64.479 Y57.378
X64.46 Y57.062
X64.466 Y56.745
X64.497 Y56.428
X64.554 Y56.113
X64.636 Y55.803
X64.744 Y55.5
X64.875 Y55.205
X65.031 Y54.92
X65.209 Y54.649
X65.41 Y54.391
X65.631 Y54.15
X65.871 Y53.926
X66.13 Y53.722
X66.405 Y53.539
X66.695 Y53.377
X66.997 Y53.239
X67.312 Y53.126
X67.635 Y53.038
X67.965 Y52.975
X68.301 Y52.939
X68.639 Y52.931
X68.978 Y52.949
X69.316 Y52.995
X69.65 Y53.068
X69.978 Y53.168
X70.299 Y53.294
X70.609 Y53.447
X70.906 Y53.624
X71.19 Y53.825
X71.457 Y54.049
X71.707 Y54.294
X71.936 Y54.56
X72.144 Y54.844
X72.33 Y55.145
X72.491 Y55.46
X72.538 Y55.576
X72.557 Y55.625
X72.722 Y56.062
X72.736 Y56.116
X72.854 Y57.083
X72.86 Y57.156
X72.854 Y57.229
X72.736 Y58.194
X72.722 Y58.249
X72.391 Y59.124
X72.362 Y59.197
X72.344 Y59.233
X72.321 Y59.27
X71.772 Y60.065
X71.747 Y60.099
X71.715 Y60.132
X70.985 Y60.778
X70.949 Y60.809
X70.912 Y60.833
X70.11 Y61.254
X70 Y61.311
X69.964 Y61.323
X69.527 Y61.431
X69.089 Y61.539
X68.943 Y61.572
X68.797 Y61.574
X67.922
X67.885 Y61.572
X67.849 Y61.567
X67.776 Y61.549
X66.901 Y61.334
X66.823 Y61.311
X66.755 Y61.276
X65.987 Y60.873
X65.88 Y60.813
X65.78 Y60.727
X65.122 Y60.144
X65.084 Y60.108
X65.055 Y60.071
X64.502 Y59.27
X64.479 Y59.233
X64.461 Y59.197
X64.322 Y58.832
X64.129 Y58.323
X64.101 Y58.249
X64.091 Y58.213
X64.085 Y58.176
X63.97 Y57.229
X63.963 Y57.156
X63.97 Y57.083
X64.085 Y56.135
X64.091 Y56.099
X64.101 Y56.062
X64.461 Y55.115
X64.479 Y55.078
X64.502 Y55.042
X65.055 Y54.24
X65.084 Y54.203
X65.122 Y54.167
X65.78 Y53.584
X65.88 Y53.498
X65.987 Y53.438
X66.755 Y53.035
X66.823 Y53.001
X66.901 Y52.977
X67.776 Y52.762
X67.849 Y52.744
X67.885 Y52.739
X67.922 Y52.737
X68.797
X68.943 Y52.74
X69.089 Y52.772
X69.964 Y52.988
X70.001 Y53.001
X70.11 Y53.057
X70.912 Y53.478
X70.949 Y53.503
X70.985 Y53.533
X71.715 Y54.179
X71.747 Y54.213
X71.772 Y54.246
X72.321 Y55.042
X72.345 Y55.078
X72.363 Y55.115
X72.538 Y55.576
G3 X72.368 Y55.967 I-0.301 J0.102 F1000
G1 X72.301 Y55.981 Z-3.992
X72.237 Y55.995 Z-3.97
X72.189 Y55.983 Z-3.94
X72.147 Y55.972 Z-3.902
X72.112 Y55.963 Z-3.856
X72.086 Y55.957 Z-3.805
X72.07 Y55.947 Z-3.745
X72.064 Y55.944 Z-3.683
G0 Z5
X72.909 Y26.547
Z0.5
G1 Z-4 F330
X72.88 Y26.57 F1400
X72.863 Y26.536
X72.88 Y26.502
X72.914 Y26.489
X72.95 Y26.5
X72.972 Y26.53
X72.979 Y26.567
X72.971 Y26.604
X72.95 Y26.635
X72.919 Y26.656
X72.883 Y26.664
X72.845 Y26.66
X72.811 Y26.646
X72.753 Y26.599
X72.724 Y26.529
X72.728 Y26.454
X72.76 Y26.387
X72.814 Y26.335
X72.883 Y26.304
X72.957 Y26.297
X73.031 Y26.312
X73.163 Y26.382
X73.244 Y26.508
X73.261 Y26.657
X73.216 Y26.801
X73.121 Y26.916
X72.991 Y26.991
X72.843 Y27.021
X72.695 Y27.003
X72.557 Y26.942
X72.443 Y26.846
X72.359 Y26.721
X72.311 Y26.579
X72.3 Y26.429
X72.327 Y26.282
X72.387 Y26.145
X72.478 Y26.025
X72.594 Y25.929
X72.727 Y25.861
X72.871 Y25.82
X73.021 Y25.808
X73.17 Y25.827
X73.313 Y25.873
X73.443 Y25.947
X73.559 Y26.042
X73.656 Y26.156
X73.731 Y26.286
X73.783 Y26.427
X73.808 Y26.575
X73.811 Y26.725
X73.787 Y26.873
X73.741 Y27.016
X73.673 Y27.149
X73.585 Y27.271
X73.48 Y27.378
X73.361 Y27.469
X73.229 Y27.54
X73.088 Y27.593
X72.942 Y27.625
X72.792 Y27.636
X72.642 Y27.627
X72.495 Y27.597
X72.354 Y27.548
X72.22 Y27.48
X72.095 Y27.397
X71.983 Y27.297
X71.884 Y27.185
X71.8 Y27.06
X71.731 Y26.927
X71.68 Y26.786
X71.646 Y26.64
X71.631 Y26.491
X71.632 Y26.341
X71.651 Y26.192
X71.687 Y26.046
X71.741 Y25.906
X71.809 Y25.773
X71.892 Y25.648
X71.988 Y25.532
X72.096 Y25.428
X72.215 Y25.337
X72.343 Y25.258
X72.478 Y25.194
X72.619 Y25.144
X72.765 Y25.109
X72.914 Y25.089
X73.064 Y25.084
X73.214 Y25.095
X73.361 Y25.121
X73.506 Y25.161
X73.646 Y25.215
X73.78 Y25.283
X73.906 Y25.363
X74.024 Y25.456
X74.133 Y25.559
X74.232 Y25.672
X74.319 Y25.794
X74.395 Y25.923
X74.459 Y26.059
X74.509 Y26.2
X74.547 Y26.346
X74.57 Y26.494
X74.581 Y26.643
X74.578 Y26.793
X74.562 Y26.942
X74.533 Y27.09
X74.491 Y27.234
X74.437 Y27.373
X74.371 Y27.508
X74.294 Y27.637
X74.206 Y27.758
X74.108 Y27.872
X74.001 Y27.977
X73.885 Y28.072
X73.762 Y28.158
X73.632 Y28.233
X73.497 Y28.298
X73.357 Y28.351
X73.209 Y28.394
X73.062 Y28.424
X72.908 Y28.442
X72.755 Y28.448
X72.604 Y28.442
X72.448 Y28.422
X72.299 Y28.392
X72.147 Y28.347
X72 Y28.291
X71.86 Y28.225
X71.719 Y28.144
X71.589 Y28.054
X71.466 Y27.953
X71.347 Y27.839
X71.241 Y27.72
X71.144 Y27.59
X71.054 Y27.448
X70.979 Y27.305
X70.914 Y27.153
X70.86 Y26.991
X70.82 Y26.831
X70.793 Y26.666
X70.779 Y26.494
X70.778 Y26.325
X70.791 Y26.156
X70.819 Y25.983
X70.86 Y25.813
X70.914 Y25.65
X70.983 Y25.489
X71.065 Y25.329
X71.16 Y25.179
X71.265 Y25.038
X71.384 Y24.903
X71.516 Y24.775
X71.656 Y24.66
X71.803 Y24.557
X71.962 Y24.464
X72.13 Y24.383
X72.304 Y24.316
X72.482 Y24.264
X72.663 Y24.226
X72.851 Y24.202
X73.042 Y24.193
X73.233 Y24.199
X73.422 Y24.221
X73.609 Y24.258
X73.795 Y24.31
X73.978 Y24.379
X74.157 Y24.462
X74.327 Y24.558
X74.489 Y24.668
X74.642 Y24.791
X74.786 Y24.928
X74.921 Y25.077
X75.044 Y25.237
X75.154 Y25.408
X75.25 Y25.587
X75.331 Y25.773
X75.397 Y25.966
X75.448 Y26.164
X75.483 Y26.368
X75.502 Y26.575
X75.504 Y26.784
X75.49 Y26.995
X75.458 Y27.204
X75.409 Y27.411
X75.344 Y27.614
X75.262 Y27.812
X75.165 Y28.003
X75.052 Y28.187
X74.923 Y28.362
X74.781 Y28.527
X74.625 Y28.68
X74.456 Y28.822
X74.276 Y28.95
X74.085 Y29.063
X73.884 Y29.162
X73.675 Y29.244
X73.459 Y29.31
X73.238 Y29.358
X73.013 Y29.389
X72.784 Y29.402
X72.555 Y29.396
X72.325 Y29.371
X72.097 Y29.328
X71.873 Y29.267
X71.653 Y29.187
X71.439 Y29.09
X71.233 Y28.975
X71.036 Y28.844
X70.849 Y28.697
X70.675 Y28.534
X70.512 Y28.357
X70.365 Y28.167
X70.232 Y27.965
X70.115 Y27.752
X70.016 Y27.529
X69.934 Y27.299
X69.871 Y27.061
X69.827 Y26.818
X69.803 Y26.571
X69.798 Y26.322
X69.814 Y26.072
X69.849 Y25.823
X69.905 Y25.577
X69.98 Y25.335
X70.076 Y25.099
X70.19 Y24.87
X70.323 Y24.651
X70.473 Y24.442
X70.641 Y24.244
X70.825 Y24.06
X71.024 Y23.891
X71.236 Y23.738
X71.461 Y23.601
X71.697 Y23.483
X71.943 Y23.383
X72.198 Y23.304
X72.459 Y23.244
X72.724 Y23.206
X72.993 Y23.189
X73.264 Y23.194
X73.534 Y23.221
X73.803 Y23.269
X74.067 Y23.339
X74.326 Y23.43
X74.578 Y23.542
X74.821 Y23.675
X75.054 Y23.827
X75.274 Y23.999
X75.481 Y24.188
X75.6 Y24.316
X75.629 Y24.352
X75.799 Y24.573
X75.911 Y24.718
X75.945 Y24.765
X75.974 Y24.815
X76.296 Y25.593
X76.309 Y25.63
X76.318 Y25.666
X76.423 Y26.468
X76.43 Y26.541
X76.425 Y26.614
X76.319 Y27.415
X76.312 Y27.452
X76.301 Y27.488
X76.12 Y27.926
X75.976 Y28.273
X75.963 Y28.301
X75.945 Y28.329
X75.92 Y28.363
X75.425 Y29.008
X75.393 Y29.041
X75.362 Y29.069
X74.762 Y29.529
X74.697 Y29.578
X74.665 Y29.599
X74.632 Y29.615
X73.903 Y29.917
X73.83 Y29.945
X73.757 Y29.959
X72.955 Y30.065
X72.918 Y30.067
X72.882 Y30.066
X72.59 Y30.028
X72.12 Y29.967
X72.006 Y29.95
X71.861 Y29.894
X71.204 Y29.622
X71.168 Y29.606
X71.131 Y29.584
X71.058 Y29.529
X70.488 Y29.092
X70.445 Y29.058
X70.402 Y29.015
X70.347 Y28.946
X69.9 Y28.363
X69.873 Y28.327
X69.852 Y28.29
X69.818 Y28.212
X69.527 Y27.508
X69.519 Y27.488
X69.508 Y27.452
X69.5 Y27.415
X69.395 Y26.614
X69.39 Y26.541
X69.396 Y26.468
X69.502 Y25.666
X69.51 Y25.63
X69.527 Y25.586
X69.825 Y24.864
X69.858 Y24.791
X69.909 Y24.718
X70.357 Y24.135
X70.402 Y24.078
X70.453 Y24.029
X71.074 Y23.552
X71.131 Y23.509
X71.168 Y23.489
X71.204 Y23.472
X71.861 Y23.2
X72.006 Y23.144
X72.152 Y23.123
X72.736 Y23.046
X72.882 Y23.028
X72.918 Y23.026
X72.955 Y23.029
X73.757 Y23.135
X73.83 Y23.149
X73.903 Y23.177
X74.632 Y23.479
X74.689 Y23.51
X74.778 Y23.577
X75.362 Y24.025
X75.39 Y24.049
X75.419 Y24.08
X75.463 Y24.135
X75.629 Y24.352
G3 X75.58 Y24.776 I-0.258 J0.184 F1000
G1 X75.531 Y24.8 Z-3.995
X75.484 Y24.824 Z-3.981
X75.44 Y24.846 Z-3.958
X75.404 Y24.85 Z-3.933
X75.371 Y24.854 Z-3.904
X75.333 Y24.849 Z-3.856
X75.305 Y24.845 Z-3.802
X75.288 Y24.842 Z-3.744
X75.282 Y24.841 Z-3.683
G0 Z5
X94.843 Y57.155
Z0.5
G1 Z-4 F330
X94.873 Y57.134 F1400
X94.888 Y57.169
X94.87 Y57.202
X94.835 Y57.213
X94.799 Y57.2
X94.779 Y57.169
X94.774 Y57.132
X94.784 Y57.096
X94.806 Y57.066
X94.838 Y57.046
X94.875 Y57.041
X94.912 Y57.046
X94.946 Y57.062
X95.002 Y57.112
X95.027 Y57.183
X95.019 Y57.257
X94.984 Y57.323
X94.927 Y57.372
X94.857 Y57.399
X94.782 Y57.403
X94.71 Y57.384
X94.581 Y57.308
X94.507 Y57.177
X94.497 Y57.028
X94.549 Y56.887
X94.65 Y56.776
X94.784 Y56.708
X94.932 Y56.686
X95.08 Y56.712
X95.214 Y56.779
X95.324 Y56.881
X95.401 Y57.01
X95.442 Y57.154
X95.445 Y57.304
X95.411 Y57.45
X95.343 Y57.584
X95.247 Y57.699
X95.127 Y57.789
X94.99 Y57.85
X94.844 Y57.884
X94.694 Y57.888
X94.546 Y57.861
X94.406 Y57.808
X94.279 Y57.728
X94.168 Y57.627
X94.077 Y57.508
X94.009 Y57.374
X93.964 Y57.231
X93.946 Y57.082
X93.951 Y56.932
X93.982 Y56.786
X94.035 Y56.645
X94.11 Y56.515
X94.204 Y56.398
X94.314 Y56.297
X94.439 Y56.212
X94.574 Y56.147
X94.717 Y56.102
X94.865 Y56.078
X95.015 Y56.074
X95.164 Y56.091
X95.309 Y56.128
X95.448 Y56.184
X95.579 Y56.258
X95.699 Y56.348
X95.806 Y56.453
X95.899 Y56.571
X95.977 Y56.699
X96.038 Y56.836
X96.082 Y56.979
X96.109 Y57.127
X96.117 Y57.277
X96.108 Y57.426
X96.081 Y57.574
X96.038 Y57.718
X95.977 Y57.855
X95.902 Y57.985
X95.813 Y58.105
X95.711 Y58.216
X95.598 Y58.314
X95.475 Y58.4
X95.343 Y58.471
X95.205 Y58.529
X95.061 Y58.572
X94.914 Y58.6
X94.764 Y58.612
X94.614 Y58.609
X94.465 Y58.59
X94.319 Y58.557
X94.177 Y58.51
X94.04 Y58.448
X93.91 Y58.374
X93.787 Y58.287
X93.674 Y58.189
X93.57 Y58.081
X93.478 Y57.963
X93.396 Y57.837
X93.327 Y57.704
X93.271 Y57.565
X93.228 Y57.421
X93.197 Y57.274
X93.181 Y57.125
X93.178 Y56.975
X93.188 Y56.825
X93.212 Y56.677
X93.248 Y56.532
X93.297 Y56.39
X93.358 Y56.253
X93.431 Y56.122
X93.515 Y55.997
X93.609 Y55.881
X93.713 Y55.772
X93.825 Y55.673
X93.945 Y55.583
X94.073 Y55.504
X94.206 Y55.435
X94.345 Y55.377
X94.487 Y55.331
X94.637 Y55.296
X94.785 Y55.273
X94.94 Y55.263
X95.092 Y55.265
X95.243 Y55.279
X95.398 Y55.306
X95.546 Y55.344
X95.695 Y55.396
X95.839 Y55.459
X95.976 Y55.533
X96.112 Y55.621
X96.237 Y55.717
X96.355 Y55.824
X96.468 Y55.945
X96.568 Y56.069
X96.659 Y56.204
X96.741 Y56.35
X96.809 Y56.497
X96.866 Y56.652
X96.912 Y56.816
X96.944 Y56.977
X96.963 Y57.144
X96.968 Y57.317
X96.96 Y57.486
X96.938 Y57.653
X96.902 Y57.825
X96.852 Y57.992
X96.79 Y58.152
X96.713 Y58.31
X96.623 Y58.465
X96.521 Y58.61
X96.408 Y58.746
X96.283 Y58.875
X96.145 Y58.996
X95.999 Y59.104
X95.847 Y59.199
X95.684 Y59.284
X95.511 Y59.356
X95.335 Y59.414
X95.154 Y59.457
X94.971 Y59.486
X94.783 Y59.501
X94.591 Y59.5
X94.401 Y59.484
X94.213 Y59.453
X94.028 Y59.406
X93.845 Y59.345
X93.665 Y59.267
X93.491 Y59.175
X93.326 Y59.07
X93.17 Y58.952
X93.024 Y58.822
X92.886 Y58.678
X92.759 Y58.522
X92.645 Y58.356
X92.544 Y58.18
X92.457 Y57.996
X92.385 Y57.806
X92.328 Y57.61
X92.288 Y57.41
X92.263 Y57.204
X92.255 Y56.997
X92.263 Y56.787
X92.288 Y56.578
X92.331 Y56.371
X92.39 Y56.166
X92.465 Y55.967
X92.557 Y55.774
X92.664 Y55.587
X92.786 Y55.409
X92.923 Y55.241
X93.074 Y55.084
X93.237 Y54.938
X93.413 Y54.805
X93.6 Y54.687
X93.796 Y54.583
X94.002 Y54.495
X94.214 Y54.423
X94.433 Y54.368
X94.656 Y54.331
X94.883 Y54.312
X95.112 Y54.311
X95.341 Y54.329
X95.569 Y54.365
X95.795 Y54.419
X96.015 Y54.492
X96.231 Y54.582
X96.44 Y54.69
X96.639 Y54.815
X96.83 Y54.957
X97.009 Y55.113
X97.175 Y55.284
X97.328 Y55.469
X97.466 Y55.666
X97.588 Y55.875
X97.694 Y56.094
X97.782 Y56.321
X97.852 Y56.555
X97.903 Y56.796
X97.935 Y57.041
X97.946 Y57.289
X97.938 Y57.538
X97.91 Y57.787
X97.862 Y58.033
X97.794 Y58.276
X97.706 Y58.514
X97.599 Y58.745
X97.474 Y58.968
X97.33 Y59.18
X97.169 Y59.382
X96.991 Y59.57
X96.799 Y59.745
X96.591 Y59.904
X96.372 Y60.046
X96.14 Y60.171
X95.898 Y60.277
X95.647 Y60.364
X95.389 Y60.431
X95.126 Y60.477
X94.859 Y60.502
X94.589 Y60.505
X94.319 Y60.486
X94.05 Y60.446
X93.784 Y60.384
X93.524 Y60.301
X93.27 Y60.197
X93.024 Y60.072
X92.788 Y59.927
X92.564 Y59.763
X92.352 Y59.581
X92.155 Y59.382
X91.974 Y59.166
X91.81 Y58.937
X91.665 Y58.694
X91.539 Y58.439
X91.434 Y58.174
X91.35 Y57.9
X91.288 Y57.619
X91.249 Y57.332
X91.232 Y57.043
X91.239 Y56.752
X91.27 Y56.461
X91.323 Y56.173
X91.4 Y55.889
X91.5 Y55.611
X91.623 Y55.341
X91.767 Y55.081
X91.932 Y54.832
X92.117 Y54.596
X92.322 Y54.376
X92.544 Y54.171
X92.783 Y53.985
X93.037 Y53.817
X93.304 Y53.67
X93.584 Y53.545
X93.874 Y53.442
X94.172 Y53.362
X94.477 Y53.306
X94.786 Y53.275
X95.098 Y53.268
X95.411 Y53.287
X95.722 Y53.331
X96.03 Y53.4
X96.332 Y53.494
X96.627 Y53.612
X96.912 Y53.754
X97.186 Y53.919
X97.447 Y54.106
X97.692 Y54.314
X97.921 Y54.542
X98.132 Y54.788
X98.322 Y55.051
X98.492 Y55.33
X98.639 Y55.622
X98.763 Y55.926
X98.862 Y56.241
X98.936 Y56.563
X98.984 Y56.891
X99.005 Y57.223
X99 Y57.557
X98.968 Y57.891
X98.909 Y58.222
X98.823 Y58.548
X98.711 Y58.868
X98.574 Y59.178
X98.411 Y59.478
X98.224 Y59.764
X98.014 Y60.035
X97.782 Y60.29
X97.53 Y60.526
X97.259 Y60.741
X96.97 Y60.935
X96.666 Y61.106
X96.348 Y61.252
X96.018 Y61.372
X95.679 Y61.466
X95.332 Y61.532
X94.98 Y61.571
X94.858 Y61.574
X94.764
X94.472
X94.326 Y61.573
X94.18 Y61.543
X93.305 Y61.327
X93.254 Y61.311
X93.159 Y61.262
X92.351 Y60.838
X92.317 Y60.817
X92.284 Y60.792
X91.553 Y60.144
X91.515 Y60.108
X91.486 Y60.071
X90.933 Y59.27
X90.91 Y59.233
X90.892 Y59.197
X90.753 Y58.832
X90.532 Y58.249
X90.522 Y58.213
X90.516 Y58.176
X90.401 Y57.229
X90.394 Y57.156
X90.401 Y57.083
X90.516 Y56.135
X90.522 Y56.099
X90.533 Y56.059
X90.891 Y55.115
X90.909 Y55.078
X90.933 Y55.042
X91.486 Y54.24
X91.515 Y54.203
X91.554 Y54.166
X92.284 Y53.52
X92.317 Y53.493
X92.351 Y53.473
X93.159 Y53.049
X93.254 Y53.001
X93.305 Y52.984
X94.18 Y52.768
X94.326 Y52.738
X94.618 Y52.737
X95.347
X95.384 Y52.741
X95.42 Y52.747
X96.368 Y52.981
X96.429 Y53.001
X96.514 Y53.043
X97.328 Y53.47
X97.389 Y53.51
X98.132 Y54.167
X98.17 Y54.203
X98.199 Y54.24
X98.752 Y55.042
X98.775 Y55.078
X98.793 Y55.115
X99.153 Y56.062
X99.163 Y56.099
X99.17 Y56.135
X99.286 Y57.097
X99.29 Y57.156
X99.286 Y57.214
X99.17 Y58.176
X99.163 Y58.213
X99.153 Y58.249
X99.098 Y58.395
X98.821 Y59.124
X98.793 Y59.197
X98.752 Y59.27
X98.199 Y60.071
X98.17 Y60.108
X98.119 Y60.156
X97.389 Y60.802
X97.359 Y60.823
X97.328 Y60.841
X96.514 Y61.268
X96.431 Y61.311
X96.368 Y61.33
X95.42 Y61.564
X95.384 Y61.57
X95.347 Y61.574
X94.858
G3 X94.552 Y61.276 I0.011 J-0.317 F1000
G1 Y61.257 Z-3.999
X94.565 Y61.203 Z-3.991
X94.578 Y61.152 Z-3.973
X94.59 Y61.105 Z-3.946
X94.621 Y61.069 Z-3.906
X94.647 Y61.04 Z-3.858
X94.666 Y61.018 Z-3.803
X94.677 Y61.005 Z-3.744
X94.681 Y61.001 Z-3.683
G0 Z5
X94.846 Y16.344
Z0.5
G1 Z-4 F330
X94.831 Y16.309 F1400
X94.868 Y16.302
X94.897 Y16.326
X94.901 Y16.364
X94.881 Y16.395
X94.846 Y16.409
X94.808 Y16.406
X94.775 Y16.389
X94.75 Y16.361
X94.738 Y16.325
X94.74 Y16.288
X94.753 Y16.253
X94.776 Y16.223
X94.837 Y16.179
X94.911 Y16.169
X94.982 Y16.192
X95.04 Y16.241
X95.076 Y16.307
X95.087 Y16.381
X95.075 Y16.455
X95.042 Y16.522
X94.94 Y16.632
X94.797 Y16.677
X94.648 Y16.655
X94.522 Y16.574
X94.435 Y16.452
X94.396 Y16.307
X94.405 Y16.157
X94.462 Y16.018
X94.555 Y15.901
X94.678 Y15.816
X94.82 Y15.767
X94.97 Y15.757
X95.117 Y15.785
X95.253 Y15.849
X95.37 Y15.944
X95.462 Y16.062
X95.524 Y16.199
X95.555 Y16.345
X95.558 Y16.495
X95.531 Y16.643
X95.474 Y16.782
X95.392 Y16.908
X95.288 Y17.015
X95.166 Y17.102
X95.03 Y17.166
X94.885 Y17.205
X94.736 Y17.218
X94.586 Y17.205
X94.441 Y17.168
X94.304 Y17.107
X94.178 Y17.026
X94.066 Y16.925
X93.971 Y16.809
X93.895 Y16.68
X93.839 Y16.541
X93.804 Y16.395
X93.79 Y16.246
X93.797 Y16.096
X93.825 Y15.949
X93.872 Y15.806
X93.939 Y15.672
X94.023 Y15.548
X94.123 Y15.436
X94.236 Y15.337
X94.361 Y15.255
X94.495 Y15.188
X94.637 Y15.139
X94.784 Y15.107
X94.933 Y15.095
X95.083 Y15.1
X95.231 Y15.123
X95.376 Y15.163
X95.515 Y15.22
X95.646 Y15.293
X95.768 Y15.381
X95.879 Y15.481
X95.978 Y15.594
X96.065 Y15.716
X96.137 Y15.848
X96.195 Y15.986
X96.238 Y16.13
X96.265 Y16.277
X96.277 Y16.427
X96.273 Y16.577
X96.253 Y16.726
X96.219 Y16.872
X96.17 Y17.013
X96.107 Y17.149
X96.031 Y17.279
X95.942 Y17.4
X95.842 Y17.511
X95.731 Y17.613
X95.612 Y17.703
X95.484 Y17.782
X95.349 Y17.848
X95.209 Y17.901
X95.064 Y17.94
X94.916 Y17.966
X94.767 Y17.979
X94.617 Y17.977
X94.468 Y17.962
X94.32 Y17.934
X94.176 Y17.892
X94.036 Y17.838
X93.902 Y17.772
X93.773 Y17.694
X93.652 Y17.606
X93.539 Y17.507
X93.435 Y17.399
X93.341 Y17.282
X93.256 Y17.158
X93.183 Y17.028
X93.12 Y16.891
X93.069 Y16.75
X93.03 Y16.605
X93.003 Y16.458
X92.988 Y16.309
X92.985 Y16.155
X92.994 Y16.005
X93.016 Y15.852
X93.05 Y15.703
X93.095 Y15.559
X93.154 Y15.413
X93.222 Y15.277
X93.304 Y15.141
X93.396 Y15.014
X93.497 Y14.896
X93.612 Y14.781
X93.732 Y14.679
X93.861 Y14.586
X94.003 Y14.5
X94.145 Y14.429
X94.296 Y14.368
X94.456 Y14.318
X94.614 Y14.283
X94.778 Y14.259
X94.948 Y14.249
X95.112 Y14.252
X95.279 Y14.268
X95.449 Y14.299
X95.612 Y14.343
X95.772 Y14.399
X95.932 Y14.471
X96.085 Y14.554
X96.229 Y14.649
X96.367 Y14.757
X96.499 Y14.878
X96.62 Y15.008
X96.729 Y15.146
X96.829 Y15.296
X96.918 Y15.456
X96.994 Y15.621
X97.055 Y15.79
X97.103 Y15.967
X97.138 Y16.151
X97.157 Y16.336
X97.162 Y16.521
X97.152 Y16.706
X97.126 Y16.894
X97.085 Y17.081
X97.03 Y17.264
X96.96 Y17.441
X96.876 Y17.612
X96.777 Y17.778
X96.664 Y17.937
X96.537 Y18.088
X96.4 Y18.228
X96.252 Y18.356
X96.094 Y18.472
X95.924 Y18.576
X95.745 Y18.667
X95.559 Y18.744
X95.365 Y18.806
X95.168 Y18.853
X94.967 Y18.883
X94.764 Y18.897
X94.559 Y18.895
X94.353 Y18.876
X94.148 Y18.841
X93.945 Y18.789
X93.746 Y18.72
X93.552 Y18.635
X93.365 Y18.535
X93.185 Y18.419
X93.015 Y18.289
X92.856 Y18.145
X92.707 Y17.988
X92.572 Y17.819
X92.449 Y17.639
X92.341 Y17.449
X92.248 Y17.249
X92.171 Y17.042
X92.111 Y16.828
X92.068 Y16.608
X92.042 Y16.386
X92.035 Y16.16
X92.045 Y15.934
X92.074 Y15.708
X92.121 Y15.484
X92.186 Y15.264
X92.269 Y15.048
X92.37 Y14.839
X92.487 Y14.639
X92.621 Y14.446
X92.77 Y14.265
X92.934 Y14.096
X93.112 Y13.94
X93.303 Y13.798
X93.505 Y13.671
X93.718 Y13.56
X93.94 Y13.466
X94.169 Y13.391
X94.405 Y13.333
X94.646 Y13.295
X94.89 Y13.276
X95.136
X95.382 Y13.297
X95.627 Y13.337
X95.868 Y13.397
X96.106 Y13.476
X96.337 Y13.575
X96.56 Y13.693
X96.774 Y13.828
X96.978 Y13.981
X97.169 Y14.151
X97.347 Y14.336
X97.51 Y14.536
X97.657 Y14.749
X97.787 Y14.974
X97.9 Y15.21
X97.993 Y15.455
X98.066 Y15.707
X98.119 Y15.966
X98.152 Y16.229
X98.163 Y16.496
X98.153 Y16.763
X98.121 Y17.029
X98.068 Y17.293
X97.993 Y17.554
X97.897 Y17.808
X97.781 Y18.055
X97.645 Y18.293
X97.49 Y18.519
X97.317 Y18.733
X97.126 Y18.933
X96.918 Y19.119
X96.695 Y19.288
X96.459 Y19.438
X96.308 Y19.518
X96.265 Y19.538
X96.077 Y19.616
X95.785 Y19.736
X95.751 Y19.746
X95.718 Y19.753
X94.909 Y19.859
X94.873 Y19.864
X94.837
X94.764 Y19.857
X94.034 Y19.761
X93.961 Y19.75
X93.925 Y19.742
X93.888 Y19.729
X93.159 Y19.427
X93.086 Y19.393
X93.013 Y19.341
X92.381 Y18.856
X92.341 Y18.815
X92.282 Y18.741
X91.834 Y18.158
X91.807 Y18.122
X91.786 Y18.085
X91.695 Y17.867
X91.514 Y17.429
X91.454 Y17.283
X91.443 Y17.247
X91.436 Y17.21
X91.331 Y16.409
X91.326 Y16.336
X91.333 Y16.263
X91.439 Y15.461
X91.448 Y15.425
X91.46 Y15.388
X91.762 Y14.659
X91.795 Y14.587
X91.847 Y14.513
X92.294 Y13.93
X92.349 Y13.862
X92.43 Y13.795
X93.013 Y13.347
X93.086 Y13.295
X93.159 Y13.261
X93.888 Y12.959
X93.925 Y12.946
X93.961 Y12.937
X94.18 Y12.908
X94.764 Y12.831
X94.837 Y12.824
X94.873
X95.055 Y12.848
X95.712 Y12.934
X95.748 Y12.941
X95.785 Y12.952
X96.077 Y13.072
X96.514 Y13.253
X96.587 Y13.284
X96.624 Y13.306
X96.679 Y13.347
X97.249 Y13.785
X97.319 Y13.84
X97.359 Y13.88
X97.845 Y14.513
X97.897 Y14.586
X97.93 Y14.659
X98.232 Y15.388
X98.245 Y15.425
X98.253 Y15.461
X98.282 Y15.68
X98.359 Y16.263
X98.366 Y16.336
X98.361 Y16.409
X98.255 Y17.213
X98.248 Y17.248
X98.238 Y17.283
X98.118 Y17.575
X97.936 Y18.012
X97.906 Y18.085
X97.885 Y18.122
X97.827 Y18.198
X97.389 Y18.768
X97.341 Y18.828
X97.271 Y18.887
X96.66 Y19.356
X96.624 Y19.382
X96.587 Y19.403
X96.368 Y19.495
X96.265 Y19.538
G3 X95.869 Y19.38 I-0.111 J-0.297 F1000
G1 X95.858 Y19.332 Z-3.996
X95.847 Y19.285 Z-3.984
X95.836 Y19.24 Z-3.965
X95.849 Y19.19 Z-3.931
X95.86 Y19.146 Z-3.888
X95.869 Y19.112 Z-3.836
X95.875 Y19.089 Z-3.779
X95.881 Y19.079 Z-3.731
X95.882 Y19.076 Z-3.683
G0 Z5
X94.846 Y36.75
Z0.5
G1 Z-4 F330
X94.832 Y36.715 F1400
X94.868 Y36.708
X94.897 Y36.732
X94.901 Y36.769
X94.881 Y36.801
X94.846 Y36.815
X94.809 Y36.811
X94.775 Y36.795
X94.75 Y36.766
X94.738 Y36.731
X94.74 Y36.693
X94.753 Y36.658
X94.776 Y36.628
X94.837 Y36.585
X94.911 Y36.575
X94.983 Y36.598
X95.04 Y36.647
X95.076 Y36.712
X95.088 Y36.786
X95.076 Y36.86
X95.042 Y36.927
X94.94 Y37.038
X94.797 Y37.083
X94.649 Y37.06
X94.522 Y36.98
X94.435 Y36.858
X94.396 Y36.713
X94.406 Y36.563
X94.462 Y36.424
X94.555 Y36.307
X94.679 Y36.221
X94.821 Y36.173
X94.97 Y36.163
X95.118 Y36.191
X95.253 Y36.255
X95.37 Y36.35
X95.462 Y36.468
X95.525 Y36.604
X95.555 Y36.751
X95.558 Y36.901
X95.531 Y37.048
X95.474 Y37.187
X95.393 Y37.313
X95.288 Y37.421
X95.166 Y37.508
X95.03 Y37.572
X94.885 Y37.611
X94.736 Y37.624
X94.587 Y37.611
X94.441 Y37.574
X94.304 Y37.513
X94.178 Y37.432
X94.067 Y37.331
X93.972 Y37.215
X93.895 Y37.086
X93.839 Y36.947
X93.804 Y36.801
X93.79 Y36.652
X93.797 Y36.502
X93.825 Y36.355
X93.872 Y36.212
X93.94 Y36.078
X94.023 Y35.954
X94.123 Y35.842
X94.236 Y35.743
X94.361 Y35.66
X94.496 Y35.594
X94.637 Y35.545
X94.784 Y35.513
X94.934 Y35.501
X95.083 Y35.505
X95.232 Y35.529
X95.376 Y35.569
X95.515 Y35.626
X95.646 Y35.699
X95.768 Y35.786
X95.879 Y35.887
X95.978 Y36
X96.065 Y36.122
X96.137 Y36.254
X96.195 Y36.392
X96.238 Y36.536
X96.265 Y36.683
X96.277 Y36.833
X96.273 Y36.983
X96.254 Y37.131
X96.219 Y37.277
X96.17 Y37.419
X96.107 Y37.555
X96.031 Y37.684
X95.942 Y37.805
X95.842 Y37.917
X95.731 Y38.019
X95.612 Y38.109
X95.484 Y38.187
X95.349 Y38.253
X95.209 Y38.307
X95.064 Y38.346
X94.917 Y38.372
X94.767 Y38.384
X94.617 Y38.383
X94.468 Y38.368
X94.321 Y38.34
X94.176 Y38.298
X94.036 Y38.244
X93.902 Y38.178
X93.774 Y38.1
X93.652 Y38.011
X93.54 Y37.913
X93.435 Y37.805
X93.341 Y37.688
X93.257 Y37.564
X93.183 Y37.434
X93.121 Y37.297
X93.069 Y37.156
X93.03 Y37.011
X93.003 Y36.864
X92.988 Y36.714
X92.985 Y36.561
X92.994 Y36.411
X93.016 Y36.258
X93.05 Y36.109
X93.095 Y35.964
X93.154 Y35.819
X93.222 Y35.682
X93.305 Y35.547
X93.397 Y35.419
X93.497 Y35.302
X93.612 Y35.187
X93.732 Y35.085
X93.861 Y34.992
X94.003 Y34.906
X94.145 Y34.835
X94.296 Y34.774
X94.456 Y34.724
X94.614 Y34.688
X94.778 Y34.665
X94.948 Y34.655
X95.112 Y34.658
X95.279 Y34.674
X95.449 Y34.705
X95.612 Y34.748
X95.772 Y34.805
X95.932 Y34.876
X96.085 Y34.96
X96.229 Y35.055
X96.367 Y35.162
X96.499 Y35.283
X96.62 Y35.414
X96.729 Y35.552
X96.829 Y35.702
X96.918 Y35.862
X96.994 Y36.027
X97.055 Y36.196
X97.103 Y36.373
X97.138 Y36.557
X97.157 Y36.742
X97.162 Y36.927
X97.152 Y37.112
X97.127 Y37.3
X97.086 Y37.487
X97.03 Y37.669
X96.96 Y37.847
X96.876 Y38.017
X96.777 Y38.183
X96.664 Y38.343
X96.538 Y38.494
X96.4 Y38.633
X96.252 Y38.762
X96.094 Y38.877
X95.925 Y38.982
X95.746 Y39.073
X95.559 Y39.15
X95.366 Y39.212
X95.168 Y39.258
X94.967 Y39.289
X94.764 Y39.303
X94.559 Y39.301
X94.353 Y39.282
X94.148 Y39.247
X93.945 Y39.195
X93.746 Y39.126
X93.552 Y39.041
X93.365 Y38.941
X93.185 Y38.825
X93.016 Y38.695
X92.856 Y38.551
X92.708 Y38.394
X92.572 Y38.225
X92.449 Y38.045
X92.341 Y37.854
X92.248 Y37.654
X92.172 Y37.447
X92.111 Y37.233
X92.068 Y37.014
X92.043 Y36.791
X92.035 Y36.566
X92.045 Y36.34
X92.074 Y36.114
X92.121 Y35.89
X92.186 Y35.67
X92.27 Y35.454
X92.37 Y35.245
X92.487 Y35.044
X92.621 Y34.852
X92.77 Y34.671
X92.934 Y34.502
X93.113 Y34.345
X93.303 Y34.203
X93.505 Y34.077
X93.718 Y33.966
X93.94 Y33.872
X94.169 Y33.796
X94.405 Y33.739
X94.646 Y33.7
X94.89 Y33.681
X95.136 Y33.682
X95.382 Y33.702
X95.627 Y33.742
X95.869 Y33.802
X96.106 Y33.882
X96.337 Y33.981
X96.561 Y34.098
X96.775 Y34.234
X96.978 Y34.387
X97.17 Y34.557
X97.347 Y34.742
X97.51 Y34.941
X97.657 Y35.154
X97.788 Y35.38
X97.9 Y35.616
X97.993 Y35.86
X98.066 Y36.113
X98.12 Y36.372
X98.152 Y36.635
X98.163 Y36.902
X98.153 Y37.169
X98.121 Y37.435
X98.068 Y37.699
X97.993 Y37.959
X97.898 Y38.214
X97.781 Y38.461
X97.645 Y38.698
X97.49 Y38.925
X97.317 Y39.139
X97.126 Y39.339
X96.918 Y39.524
X96.696 Y39.693
X96.459 Y39.844
X96.309 Y39.924
X96.266 Y39.943
X96.077 Y40.022
X95.785 Y40.142
X95.748 Y40.153
X95.712 Y40.16
X94.909 Y40.265
X94.873 Y40.269
X94.837 Y40.27
X94.764 Y40.263
X93.961 Y40.157
X93.925 Y40.148
X93.888 Y40.135
X93.159 Y39.832
X93.086 Y39.799
X93.013 Y39.747
X92.427 Y39.297
X92.343 Y39.224
X92.284 Y39.149
X91.838 Y38.568
X91.81 Y38.532
X91.789 Y38.495
X91.757 Y38.422
X91.456 Y37.693
X91.444 Y37.657
X91.437 Y37.62
X91.331 Y36.819
X91.326 Y36.746
X91.332 Y36.673
X91.438 Y35.871
X91.447 Y35.835
X91.459 Y35.798
X91.761 Y35.069
X91.793 Y34.996
X91.846 Y34.92
X92.291 Y34.34
X92.348 Y34.27
X92.437 Y34.194
X93.013 Y33.753
X93.086 Y33.701
X93.159 Y33.667
X93.888 Y33.365
X93.925 Y33.352
X93.961 Y33.343
X94.18 Y33.314
X94.764 Y33.237
X94.837 Y33.23
X94.873
X95.055 Y33.253
X95.712 Y33.34
X95.748 Y33.347
X95.785 Y33.358
X96.077 Y33.478
X96.514 Y33.659
X96.587 Y33.691
X96.624 Y33.711
X96.685 Y33.757
X97.255 Y34.194
X97.322 Y34.248
X97.36 Y34.287
X97.848 Y34.923
X97.899 Y34.996
X97.931 Y35.069
X98.233 Y35.798
X98.246 Y35.835
X98.254 Y35.871
X98.36 Y36.673
X98.366 Y36.746
X98.361 Y36.819
X98.255 Y37.621
X98.248 Y37.657
X98.236 Y37.693
X97.935 Y38.422
X97.903 Y38.495
X97.882 Y38.532
X97.362 Y39.21
X97.327 Y39.246
X97.265 Y39.297
X96.66 Y39.761
X96.624 Y39.788
X96.587 Y39.809
X96.368 Y39.901
X96.266 Y39.943
G3 X95.869 Y39.785 I-0.111 J-0.297 F1000
G1 X95.858 Y39.737 Z-3.996
X95.847 Y39.69 Z-3.984
X95.837 Y39.646 Z-3.965
X95.85 Y39.595 Z-3.931
X95.861 Y39.552 Z-3.888
X95.87 Y39.518 Z-3.836
X95.876 Y39.494 Z-3.779
X95.881 Y39.484 Z-3.731
X95.883 Y39.481 Z-3.683
G0 Z5
X120.733 Y16.344
Z0.5
G1 Z-4 F330
X120.756 Y16.314 F1400
X120.781 Y16.342
X120.774 Y16.379
X120.744 Y16.401
X120.706 Y16.4
X120.677 Y16.376
X120.661 Y16.342
X120.659 Y16.305
X120.671 Y16.269
X120.696 Y16.241
X120.729 Y16.224
X120.766 Y16.218
X120.803 Y16.222
X120.872 Y16.253
X120.918 Y16.313
X120.933 Y16.386
X120.92 Y16.46
X120.881 Y16.524
X120.822 Y16.571
X120.752 Y16.598
X120.677 Y16.602
X120.531 Y16.569
X120.421 Y16.468
X120.366 Y16.328
X120.372 Y16.178
X120.434 Y16.042
X120.54 Y15.936
X120.675 Y15.869
X120.823 Y15.848
X120.971 Y15.871
X121.107 Y15.935
X121.22 Y16.034
X121.303 Y16.158
X121.353 Y16.3
X121.365 Y16.449
X121.342 Y16.597
X121.285 Y16.736
X121.198 Y16.859
X121.087 Y16.959
X120.958 Y17.036
X120.817 Y17.086
X120.668 Y17.106
X120.518 Y17.099
X120.373 Y17.062
X120.236 Y17
X120.113 Y16.914
X120.007 Y16.808
X119.921 Y16.685
X119.858 Y16.549
X119.817 Y16.405
X119.801 Y16.256
X119.809 Y16.106
X119.84 Y15.959
X119.893 Y15.819
X119.967 Y15.688
X120.059 Y15.57
X120.168 Y15.467
X120.29 Y15.38
X120.423 Y15.311
X120.565 Y15.262
X120.712 Y15.232
X120.862 Y15.223
X121.012 Y15.233
X121.158 Y15.264
X121.3 Y15.312
X121.434 Y15.379
X121.559 Y15.462
X121.673 Y15.561
X121.773 Y15.672
X121.859 Y15.795
X121.93 Y15.927
X121.983 Y16.067
X122.021 Y16.213
X122.041 Y16.361
X122.043 Y16.511
X122.028 Y16.661
X121.997 Y16.807
X121.949 Y16.949
X121.886 Y17.086
X121.808 Y17.214
X121.718 Y17.333
X121.614 Y17.442
X121.5 Y17.539
X121.377 Y17.624
X121.245 Y17.696
X121.106 Y17.754
X120.963 Y17.797
X120.815 Y17.825
X120.666 Y17.838
X120.516 Y17.837
X120.367 Y17.821
X120.22 Y17.79
X120.077 Y17.745
X119.939 Y17.687
X119.807 Y17.615
X119.682 Y17.531
X119.566 Y17.436
X119.46 Y17.331
X119.363 Y17.216
X119.278 Y17.092
X119.204 Y16.962
X119.143 Y16.825
X119.094 Y16.683
X119.058 Y16.538
X119.035 Y16.389
X119.024 Y16.24
X119.028 Y16.09
X119.044 Y15.941
X119.073 Y15.794
X119.114 Y15.649
X119.168 Y15.509
X119.233 Y15.374
X119.31 Y15.245
X119.397 Y15.123
X119.493 Y15.008
X119.599 Y14.902
X119.713 Y14.804
X119.835 Y14.717
X119.967 Y14.637
X120.101 Y14.57
X120.245 Y14.513
X120.39 Y14.468
X120.538 Y14.435
X120.694 Y14.413
X120.846 Y14.404
X121.005 Y14.407
X121.161 Y14.423
X121.313 Y14.451
X121.47 Y14.494
X121.619 Y14.547
X121.764 Y14.612
X121.909 Y14.692
X122.041 Y14.78
X122.169 Y14.88
X122.293 Y14.994
X122.403 Y15.112
X122.505 Y15.243
X122.599 Y15.385
X122.678 Y15.529
X122.747 Y15.681
X122.806 Y15.844
X122.85 Y16.007
X122.881 Y16.174
X122.899 Y16.348
X122.903 Y16.522
X122.893 Y16.694
X122.869 Y16.868
X122.83 Y17.043
X122.777 Y17.213
X122.712 Y17.376
X122.632 Y17.538
X122.538 Y17.695
X122.433 Y17.843
X122.317 Y17.98
X122.188 Y18.11
X122.046 Y18.232
X121.896 Y18.342
X121.737 Y18.439
X121.572 Y18.522
X121.397 Y18.594
X121.214 Y18.652
X121.028 Y18.695
X120.84 Y18.723
X120.65 Y18.736
X120.457 Y18.733
X120.262 Y18.715
X120.068 Y18.681
X119.879 Y18.632
X119.694 Y18.567
X119.514 Y18.488
X119.339 Y18.394
X119.171 Y18.284
X119.011 Y18.161
X118.86 Y18.025
X118.721 Y17.877
X118.595 Y17.718
X118.481 Y17.549
X118.38 Y17.371
X118.294 Y17.183
X118.222 Y16.987
X118.166 Y16.786
X118.125 Y16.579
X118.102 Y16.368
X118.095 Y16.156
X118.106 Y15.943
X118.133 Y15.731
X118.178 Y15.52
X118.24 Y15.314
X118.319 Y15.111
X118.414 Y14.915
X118.525 Y14.727
X118.651 Y14.546
X118.792 Y14.376
X118.947 Y14.217
X119.116 Y14.07
X119.296 Y13.936
X119.488 Y13.817
X119.689 Y13.713
X119.899 Y13.625
X120.116 Y13.554
X120.339 Y13.5
X120.568 Y13.465
X120.799 Y13.447
X121.031 Y13.448
X121.265 Y13.468
X121.496 Y13.507
X121.724 Y13.564
X121.949 Y13.641
X122.167 Y13.735
X122.378 Y13.846
X122.581 Y13.975
X122.773 Y14.121
X122.953 Y14.281
X123.121 Y14.457
X123.274 Y14.646
X123.413 Y14.848
X123.535 Y15.061
X123.641 Y15.285
X123.728 Y15.517
X123.797 Y15.756
X123.847 Y16.002
X123.877 Y16.251
X123.887 Y16.503
X123.876 Y16.757
X123.845 Y17.009
X123.794 Y17.26
X123.723 Y17.507
X123.631 Y17.747
X123.52 Y17.981
X123.39 Y18.207
X123.242 Y18.422
X123.077 Y18.625
X122.895 Y18.814
X122.697 Y18.99
X122.485 Y19.15
X122.26 Y19.293
X122.023 Y19.417
X121.777 Y19.523
X121.522 Y19.609
X121.259 Y19.674
X120.99 Y19.719
X120.718 Y19.741
X120.445 Y19.742
X120.171 Y19.721
X119.899 Y19.678
X119.63 Y19.613
X119.366 Y19.526
X119.108 Y19.417
X118.86 Y19.288
X118.714 Y19.196
X118.676 Y19.169
X118.542 Y19.066
X118.308 Y18.887
X118.25 Y18.84
X118.169 Y18.741
X117.722 Y18.158
X117.69 Y18.114
X117.667 Y18.069
X117.375 Y17.365
X117.342 Y17.283
X117.331 Y17.247
X117.324 Y17.21
X117.218 Y16.409
X117.212 Y16.336
X117.22 Y16.263
X117.316 Y15.534
X117.327 Y15.461
X117.335 Y15.425
X117.348 Y15.388
X117.667 Y14.619
X117.695 Y14.566
X117.734 Y14.513
X118.181 Y13.93
X118.25 Y13.849
X118.33 Y13.785
X118.9 Y13.347
X118.98 Y13.291
X119.125 Y13.229
X119.782 Y12.957
X119.818 Y12.944
X119.855 Y12.936
X120.438 Y12.859
X120.584 Y12.84
X120.73 Y12.823
X120.876 Y12.839
X121.605 Y12.935
X121.642 Y12.943
X121.678 Y12.954
X122.335 Y13.226
X122.481 Y13.288
X122.567 Y13.347
X123.137 Y13.785
X123.21 Y13.842
X123.285 Y13.93
X123.767 Y14.559
X123.794 Y14.604
X123.817 Y14.659
X124.119 Y15.388
X124.132 Y15.425
X124.141 Y15.461
X124.246 Y16.263
X124.253 Y16.336
X124.248 Y16.409
X124.143 Y17.21
X124.136 Y17.247
X124.126 Y17.283
X123.824 Y18.012
X123.794 Y18.082
X123.773 Y18.12
X123.745 Y18.158
X123.258 Y18.793
X123.236 Y18.819
X123.21 Y18.845
X123.158 Y18.887
X122.588 Y19.324
X122.481 Y19.4
X122.315 Y19.47
X121.678 Y19.734
X121.642 Y19.746
X121.605 Y19.753
X120.876 Y19.849
X120.73 Y19.864
X120.584 Y19.848
X119.855 Y19.752
X119.818 Y19.743
X119.782 Y19.731
X119.125 Y19.459
X118.98 Y19.396
X118.879 Y19.324
X118.676 Y19.169
G3 X118.614 Y18.747 I0.202 J-0.245 F1000
G1 X118.655 Y18.711 Z-3.995
X118.694 Y18.675 Z-3.981
X118.731 Y18.642 Z-3.958
X118.783 Y18.63 Z-3.918
X118.826 Y18.619 Z-3.869
X118.858 Y18.611 Z-3.811
X118.878 Y18.606 Z-3.748
X118.885 Z-3.683
G0 Z5
X120.734 Y36.75
Z0.5
G1 Z-4 F330
X120.757 Y36.78 F1400
X120.723 Y36.796
X120.689 Y36.78
X120.675 Y36.745
X120.687 Y36.71
X120.717 Y36.687
X120.754 Y36.681
X120.791 Y36.688
X120.822 Y36.709
X120.843 Y36.74
X120.85 Y36.777
X120.847 Y36.814
X120.833 Y36.849
X120.785 Y36.907
X120.716 Y36.936
X120.641 Y36.932
X120.573 Y36.9
X120.521 Y36.846
X120.491 Y36.777
X120.483 Y36.703
X120.499 Y36.629
X120.568 Y36.496
X120.695 Y36.416
X120.844 Y36.399
X120.987 Y36.444
X121.103 Y36.539
X121.178 Y36.669
X121.207 Y36.816
X121.189 Y36.965
X121.129 Y37.102
X121.032 Y37.217
X120.908 Y37.3
X120.766 Y37.349
X120.616 Y37.36
X120.468 Y37.333
X120.331 Y37.272
X120.212 Y37.182
X120.116 Y37.066
X120.048 Y36.933
X120.006 Y36.788
X119.995 Y36.639
X120.014 Y36.49
X120.06 Y36.347
X120.133 Y36.216
X120.228 Y36.1
X120.343 Y36.004
X120.473 Y35.929
X120.614 Y35.877
X120.761 Y35.851
X120.911 Y35.849
X121.059 Y35.873
X121.202 Y35.918
X121.336 Y35.987
X121.458 Y36.074
X121.565 Y36.179
X121.655 Y36.299
X121.727 Y36.431
X121.779 Y36.571
X121.811 Y36.718
X121.822 Y36.867
X121.813 Y37.017
X121.783 Y37.164
X121.735 Y37.306
X121.667 Y37.44
X121.583 Y37.564
X121.484 Y37.677
X121.372 Y37.776
X121.247 Y37.86
X121.114 Y37.928
X120.973 Y37.979
X120.827 Y38.014
X120.677 Y38.029
X120.527 Y38.028
X120.379 Y38.008
X120.233 Y37.972
X120.093 Y37.919
X119.959 Y37.851
X119.834 Y37.768
X119.719 Y37.672
X119.615 Y37.564
X119.523 Y37.445
X119.445 Y37.317
X119.38 Y37.182
X119.33 Y37.041
X119.295 Y36.895
X119.275 Y36.746
X119.271 Y36.596
X119.281 Y36.446
X119.307 Y36.299
X119.347 Y36.154
X119.402 Y36.014
X119.469 Y35.88
X119.55 Y35.754
X119.642 Y35.635
X119.745 Y35.527
X119.858 Y35.428
X119.98 Y35.34
X120.109 Y35.265
X120.245 Y35.201
X120.387 Y35.151
X120.532 Y35.113
X120.68 Y35.089
X120.83 Y35.078
X120.98 Y35.081
X121.129 Y35.097
X121.276 Y35.126
X121.42 Y35.168
X121.56 Y35.222
X121.694 Y35.289
X121.823 Y35.366
X121.944 Y35.454
X122.058 Y35.552
X122.163 Y35.659
X122.259 Y35.775
X122.344 Y35.897
X122.42 Y36.027
X122.484 Y36.163
X122.538 Y36.303
X122.58 Y36.451
X122.61 Y36.598
X122.629 Y36.751
X122.635 Y36.904
X122.628 Y37.055
X122.609 Y37.211
X122.578 Y37.36
X122.534 Y37.513
X122.478 Y37.66
X122.412 Y37.799
X122.33 Y37.94
X122.241 Y38.07
X122.14 Y38.193
X122.026 Y38.312
X121.907 Y38.418
X121.776 Y38.516
X121.635 Y38.606
X121.492 Y38.681
X121.34 Y38.746
X121.178 Y38.8
X121.018 Y38.84
X120.853 Y38.867
X120.681 Y38.881
X120.512 Y38.882
X120.343 Y38.868
X120.17 Y38.841
X120 Y38.799
X119.837 Y38.745
X119.675 Y38.677
X119.516 Y38.595
X119.366 Y38.5
X119.225 Y38.395
X119.089 Y38.276
X118.962 Y38.144
X118.846 Y38.004
X118.744 Y37.857
X118.651 Y37.699
X118.57 Y37.53
X118.503 Y37.356
X118.451 Y37.179
X118.412 Y36.997
X118.388 Y36.81
X118.38 Y36.618
X118.386 Y36.427
X118.408 Y36.238
X118.444 Y36.052
X118.497 Y35.866
X118.565 Y35.682
X118.648 Y35.504
X118.745 Y35.333
X118.855 Y35.171
X118.977 Y35.018
X119.114 Y34.874
X119.263 Y34.739
X119.424 Y34.616
X119.594 Y34.506
X119.773 Y34.41
X119.959 Y34.329
X120.152 Y34.263
X120.35 Y34.212
X120.554 Y34.176
X120.761 Y34.158
X120.97 Y34.155
X121.181 Y34.17
X121.39 Y34.202
X121.597 Y34.25
X121.8 Y34.316
X121.998 Y34.397
X122.19 Y34.495
X122.373 Y34.608
X122.548 Y34.736
X122.713 Y34.879
X122.867 Y35.035
X123.008 Y35.204
X123.136 Y35.384
X123.25 Y35.575
X123.348 Y35.775
X123.431 Y35.984
X123.497 Y36.2
X123.545 Y36.421
X123.576 Y36.647
X123.588 Y36.875
X123.582 Y37.105
X123.558 Y37.334
X123.515 Y37.562
X123.454 Y37.786
X123.374 Y38.007
X123.277 Y38.22
X123.162 Y38.426
X123.031 Y38.623
X122.883 Y38.81
X122.721 Y38.985
X122.544 Y39.147
X122.354 Y39.295
X122.152 Y39.427
X121.939 Y39.544
X121.716 Y39.644
X121.486 Y39.725
X121.248 Y39.788
X121.005 Y39.832
X120.758 Y39.857
X120.509 Y39.862
X120.259 Y39.846
X120.01 Y39.811
X119.764 Y39.755
X119.522 Y39.68
X119.286 Y39.584
X119.057 Y39.47
X118.838 Y39.337
X118.629 Y39.187
X118.431 Y39.019
X118.247 Y38.835
X118.078 Y38.636
X117.925 Y38.424
X117.788 Y38.199
X117.67 Y37.963
X117.57 Y37.717
X117.49 Y37.462
X117.431 Y37.202
X117.393 Y36.936
X117.376 Y36.667
X117.381 Y36.397
X117.407 Y36.126
X117.455 Y35.857
X117.525 Y35.593
X117.616 Y35.334
X117.729 Y35.082
X117.861 Y34.839
X118.014 Y34.607
X118.185 Y34.386
X118.374 Y34.179
X118.504 Y34.059
X118.54 Y34.029
X118.688 Y33.916
X118.895 Y33.757
X118.98 Y33.697
X119.125 Y33.634
X119.782 Y33.362
X119.818 Y33.35
X119.855 Y33.342
X120.438 Y33.265
X120.584 Y33.246
X120.73 Y33.229
X120.876 Y33.245
X121.605 Y33.341
X121.642 Y33.349
X121.678 Y33.36
X122.335 Y33.632
X122.481 Y33.693
X122.526 Y33.722
X123.142 Y34.194
X123.21 Y34.248
X123.288 Y34.34
X123.768 Y34.966
X123.794 Y35.009
X123.879 Y35.215
X124.121 Y35.798
X124.133 Y35.835
X124.141 Y35.871
X124.247 Y36.673
X124.253 Y36.746
X124.248 Y36.819
X124.143 Y37.62
X124.135 Y37.657
X124.124 Y37.693
X123.822 Y38.422
X123.794 Y38.489
X123.742 Y38.568
X123.256 Y39.201
X123.235 Y39.226
X123.21 Y39.251
X123.153 Y39.297
X122.583 Y39.734
X122.481 Y39.806
X122.306 Y39.88
X121.678 Y40.139
X121.642 Y40.151
X121.605 Y40.159
X120.876 Y40.255
X120.73 Y40.27
X120.584 Y40.254
X119.855 Y40.157
X119.818 Y40.149
X119.782 Y40.137
X119.125 Y39.865
X118.98 Y39.802
X118.884 Y39.734
X118.314 Y39.297
X118.25 Y39.245
X118.172 Y39.151
X117.725 Y38.568
X117.691 Y38.521
X117.667 Y38.475
X117.343 Y37.693
X117.331 Y37.657
X117.324 Y37.62
X117.218 Y36.819
X117.212 Y36.746
X117.219 Y36.673
X117.325 Y35.871
X117.334 Y35.835
X117.346 Y35.798
X117.667 Y35.025
X117.694 Y34.974
X117.731 Y34.923
X118.178 Y34.34
X118.25 Y34.255
X118.324 Y34.194
X118.54 Y34.029
G3 X118.964 Y34.079 I0.184 J0.259 F1000
G1 X118.988 Y34.127 Z-3.995
X119.012 Y34.174 Z-3.981
X119.034 Y34.219 Z-3.958
X119.038 Y34.255 Z-3.933
X119.042 Y34.287 Z-3.904
X119.037 Y34.325 Z-3.856
X119.033 Y34.353 Z-3.802
X119.03 Y34.37 Z-3.744
X119.029 Y34.376 Z-3.683
G0 Z5
X120.734 Y57.156
Z0.5
G1 Z-4 F330
X120.757 Y57.186 F1400
X120.723 Y57.202
X120.689 Y57.186
X120.675 Y57.151
X120.687 Y57.115
X120.717 Y57.093
X120.754 Y57.086
X120.791 Y57.094
X120.822 Y57.115
X120.843 Y57.146
X120.85 Y57.183
X120.847 Y57.22
X120.833 Y57.255
X120.785 Y57.313
X120.716 Y57.342
X120.641 Y57.338
X120.573 Y57.306
X120.522 Y57.251
X120.491 Y57.183
X120.483 Y57.108
X120.499 Y57.035
X120.568 Y56.902
X120.695 Y56.821
X120.844 Y56.804
X120.987 Y56.849
X121.103 Y56.945
X121.178 Y57.075
X121.207 Y57.222
X121.189 Y57.371
X121.129 Y57.508
X121.032 Y57.623
X120.908 Y57.706
X120.766 Y57.754
X120.616 Y57.765
X120.468 Y57.739
X120.331 Y57.678
X120.212 Y57.587
X120.116 Y57.472
X120.048 Y57.338
X120.007 Y57.194
X119.995 Y57.044
X120.014 Y56.896
X120.06 Y56.753
X120.133 Y56.622
X120.228 Y56.506
X120.343 Y56.409
X120.473 Y56.334
X120.614 Y56.283
X120.761 Y56.257
X120.911 Y56.255
X121.059 Y56.278
X121.202 Y56.324
X121.336 Y56.392
X121.458 Y56.48
X121.565 Y56.585
X121.655 Y56.705
X121.727 Y56.836
X121.779 Y56.977
X121.811 Y57.123
X121.822 Y57.273
X121.813 Y57.423
X121.783 Y57.57
X121.735 Y57.712
X121.667 Y57.845
X121.583 Y57.97
X121.484 Y58.082
X121.372 Y58.182
X121.247 Y58.265
X121.114 Y58.334
X120.973 Y58.385
X120.827 Y58.419
X120.677 Y58.435
X120.527 Y58.434
X120.379 Y58.414
X120.233 Y58.378
X120.093 Y58.325
X119.959 Y58.256
X119.834 Y58.173
X119.719 Y58.077
X119.615 Y57.969
X119.523 Y57.851
X119.445 Y57.723
X119.38 Y57.587
X119.33 Y57.446
X119.295 Y57.3
X119.275 Y57.152
X119.271 Y57.002
X119.281 Y56.852
X119.307 Y56.704
X119.347 Y56.56
X119.402 Y56.42
X119.469 Y56.286
X119.55 Y56.159
X119.642 Y56.041
X119.745 Y55.932
X119.858 Y55.834
X119.98 Y55.746
X120.109 Y55.67
X120.245 Y55.607
X120.387 Y55.556
X120.532 Y55.519
X120.68 Y55.495
X120.83 Y55.484
X120.98 Y55.487
X121.129 Y55.503
X121.276 Y55.532
X121.42 Y55.574
X121.56 Y55.628
X121.694 Y55.694
X121.823 Y55.771
X121.944 Y55.859
X122.058 Y55.957
X122.163 Y56.064
X122.259 Y56.18
X122.344 Y56.303
X122.42 Y56.433
X122.484 Y56.568
X122.538 Y56.708
X122.58 Y56.856
X122.61 Y57.003
X122.629 Y57.157
X122.635 Y57.309
X122.628 Y57.461
X122.609 Y57.617
X122.578 Y57.766
X122.534 Y57.918
X122.478 Y58.065
X122.412 Y58.205
X122.33 Y58.346
X122.241 Y58.476
X122.14 Y58.599
X122.026 Y58.718
X121.907 Y58.824
X121.777 Y58.921
X121.635 Y59.011
X121.492 Y59.086
X121.34 Y59.151
X121.178 Y59.206
X121.018 Y59.245
X120.853 Y59.272
X120.681 Y59.287
X120.512
X120.343 Y59.274
X120.17 Y59.246
X120 Y59.205
X119.837 Y59.151
X119.675 Y59.083
X119.516 Y59
X119.366 Y58.906
X119.225 Y58.801
X119.089 Y58.682
X118.962 Y58.55
X118.846 Y58.41
X118.744 Y58.263
X118.651 Y58.104
X118.57 Y57.935
X118.503 Y57.762
X118.451 Y57.584
X118.412 Y57.403
X118.388 Y57.215
X118.38 Y57.023
X118.386 Y56.833
X118.408 Y56.644
X118.444 Y56.457
X118.497 Y56.271
X118.565 Y56.087
X118.648 Y55.909
X118.745 Y55.739
X118.855 Y55.577
X118.977 Y55.424
X119.114 Y55.279
X119.263 Y55.145
X119.424 Y55.022
X119.594 Y54.912
X119.773 Y54.816
X119.959 Y54.735
X120.152 Y54.668
X120.35 Y54.617
X120.554 Y54.582
X120.761 Y54.563
X120.97 Y54.561
X121.181 Y54.576
X121.39 Y54.607
X121.597 Y54.656
X121.8 Y54.721
X121.998 Y54.803
X122.19 Y54.9
X122.373 Y55.013
X122.548 Y55.142
X122.713 Y55.284
X122.867 Y55.44
X123.008 Y55.609
X123.136 Y55.789
X123.25 Y55.98
X123.348 Y56.181
X123.431 Y56.389
X123.497 Y56.605
X123.545 Y56.827
X123.576 Y57.052
X123.588 Y57.281
X123.582 Y57.51
X123.558 Y57.74
X123.515 Y57.968
X123.454 Y58.192
X123.374 Y58.412
X123.277 Y58.626
X123.162 Y58.832
X123.031 Y59.029
X122.883 Y59.215
X122.721 Y59.39
X122.544 Y59.553
X122.354 Y59.7
X122.152 Y59.833
X121.939 Y59.95
X121.716 Y60.049
X121.486 Y60.131
X121.248 Y60.194
X121.005 Y60.238
X120.758 Y60.263
X120.509 Y60.267
X120.259 Y60.252
X120.01 Y60.216
X119.764 Y60.161
X119.522 Y60.085
X119.286 Y59.99
X119.057 Y59.875
X118.838 Y59.743
X118.629 Y59.592
X118.431 Y59.425
X118.247 Y59.241
X118.078 Y59.042
X117.925 Y58.83
X117.788 Y58.605
X117.67 Y58.369
X117.57 Y58.122
X117.49 Y57.868
X117.431 Y57.607
X117.393 Y57.342
X117.376 Y57.073
X117.381 Y56.802
X117.407 Y56.532
X117.455 Y56.263
X117.525 Y55.998
X117.616 Y55.74
X117.729 Y55.488
X117.861 Y55.245
X118.014 Y55.012
X118.185 Y54.792
X118.374 Y54.585
X118.502 Y54.466
X118.539 Y54.436
X118.688 Y54.321
X118.889 Y54.167
X118.98 Y54.104
X119.125 Y54.04
X119.782 Y53.768
X119.818 Y53.756
X119.855 Y53.748
X120.438 Y53.671
X120.584 Y53.651
X120.73 Y53.635
X120.876 Y53.651
X121.605 Y53.747
X121.642 Y53.754
X121.678 Y53.766
X122.335 Y54.037
X122.481 Y54.099
X122.505 Y54.113
X122.529 Y54.13
X123.147 Y54.604
X123.21 Y54.654
X123.254 Y54.702
X123.739 Y55.333
X123.769 Y55.374
X123.794 Y55.415
X123.821 Y55.479
X124.122 Y56.208
X124.134 Y56.244
X124.142 Y56.281
X124.247 Y57.083
X124.254 Y57.156
X124.247 Y57.229
X124.142 Y58.03
X124.134 Y58.067
X124.122 Y58.103
X123.821 Y58.832
X123.794 Y58.895
X123.769 Y58.936
X123.739 Y58.978
X123.291 Y59.561
X123.21 Y59.657
X123.147 Y59.707
X122.577 Y60.144
X122.481 Y60.212
X122.296 Y60.29
X121.678 Y60.545
X121.642 Y60.557
X121.605 Y60.564
X120.876 Y60.661
X120.73 Y60.676
X120.584 Y60.66
X119.855 Y60.563
X119.818 Y60.555
X119.782 Y60.543
X119.125 Y60.271
X118.98 Y60.207
X118.889 Y60.144
X118.319 Y59.707
X118.25 Y59.651
X118.175 Y59.561
X117.728 Y58.978
X117.692 Y58.929
X117.667 Y58.88
X117.344 Y58.103
X117.333 Y58.067
X117.325 Y58.03
X117.219 Y57.229
X117.212 Y57.156
X117.219 Y57.083
X117.325 Y56.281
X117.333 Y56.244
X117.345 Y56.208
X117.667 Y55.431
X117.692 Y55.382
X117.728 Y55.333
X118.175 Y54.75
X118.25 Y54.661
X118.319 Y54.604
X118.539 Y54.436
G3 X118.962 Y54.486 I0.184 J0.259 F1000
G1 X118.987 Y54.534 Z-3.995
X119.011 Y54.581 Z-3.981
X119.033 Y54.626 Z-3.958
X119.037 Y54.662 Z-3.933
X119.04 Y54.694 Z-3.904
X119.035 Y54.732 Z-3.856
X119.031 Y54.76 Z-3.802
X119.029 Y54.777 Z-3.744
X119.028 Y54.783 Z-3.683
G0 Z5
X120.733 Y69.284
Z0.5
G1 Z-4 F330
X120.741 Y69.247 F1400
X120.775 Y69.261
X120.785 Y69.298
X120.768 Y69.331
X120.734 Y69.346
X120.697 Y69.338
X120.668 Y69.314
X120.649 Y69.282
X120.644 Y69.245
X120.654 Y69.208
X120.677 Y69.178
X120.707 Y69.156
X120.742 Y69.144
X120.817 Y69.142
X120.885 Y69.175
X120.931 Y69.234
X120.952 Y69.306
X120.945 Y69.38
X120.914 Y69.449
X120.863 Y69.503
X120.797 Y69.54
X120.651 Y69.575
X120.507 Y69.533
X120.396 Y69.432
X120.336 Y69.295
X120.331 Y69.145
X120.379 Y69.003
X120.471 Y68.884
X120.595 Y68.8
X120.737 Y68.754
X120.887 Y68.751
X121.032 Y68.79
X121.162 Y68.865
X121.269 Y68.97
X121.347 Y69.099
X121.391 Y69.242
X121.402 Y69.392
X121.378 Y69.54
X121.322 Y69.679
X121.241 Y69.805
X121.137 Y69.913
X121.012 Y69.997
X120.875 Y70.056
X120.728 Y70.087
X120.578 Y70.092
X120.43 Y70.07
X120.288 Y70.021
X120.241 Y69.994
X120.221 Y69.981
X120.18 Y69.953
X120.147 Y69.931
X120.125 Y69.912
X120.09 Y69.875
X120.064 Y69.839
X119.959 Y69.682
X119.941 Y69.651
X119.926 Y69.62
X119.913 Y69.584
X119.904 Y69.547
X119.861 Y69.329
X119.858 Y69.292
X119.86 Y69.256
X119.872 Y69.183
X119.901 Y69.037
X119.92 Y68.964
X119.936 Y68.928
X119.957 Y68.891
X120.054 Y68.746
X120.091 Y68.692
X120.119 Y68.662
X120.147 Y68.638
X120.202 Y68.6
X120.292 Y68.539
X120.365 Y68.493
X120.402 Y68.475
X120.438 Y68.463
X120.478 Y68.454
X120.657 Y68.418
X120.694 Y68.413
X120.73 Y68.41
X120.767 Y68.411
X120.803 Y68.417
X121.022 Y68.461
X121.058 Y68.472
X121.095 Y68.489
X121.168 Y68.535
X121.314 Y68.633
X121.344 Y68.658
X121.373 Y68.689
X121.413 Y68.746
X121.51 Y68.891
X121.531 Y68.928
X121.547 Y68.964
X121.565 Y69.037
X121.594 Y69.183
X121.605 Y69.245
X121.608 Y69.286
X121.605 Y69.329
X121.562 Y69.547
X121.554 Y69.584
X121.541 Y69.62
X121.525 Y69.654
X121.504 Y69.687
X121.402 Y69.839
X121.376 Y69.875
X121.342 Y69.912
X121.314 Y69.936
X121.132 Y70.058
X121.105 Y70.075
X121.077 Y70.088
X121.022 Y70.107
X120.803 Y70.152
X120.767 Y70.158
X120.73 Y70.159
X120.694 Y70.156
X120.657 Y70.151
X120.438 Y70.106
X120.412 Y70.098
X120.386 Y70.087
X120.334 Y70.058
X120.221 Y69.981
G3 X120.135 Y69.563 I0.187 J-0.256 F1000
G1 X120.173 Y69.525 Z-3.995
X120.211 Y69.488 Z-3.981
X120.245 Y69.452 Z-3.958
X120.293 Y69.438 Z-3.922
X120.332 Y69.426 Z-3.878
X120.364 Y69.417 Z-3.827
X120.385 Y69.411 Z-3.771
X120.395 Y69.408 Z-3.711
X120.397 Z-3.683
G0 Z5
X19.118 Y16.344
Z-3.5
G1 Z-5.8 F330
X19.156 Y16.339 F1400
X19.153 Y16.376
X19.122 Y16.398
X19.085 Y16.392
X19.06 Y16.364
X19.055 Y16.327
X19.068 Y16.292
X19.093 Y16.264
X19.127 Y16.247
X19.164 Y16.245
X19.2 Y16.256
X19.23 Y16.278
X19.254 Y16.308
X19.28 Y16.378
X19.27 Y16.452
X19.229 Y16.515
X19.168 Y16.558
X19.095 Y16.575
X19.02 Y16.568
X18.952 Y16.537
X18.896 Y16.487
X18.816 Y16.36
X18.809 Y16.21
X18.869 Y16.073
X18.98 Y15.971
X19.12 Y15.919
X19.27
X19.412 Y15.967
X19.532 Y16.057
X19.621 Y16.178
X19.672 Y16.319
X19.682 Y16.469
X19.653 Y16.616
X19.587 Y16.751
X19.49 Y16.865
X19.369 Y16.953
X19.231 Y17.012
X19.083 Y17.037
X18.933 Y17.029
X18.788 Y16.993
X18.652 Y16.928
X18.533 Y16.837
X18.432 Y16.726
X18.356 Y16.597
X18.303 Y16.457
X18.276 Y16.309
X18.277 Y16.159
X18.302 Y16.011
X18.354 Y15.87
X18.427 Y15.739
X18.521 Y15.623
X18.632 Y15.522
X18.758 Y15.441
X18.895 Y15.379
X19.039 Y15.339
X19.188 Y15.32
X19.338 Y15.324
X19.486 Y15.349
X19.629 Y15.395
X19.764 Y15.46
X19.889 Y15.543
X20.002 Y15.642
X20.1 Y15.755
X20.182 Y15.881
X20.248 Y16.015
X20.296 Y16.158
X20.326 Y16.305
X20.336 Y16.454
X20.329 Y16.604
X20.302 Y16.752
X20.259 Y16.895
X20.198 Y17.032
X20.122 Y17.162
X20.03 Y17.281
X19.926 Y17.389
X19.81 Y17.483
X19.684 Y17.565
X19.55 Y17.632
X19.409 Y17.683
X19.263 Y17.719
X19.115 Y17.74
X18.965 Y17.744
X18.815 Y17.732
X18.668 Y17.704
X18.524 Y17.662
X18.385 Y17.605
X18.253 Y17.533
X18.129 Y17.449
X18.014 Y17.353
X17.909 Y17.246
X17.815 Y17.129
X17.733 Y17.004
X17.663 Y16.871
X17.607 Y16.732
X17.564 Y16.588
X17.535 Y16.441
X17.52 Y16.291
Y16.141
X17.533 Y15.992
X17.56 Y15.844
X17.6 Y15.7
X17.653 Y15.56
X17.719 Y15.425
X17.796 Y15.296
X17.884 Y15.175
X17.983 Y15.062
X18.092 Y14.959
X18.208 Y14.864
X18.333 Y14.781
X18.464 Y14.708
X18.601 Y14.647
X18.743 Y14.598
X18.888 Y14.56
X19.036 Y14.535
X19.185 Y14.523
X19.336 Y14.522
X19.485 Y14.534
X19.633 Y14.558
X19.783 Y14.595
X19.925 Y14.643
X20.067 Y14.704
X20.202 Y14.775
X20.33 Y14.856
X20.456 Y14.951
X20.569 Y15.052
X20.679 Y15.166
X20.778 Y15.288
X20.866 Y15.416
X20.947 Y15.557
X21.015 Y15.699
X21.071 Y15.848
X21.117 Y16.006
X21.149 Y16.162
X21.169 Y16.324
X21.176 Y16.492
X21.169 Y16.653
X21.15 Y16.817
X21.116 Y16.984
X21.07 Y17.143
X21.011 Y17.299
X20.937 Y17.456
X20.853 Y17.602
X20.757 Y17.742
X20.647 Y17.878
X20.526 Y18.004
X20.398 Y18.118
X20.258 Y18.224
X20.107 Y18.32
X19.949 Y18.404
X19.788 Y18.473
X19.617 Y18.531
X19.439 Y18.575
X19.26 Y18.605
X19.081 Y18.621
X18.898 Y18.622
X18.711 Y18.607
X18.528 Y18.579
X18.347 Y18.535
X18.171 Y18.477
X17.997 Y18.404
X17.826 Y18.316
X17.665 Y18.215
X17.512 Y18.102
X17.368 Y17.977
X17.233 Y17.838
X17.109 Y17.688
X16.996 Y17.526
X16.896 Y17.358
X16.811 Y17.181
X16.74 Y16.999
X16.683 Y16.808
X16.641 Y16.611
X16.615 Y16.411
X16.605 Y16.208
X16.612 Y16.006
X16.634 Y15.804
X16.673 Y15.604
X16.728 Y15.406
X16.8 Y15.212
X16.887 Y15.023
X16.99 Y14.841
X17.108 Y14.666
X17.24 Y14.501
X17.385 Y14.346
X17.544 Y14.203
X17.713 Y14.072
X17.893 Y13.955
X18.083 Y13.853
X18.282 Y13.765
X18.488 Y13.694
X18.7 Y13.639
X18.917 Y13.601
X19.136 Y13.58
X19.359 Y13.577
X19.582 Y13.592
X19.804 Y13.625
X20.024 Y13.676
X20.239 Y13.745
X20.45 Y13.831
X20.654 Y13.935
X20.85 Y14.054
X21.037 Y14.191
X21.212 Y14.342
X21.376 Y14.507
X21.527 Y14.686
X21.663 Y14.877
X21.784 Y15.079
X21.889 Y15.292
X21.977 Y15.513
X22.047 Y15.741
X22.099 Y15.975
X22.132 Y16.213
X22.146 Y16.454
X22.14 Y16.697
X22.115 Y16.94
X22.071 Y17.18
X22.006 Y17.418
X21.923 Y17.651
X21.821 Y17.877
X21.7 Y18.094
X21.562 Y18.303
X21.407 Y18.501
X21.235 Y18.686
X21.049 Y18.858
X20.848 Y19.015
X20.635 Y19.156
X20.41 Y19.28
X20.175 Y19.385
X19.931 Y19.472
X19.68 Y19.54
X19.423 Y19.587
X19.163 Y19.614
X18.9 Y19.619
X18.636 Y19.604
X18.373 Y19.567
X18.113 Y19.509
X17.857 Y19.43
X17.608 Y19.33
X17.367 Y19.21
X17.135 Y19.071
X16.914 Y18.912
X16.706 Y18.736
X16.511 Y18.543
X16.333 Y18.335
X16.171 Y18.112
X16.027 Y17.876
X15.902 Y17.627
X15.796 Y17.369
X15.712 Y17.101
X15.674 Y16.935
X15.666 Y16.889
X15.641 Y16.7
X15.603 Y16.409
X15.598 Y16.336
X15.605 Y16.263
X15.701 Y15.534
X15.711 Y15.461
X15.72 Y15.425
X15.733 Y15.388
X16.035 Y14.659
X16.068 Y14.586
X16.119 Y14.513
X16.572 Y13.923
X16.605 Y13.882
X16.644 Y13.841
X16.718 Y13.782
X17.302 Y13.334
X17.375 Y13.287
X17.448 Y13.254
X18.177 Y12.953
X18.214 Y12.942
X18.25 Y12.935
X19.052 Y12.829
X19.125 Y12.823
X19.198 Y12.831
X20.001 Y12.937
X20.037 Y12.946
X20.073 Y12.958
X20.803 Y13.26
X20.876 Y13.294
X20.952 Y13.347
X21.532 Y13.793
X21.614 Y13.861
X21.678 Y13.941
X22.117 Y14.513
X22.169 Y14.586
X22.202 Y14.659
X22.504 Y15.388
X22.516 Y15.425
X22.525 Y15.461
X22.631 Y16.263
X22.639 Y16.336
X22.633 Y16.409
X22.528 Y17.21
X22.521 Y17.247
X22.51 Y17.283
X22.39 Y17.575
X22.209 Y18.012
X22.178 Y18.085
X22.156 Y18.122
X22.116 Y18.176
X21.678 Y18.747
X21.622 Y18.817
X21.583 Y18.856
X20.949 Y19.343
X20.876 Y19.395
X20.803 Y19.428
X20.073 Y19.73
X20.037 Y19.743
X20.001 Y19.751
X19.198 Y19.857
X19.125 Y19.864
