%
(1001)
(T1  D=18.745 CR=0 - ZMIN=-23.2 - flat end mill)
G90 G94
G17
G21

(Rough - 3/4)
M9
T1 M6
S16000 M3
G54
G0 X47.464 Y50.199
Z10
Z5
Z2.5
G3 X38.02 Y35.101 Z1.523 I-4.722 J-7.549 F670
X47.464 Y50.199 Z0.546 I4.722 J7.549
X38.02 Y35.101 Z-0.43 I-4.722 J-7.549
X47.464 Y50.199 Z-1.407 I4.722 J7.549
X38.02 Y35.101 Z-2.384 I-4.722 J-7.549
X47.464 Y50.199 Z-3.361 I4.722 J7.549
X38.02 Y35.101 Z-4.338 I-4.722 J-7.549
X51.646 Y42.65 Z-5 I4.722 J7.549
X33.838 I-8.904
X51.646 I8.904
G1 X51.648 Y43.049 F1400
X51.686 Y43.446
X51.76 Y43.838
X52.199 Y45.372
X52.262 Y45.5
X52.385 Y45.775
X52.497 Y46.09
X52.592 Y46.446
X52.664 Y46.842
X52.707 Y47.276
X52.716 Y47.746
X52.685 Y48.25
X52.609 Y48.785
X52.483 Y49.344
X52.302 Y49.925
X52.063 Y50.521
X51.761 Y51.125
X51.395 Y51.732
X50.963 Y52.333
X50.463 Y52.921
X49.898 Y53.488
X49.266 Y54.027
X48.571 Y54.529
X47.816 Y54.987
X47.005 Y55.394
X46.143 Y55.744
X45.235 Y56.029
X44.288 Y56.245
X43.308 Y56.387
X42.304 Y56.451
X41.283 Y56.434
X40.253 Y56.333
X39.222 Y56.148
X38.198 Y55.878
X37.19 Y55.524
X36.205 Y55.086
X35.252 Y54.566
X34.337 Y53.968
X33.469 Y53.294
X32.653 Y52.55
X31.896 Y51.738
X31.204 Y50.865
X30.582 Y49.936
X30.035 Y48.957
X29.567 Y47.934
X29.182 Y46.875
X28.882 Y45.787
X28.671 Y44.675
X28.549 Y43.549
X28.518 Y42.415
X28.578 Y41.28
X28.729 Y40.153
X28.97 Y39.041
X29.3 Y37.951
X29.717 Y36.89
X30.218 Y35.865
X30.799 Y34.884
X31.458 Y33.951
X32.19 Y33.075
X32.99 Y32.259
X33.854 Y31.51
X34.775 Y30.833
X35.747 Y30.232
X36.765 Y29.71
X37.822 Y29.272
X38.91 Y28.92
X40.024 Y28.657
X41.155 Y28.483
X42.296 Y28.401
X43.441 Y28.411
X44.581 Y28.513
X45.709 Y28.706
X46.818 Y28.988
X47.902 Y29.359
X48.951 Y29.816
X49.961 Y30.356
X50.925 Y30.974
X51.835 Y31.669
X52.687 Y32.434
X53.475 Y33.265
X54.193 Y34.156
X54.886 Y35.172
X55.675 Y36.559
X56.415 Y37.973
X57.08 Y39.423
X57.645 Y40.916
X58.05 Y42.309
X58.325 Y43.649
X58.486 Y44.957
X58.539 Y46.232
X58.492 Y47.481
X58.345 Y48.707
X58.102 Y49.911
X57.764 Y51.092
X57.33 Y52.245
X56.802 Y53.366
X56.18 Y54.45
X55.467 Y55.491
X54.665 Y56.481
X53.774 Y57.415
X52.798 Y58.287
X51.74 Y59.089
X50.605 Y59.813
X49.399 Y60.454
X48.129 Y61.002
X46.801 Y61.453
X45.425 Y61.8
X44.009 Y62.038
X42.562 Y62.163
X41.096 Y62.171
X39.62 Y62.061
X38.146 Y61.831
X36.684 Y61.481
X35.244 Y61.011
X33.836 Y60.423
X32.472 Y59.719
X31.161 Y58.903
X29.912 Y57.98
X28.736 Y56.954
X27.641 Y55.832
X26.636 Y54.621
X25.727 Y53.328
X24.923 Y51.963
X24.229 Y50.532
X23.65 Y49.047
X23.192 Y47.519
X22.858 Y45.958
X22.65 Y44.376
X22.568 Y42.783
X22.614 Y41.187
X22.787 Y39.601
X23.086 Y38.034
X23.508 Y36.495
X24.05 Y34.994
X24.71 Y33.541
X25.483 Y32.145
X26.364 Y30.814
X27.347 Y29.558
X28.427 Y28.383
X29.596 Y27.297
X30.848 Y26.307
X32.174 Y25.419
X33.565 Y24.638
X35.014 Y23.97
X36.511 Y23.418
X38.048 Y22.985
X39.613 Y22.676
X41.198 Y22.491
X42.793 Y22.431
X44.387 Y22.498
X45.971 Y22.69
X47.535 Y23.006
X49.069 Y23.445
X50.564 Y24.003
X52.01 Y24.678
X53.399 Y25.464
X54.721 Y26.358
X55.97 Y27.351
X57.14 Y28.436
X58.238 Y29.594
X59.261 Y30.819
X60.208 Y32.103
X61.078 Y33.441
X61.866 Y34.828
X62.569 Y36.261
X63.179 Y37.735
X63.692 Y39.247
X64.102 Y40.789
X64.407 Y42.355
X64.603 Y43.939
X64.688 Y45.532
X64.66 Y47.128
X64.519 Y48.717
X64.264 Y50.292
X63.896 Y51.845
X63.417 Y53.367
X62.828 Y54.85
X62.132 Y56.286
X61.333 Y57.668
X60.436 Y58.987
X59.446 Y60.239
X58.37 Y61.417
X57.214 Y62.517
X55.984 Y63.534
X54.686 Y64.461
X53.325 Y65.295
X51.91 Y66.032
X50.447 Y66.671
X48.945 Y67.21
X47.925 Y67.501
X47.628 Y67.571
X47.325 Y67.613
X47.019 Y67.627
X39.937
X38.344 Y67.548
X36.756 Y67.386
X35.186 Y67.102
X33.641 Y66.701
X32.131 Y66.187
X30.661 Y65.566
X29.238 Y64.844
X27.866 Y64.029
X26.551 Y63.125
X25.299 Y62.135
X24.115 Y61.065
X23.002 Y59.922
X21.962 Y58.712
X21.002 Y57.437
X20.125 Y56.104
X19.332 Y54.719
X18.626 Y53.288
X18.009 Y51.816
X17.854 Y51.369
X17.754 Y51.016
X17.693 Y50.655
X17.673 Y50.289
Y39.289
X17.752 Y37.696
X17.837 Y36.902
X18.058 Y35.4
X18.416 Y33.845
X18.895 Y32.323
X19.486 Y30.841
X20.181 Y29.404
X20.976 Y28.021
X21.865 Y26.696
X22.84 Y25.432
X23.893 Y24.234
X25.022 Y23.106
X26.222 Y22.054
X27.486 Y21.079
X28.807 Y20.184
X30.181 Y19.372
X31.603 Y18.649
X33.067 Y18.014
X33.462 Y17.871
X33.829 Y17.761
X34.206 Y17.695
X34.588 Y17.673
X46.108
X47.701 Y17.752
X49.18 Y17.891
X50.698 Y18.158
X52.243 Y18.559
X53.75 Y19.082
X55.214 Y19.717
X56.63 Y20.453
X57.994 Y21.281
X59.304 Y22.193
X60.555 Y23.183
X61.745 Y24.246
X62.874 Y25.374
X63.94 Y26.561
X64.943 Y27.803
X65.877 Y29.096
X66.74 Y30.438
X67.531 Y31.824
X68.249 Y33.249
X68.892 Y34.709
X69.455 Y36.203
X69.937 Y37.724
X70.337 Y39.269
X70.654 Y40.833
X70.886 Y42.411
X71.03 Y44.001
X71.087 Y45.595
X71.057 Y47.191
X70.94 Y48.782
X70.733 Y50.365
X70.438 Y51.933
X70.056 Y53.482
X69.59 Y55.008
X69.039 Y56.506
X68.403 Y57.969
X67.686 Y59.395
X66.891 Y60.779
X66.023 Y62.117
X65.079 Y63.404
X64.066 Y64.637
X62.986 Y65.812
X62.089 Y66.688
X61.766 Y66.965
X61.411 Y67.198
X61.028 Y67.384
X60.625 Y67.518
X60.207 Y67.6
X59.783 Y67.627
X47.019
G3 X46.263 Y67.439 I0.065 J-1.873 F1000
X45.784 Y67.104 I0.822 J-1.685 F1400
G1 X18.245 Y40.574
G3 X17.861 Y40.046 I1.301 J-1.35
X17.673 Y39.289 I1.685 J-0.822 F1000
G1 Y28.088 F1400
X17.718 Y27.175
X17.829 Y26.328
X18.035 Y25.366
X18.341 Y24.346
X18.764 Y23.259
X19.334 Y22.084
X20.061 Y20.849
X20.942 Y19.595
X21.548 Y18.865
X21.882 Y18.517
X22.264 Y18.222
X22.685 Y17.986
X23.135 Y17.813
X23.606 Y17.708
X24.087 Y17.673
X34.588
G3 X35.345 Y17.861 I-0.065 J1.873 F1000
X35.446 Y21.177 I-0.822 J1.685 F1400
G1 X20.469 Y29.654
G3 X17.861 Y28.844 I-0.923 J-1.631
X17.673 Y28.088 I1.685 J-0.822 F1000
G1 Y20.247 F1400
X17.695 Y19.796
X17.777 Y19.414
X17.918 Y19.05
X18.115 Y18.714
X18.364 Y18.413
X18.657 Y18.156
X18.988 Y17.949
X19.347 Y17.797
X19.726 Y17.704
X20.115 Y17.673
G3 X20.884 Y17.818 I-0.09 J2.591 F1000
X21.809 Y18.383 I-0.859 J2.446 F1400
X18.435 Y21.939 I-1.687 J1.778
X17.824 Y21.014 I1.687 J-1.778
X17.673 Y20.247 I2.298 J-0.853 F1000
G1 Y19.686 F1400
X17.679 Y19.406
X17.724 Y19.126
X17.815 Y18.846
X17.959 Y18.566
X18.061 Y18.42
X18.279 Y18.181
X18.498 Y18.006
X18.622 Y17.928
X18.902 Y17.794
X19.183 Y17.712
X19.463 Y17.675
X19.744 Y17.673
X24.087
G3 X24.844 Y17.861 I-0.065 J1.873 F1000
X25.795 Y18.938 I-0.822 J1.685 F1400
G1 X41.645 Y65.146
G3 X40.694 Y67.439 I-1.773 J0.608
X39.937 Y67.627 I-0.822 J-1.685 F1000
G1 X28.158 F1400
X27.443 Y67.592
X26.563 Y67.476
X25.591 Y67.268
X24.568 Y66.962
X23.443 Y66.524
X22.252 Y65.946
X21.038 Y65.231
X19.774 Y64.343
X18.865 Y63.589
X18.517 Y63.254
X18.222 Y62.873
X17.986 Y62.452
X17.813 Y62.002
X17.708 Y61.531
X17.673 Y61.049
Y50.289
G3 X17.861 Y49.532 I1.873 J0.065 F1000
X21.185 Y49.445 I1.685 J0.822 F1400
G1 X29.731 Y64.844
G3 X28.914 Y67.439 I-1.639 J0.91
X28.158 Y67.627 I-0.822 J-1.685 F1000
G1 X20.304 F1400
X19.91 Y67.608
X19.508 Y67.522
X19.125 Y67.373
X18.77 Y67.165
X18.453 Y66.903
X18.182 Y66.594
X17.963 Y66.246
X17.803 Y65.867
X17.705 Y65.467
X17.673 Y65.058
G3 X17.818 Y64.289 I2.591 J0.09 F1000
X18.409 Y63.337 I2.446 J0.859 F1400
X22.024 Y66.867 I1.808 J1.765
X21.073 Y67.479 I-1.808 J-1.765
X20.304 Y67.627 I-0.856 J-2.377 F1000
G1 X19.744 F1400
X19.463 Y67.625
X19.183 Y67.588
X18.902 Y67.506
X18.622 Y67.372
X18.498 Y67.294
X18.279 Y67.119
X18.061 Y66.88
X17.959 Y66.734
X17.815 Y66.454
X17.724 Y66.174
X17.679 Y65.894
X17.673 Y65.614
Y61.049
G3 X17.861 Y60.293 I1.873 J0.065 F1000
G1 X17.912 Y60.197 F1400
X17.968 Y60.104
X44.595 Y18.535
G3 X45.351 Y17.861 I1.578 J1.011
X46.108 Y17.673 I0.822 J1.685 F1000
G1 X57.327 F1400
X58.424 Y17.728
X59.314 Y17.844
X60.315 Y18.058
X61.374 Y18.376
X62.539 Y18.829
X63.798 Y19.44
X65.132 Y20.226
X66.438 Y21.143
X67.671 Y22.156
X68.83 Y23.253
X69.916 Y24.422
X70.93 Y25.654
X71.873 Y26.941
X72.746 Y28.277
X73.548 Y29.656
X74.279 Y31.075
X74.938 Y32.528
X75.525 Y34.012
X76.041 Y35.522
X76.486 Y37.054
X76.86 Y38.606
X77.16 Y40.173
X77.387 Y41.752
X77.541 Y43.341
X77.623 Y44.934
X77.633 Y46.53
X77.57 Y48.125
X77.433 Y49.714
X77.223 Y51.296
X76.942 Y52.867
X76.59 Y54.424
X76.169 Y55.963
X75.676 Y57.48
X75.115 Y58.974
X74.486 Y60.441
X73.792 Y61.878
X73.035 Y63.282
X72.214 Y64.65
X71.331 Y65.98
X71.1 Y66.291
X70.816 Y66.626
X70.489 Y66.921
X70.126 Y67.169
X69.733 Y67.367
X69.318 Y67.511
X68.887 Y67.598
X68.448 Y67.627
X59.783
G3 X59.027 Y67.439 I0.065 J-1.873 F1000
X57.977 Y65.854 I0.822 J-1.685 F1400
G1 X55.52 Y19.645
G3 X56.57 Y17.861 I1.872 J-0.1
X57.327 Y17.673 I0.822 J1.685 F1000
G1 X65.741 F1400
X66.508 Y17.711
X67.278 Y17.812
X68.119 Y17.992
X69.06 Y18.274
X70.044 Y18.657
X71.122 Y19.18
X72.281 Y19.862
X73.497 Y20.716
X74.725 Y21.736
X75.869 Y22.848
X76.931 Y24.039
X77.914 Y25.296
X78.82 Y26.609
X79.652 Y27.971
X80.411 Y29.375
X81.1 Y30.814
X81.719 Y32.285
X82.269 Y33.783
X82.75 Y35.304
X83.164 Y36.845
X83.513 Y38.403
X83.796 Y39.973
X84.016 Y41.554
X84.171 Y43.142
X84.26 Y44.735
X84.286 Y46.331
X84.248 Y47.926
X84.148 Y49.518
X83.988 Y51.106
X83.765 Y52.686
X83.48 Y54.256
X83.134 Y55.814
X82.727 Y57.357
X82.263 Y58.884
X81.741 Y60.392
X81.161 Y61.879
X80.525 Y63.342
X79.827 Y64.777
X79.045 Y66.168
X78.764 Y66.532
X78.434 Y66.853
X78.062 Y67.124
X77.657 Y67.341
X77.225 Y67.499
X76.775 Y67.595
X76.316 Y67.627
X68.448
G3 X67.692 Y67.439 I0.065 J-1.873 F1000
X66.642 Y65.864 I0.822 J-1.685 F1400
G1 X63.935 Y19.656
G3 X64.984 Y17.861 I1.871 J-0.11
X65.741 Y17.673 I0.822 J1.685 F1000
G1 X73.033 F1400
X73.909 Y17.716
X74.642 Y17.813
X75.411 Y17.977
X76.287 Y18.24
X77.199 Y18.595
X78.197 Y19.079
X79.274 Y19.713
X80.395 Y20.5
X81.564 Y21.471
X82.706 Y22.585
X83.761 Y23.782
X84.732 Y25.048
X85.623 Y26.372
X86.437 Y27.745
X87.178 Y29.158
X87.847 Y30.607
X88.447 Y32.085
X88.98 Y33.59
X89.447 Y35.116
X89.85 Y36.66
X90.19 Y38.218
X90.47 Y39.789
X90.691 Y41.37
X90.853 Y42.957
X90.956 Y44.55
X91.001 Y46.145
X90.99 Y47.741
X90.922 Y49.335
X90.799 Y50.926
X90.621 Y52.512
X90.39 Y54.091
X90.106 Y55.661
X89.768 Y57.22
X89.377 Y58.767
X88.934 Y60.3
X88.438 Y61.817
X87.887 Y63.315
X87.259 Y64.782
X86.714 Y65.838
X86.481 Y66.225
X86.197 Y66.575
X85.867 Y66.884
X85.499 Y67.145
X85.098 Y67.353
X84.673 Y67.504
X84.231 Y67.597
X83.781 Y67.627
X76.316
G3 X75.559 Y67.439 I0.065 J-1.873 F1000
X74.511 Y65.887 I0.822 J-1.685 F1400
G1 X71.228 Y19.679
G3 X72.276 Y17.861 I1.87 J-0.133
X73.033 Y17.673 I0.822 J1.685 F1000
G1 X80.325 F1400
X80.963 Y17.705
X81.674 Y17.798
X82.413 Y17.956
X83.256 Y18.208
X84.141 Y18.553
X85.099 Y19.018
X86.137 Y19.629
X87.217 Y20.388
X88.343 Y21.322
X89.485 Y22.437
X90.537 Y23.637
X91.502 Y24.907
X92.386 Y26.236
X93.191 Y27.614
X93.922 Y29.032
X94.582 Y30.485
X95.173 Y31.967
X95.698 Y33.474
X96.16 Y35.002
X96.56 Y36.546
X96.9 Y38.106
X97.182 Y39.676
X97.408 Y41.256
X97.579 Y42.842
X97.697 Y44.434
X97.761 Y46.028
X97.772 Y47.624
X97.732 Y49.219
X97.641 Y50.812
X97.501 Y52.402
X97.312 Y53.986
X97.074 Y55.564
X96.789 Y57.134
X96.455 Y58.695
X96.069 Y60.243
X95.627 Y61.776
X95.121 Y63.29
X94.528 Y64.771
X93.914 Y66.019
X93.634 Y66.417
X93.299 Y66.77
X92.916 Y67.069
X92.493 Y67.309
X92.04 Y67.485
X91.565 Y67.592
X91.08 Y67.627
X83.781
G3 X83.024 Y67.439 I0.065 J-1.873 F1000
X81.977 Y65.894 I0.822 J-1.685 F1400
G1 X78.521 Y19.686
G3 X79.569 Y17.861 I1.869 J-0.14
X80.325 Y17.673 I0.822 J1.685 F1000
G1 X87.056 F1400
X87.877 Y17.714
X88.571 Y17.805
X89.298 Y17.96
X90.119 Y18.206
X90.992 Y18.546
X91.926 Y19
X92.942 Y19.597
X94.003 Y20.343
X95.106 Y21.259
X96.249 Y22.373
X97.299 Y23.575
X98.261 Y24.847
X99.141 Y26.179
X99.941 Y27.559
X100.667 Y28.98
X101.323 Y30.435
X101.911 Y31.918
X102.434 Y33.426
X102.895 Y34.954
X103.296 Y36.498
X103.639 Y38.057
X103.927 Y39.626
X104.161 Y41.205
X104.342 Y42.79
X104.473 Y44.38
X104.555 Y45.974
X104.587 Y47.57
X104.571 Y49.165
X104.509 Y50.76
X104.399 Y52.352
X104.244 Y53.94
X104.043 Y55.523
X103.795 Y57.099
X103.5 Y58.667
X103.15 Y60.224
X102.741 Y61.767
X102.266 Y63.29
X101.701 Y64.764
X101.122 Y65.976
X101.117 Y65.985
X100.838 Y66.391
X100.503 Y66.751
X100.118 Y67.057
X99.692 Y67.302
X99.233 Y67.482
X98.754 Y67.591
X98.263 Y67.627
X91.08
G3 X90.323 Y67.439 I0.065 J-1.873 F1000
X89.278 Y65.917 I0.822 J-1.685 F1400
G1 X85.254 Y19.709
G3 X86.3 Y17.861 I1.867 J-0.163
X87.056 Y17.673 I0.822 J1.685 F1000
G1 X93.788 F1400
X94.698 Y17.718
X95.383 Y17.808
X96.105 Y17.963
X96.917 Y18.206
X97.783 Y18.543
X98.707 Y18.991
X99.713 Y19.583
X100.765 Y20.323
X101.859 Y21.23
X103.001 Y22.345
X104.05 Y23.547
X105.012 Y24.821
X105.89 Y26.153
X106.689 Y27.534
X107.414 Y28.955
X108.07 Y30.411
X108.658 Y31.894
X109.183 Y33.401
X109.647 Y34.928
X110.052 Y36.471
X110.401 Y38.028
X110.697 Y39.596
X110.94 Y41.173
X111.134 Y42.757
X111.279 Y44.346
X111.377 Y45.939
X111.429 Y47.534
X111.436 Y49.13
X111.397 Y50.725
X111.313 Y52.318
X111.185 Y53.909
X111.011 Y55.495
X110.79 Y57.076
X110.521 Y58.648
X110.197 Y60.211
X109.81 Y61.759
X109.353 Y63.288
X108.816 Y64.73
X108.257 Y65.926
X108.239 Y65.959
X107.962 Y66.371
X107.626 Y66.736
X107.239 Y67.047
X106.81 Y67.297
X106.349 Y67.479
X105.865 Y67.59
X105.37 Y67.627
X98.263
G3 X97.507 Y67.439 I0.065 J-1.873 F1000
X96.463 Y65.935 I0.822 J-1.685 F1400
G1 X91.987 Y19.727
G3 X93.031 Y17.861 I1.866 J-0.181
X93.788 Y17.673 I0.822 J1.685 F1000
G1 X100.827 F1400
X101.462 Y17.704
X102.145 Y17.794
X102.866 Y17.948
X103.675 Y18.19
X104.539 Y18.527
X105.461 Y18.974
X106.464 Y19.565
X107.515 Y20.303
X108.607 Y21.21
X109.749 Y22.324
X110.799 Y23.526
X111.76 Y24.8
X112.639 Y26.132
X113.439 Y27.513
X114.166 Y28.933
X114.823 Y30.387
X115.415 Y31.869
X115.944 Y33.375
X116.413 Y34.9
X116.825 Y36.442
X117.182 Y37.997
X117.487 Y39.563
X117.742 Y41.138
X117.949 Y42.721
X118.108 Y44.308
X118.222 Y45.9
X118.292 Y47.494
X118.317 Y49.09
X118.298 Y50.685
X118.236 Y52.28
X118.128 Y53.872
X117.975 Y55.46
X117.775 Y57.044
X117.525 Y58.62
X117.219 Y60.186
X116.848 Y61.738
X116.403 Y63.27
X115.883 Y64.696
X115.338 Y65.884
X115.307 Y65.94
X115.031 Y66.356
X114.695 Y66.725
X114.307 Y67.04
X113.876 Y67.292
X113.412 Y67.477
X112.926 Y67.59
X112.428 Y67.627
X105.37
G3 X104.614 Y67.439 I0.065 J-1.873 F1000
X103.57 Y65.937 I0.822 J-1.685 F1400
G1 X99.027 Y19.729
G3 X100.071 Y17.861 I1.866 J-0.183
X100.827 Y17.673 I0.822 J1.685 F1000
G1 X107.811 F1400
X108.219 Y17.693
X108.9 Y17.782
X109.621 Y17.937
X110.429 Y18.179
X111.294 Y18.515
X112.216 Y18.963
X113.219 Y19.554
X114.273 Y20.293
X115.367 Y21.202
X116.509 Y22.316
X117.559 Y23.518
X118.521 Y24.791
X119.401 Y26.123
X120.203 Y27.502
X120.933 Y28.921
X121.593 Y30.374
X122.189 Y31.854
X122.723 Y33.358
X123.199 Y34.881
X123.618 Y36.421
X123.984 Y37.974
X124.299 Y39.538
X124.565 Y41.112
X124.784 Y42.692
X124.957 Y44.279
X125.017 Y45.026
X125.023 Y45.114
X125.026 Y45.202
X125.027 Y45.291
Y50.491
X124.948 Y52.085
X124.9 Y53.68
X124.799 Y55.273
X124.645 Y56.861
X124.437 Y58.443
X124.166 Y60.015
X123.826 Y61.575
X123.41 Y63.115
X122.92 Y64.536
X122.4 Y65.724
X122.312 Y65.889
X122.075 Y66.265
X121.791 Y66.606
X121.463 Y66.906
X121.098 Y67.16
X120.702 Y67.361
X120.283 Y67.508
X119.848 Y67.597
X119.404 Y67.627
X112.428
G3 X111.671 Y67.439 I0.065 J-1.873 F1000
X110.959 Y64.678 I0.822 J-1.685 F1400
G1 X121.619 Y49.48
G3 X124.839 Y49.735 I1.535 J1.076
X125.027 Y50.491 I-1.685 J0.822 F1000
G1 Y65.614 F1400
X125.021 Y65.894
X124.976 Y66.174
X124.885 Y66.454
X124.741 Y66.734
X124.639 Y66.88
X124.421 Y67.119
X124.202 Y67.294
X124.078 Y67.372
X123.798 Y67.506
X123.517 Y67.588
X123.237 Y67.625
X122.956 Y67.627
X119.404
G3 X118.648 Y67.439 I0.065 J-1.873 F1000
X117.652 Y66.21 I0.822 J-1.685 F1400
G1 X106.058 Y20.002
G3 X107.055 Y17.861 I1.818 J-0.456
X107.811 Y17.673 I0.822 J1.685 F1000
G1 X114.542 F1400
X114.987 Y17.695
X115.668 Y17.784
X116.39 Y17.939
X117.197 Y18.18
X118.064 Y18.518
X118.986 Y18.965
X119.991 Y19.557
X121.048 Y20.3
X122.147 Y21.212
X123.289 Y22.326
X124.339 Y23.528
X124.359 Y23.553
X124.594 Y23.91
X124.781 Y24.294
X124.917 Y24.699
X125 Y25.118
X125.027 Y25.545
Y45.291
G3 X124.839 Y46.047 I-1.873 J-0.065 F1000
X121.375 Y45.817 I-1.685 J-0.822 F1400
G1 X112.829 Y20.138
G3 X113.786 Y17.861 I1.779 J-0.592
X114.542 Y17.673 I0.822 J1.685 F1000
G1 X121.274 F1400
X121.761 Y17.697
X122.442 Y17.786
X123.093 Y17.926
X123.497 Y18.083
X123.871 Y18.302
X124.205 Y18.578
X124.491 Y18.904
X124.721 Y19.272
X124.89 Y19.671
X124.993 Y20.092
X125.027 Y20.524
G3 X124.839 Y21.28 I-1.873 J-0.065 F1000
X122.312 Y22.133 I-1.685 J-0.822 F1400
G1 X120.497 Y21.221
G3 X120.517 Y17.861 I0.842 J-1.675
X121.274 Y17.673 I0.822 J1.685 F1000
G1 X122.956 F1400
X123.237 Y17.675
X123.517 Y17.712
X123.798 Y17.794
X124.078 Y17.928
X124.202 Y18.006
X124.421 Y18.181
X124.639 Y18.42
X124.741 Y18.566
X124.885 Y18.846
X124.976 Y19.126
X125.021 Y19.406
X125.027 Y19.686
Y25.545
X125.014 Y25.645 Z-4.993 F1000
X125 Y25.743 Z-4.974
X124.987 Y25.837 Z-4.942
X124.974 Y25.927 Z-4.898
X124.946 Y26.005 Z-4.844
X124.921 Y26.076 Z-4.78
X124.898 Y26.139 Z-4.707
X124.879 Y26.192 Z-4.627
X124.864 Y26.236 Z-4.539
X124.852 Y26.269 Z-4.447
X124.844 Y26.291 Z-4.351
X124.84 Y26.299 Z-4.283
X124.839 Y26.301 Z-4.215
G0 Z5
X47.464 Y50.199
Z-2.5
G3 X38.02 Y35.101 Z-3.477 I-4.722 J-7.549 F670
X47.464 Y50.199 Z-4.454 I4.722 J7.549
X38.02 Y35.101 Z-5.43 I-4.722 J-7.549
X47.464 Y50.199 Z-6.407 I4.722 J7.549
X38.02 Y35.101 Z-7.384 I-4.722 J-7.549
X47.464 Y50.199 Z-8.361 I4.722 J7.549
X38.02 Y35.101 Z-9.338 I-4.722 J-7.549
X51.646 Y42.65 Z-10 I4.722 J7.549
X33.838 I-8.904
X51.646 I8.904
G1 X51.648 Y43.049 F1400
X51.686 Y43.446
X51.76 Y43.838
X52.199 Y45.372
X52.262 Y45.5
X52.385 Y45.775
X52.497 Y46.09
X52.592 Y46.446
X52.664 Y46.842
X52.707 Y47.276
X52.716 Y47.746
X52.685 Y48.25
X52.609 Y48.785
X52.483 Y49.344
X52.302 Y49.925
X52.063 Y50.521
X51.761 Y51.125
X51.395 Y51.732
X50.963 Y52.333
X50.463 Y52.921
X49.898 Y53.488
X49.266 Y54.027
X48.571 Y54.529
X47.816 Y54.987
X47.005 Y55.394
X46.143 Y55.744
X45.235 Y56.029
X44.288 Y56.245
X43.308 Y56.387
X42.304 Y56.451
X41.283 Y56.434
X40.253 Y56.333
X39.222 Y56.148
X38.198 Y55.878
X37.19 Y55.524
X36.205 Y55.086
X35.252 Y54.566
X34.337 Y53.968
X33.469 Y53.294
X32.653 Y52.55
X31.896 Y51.738
X31.204 Y50.865
X30.582 Y49.936
X30.035 Y48.957
X29.567 Y47.934
X29.182 Y46.875
X28.882 Y45.787
X28.671 Y44.675
X28.549 Y43.549
X28.518 Y42.415
X28.578 Y41.28
X28.729 Y40.153
X28.97 Y39.041
X29.3 Y37.951
X29.717 Y36.89
X30.218 Y35.865
X30.799 Y34.884
X31.458 Y33.951
X32.19 Y33.075
X32.99 Y32.259
X33.854 Y31.51
X34.775 Y30.833
X35.747 Y30.232
X36.765 Y29.71
X37.822 Y29.272
X38.91 Y28.92
X40.024 Y28.657
X41.155 Y28.483
X42.296 Y28.401
X43.441 Y28.411
X44.581 Y28.513
X45.709 Y28.706
X46.818 Y28.988
X47.902 Y29.359
X48.951 Y29.816
X49.961 Y30.356
X50.925 Y30.974
X51.835 Y31.669
X52.687 Y32.434
X53.475 Y33.265
X54.193 Y34.156
X54.886 Y35.172
X55.675 Y36.559
X56.415 Y37.973
X57.08 Y39.423
X57.645 Y40.916
X58.05 Y42.309
X58.325 Y43.649
X58.486 Y44.957
X58.539 Y46.232
X58.492 Y47.481
X58.345 Y48.707
X58.102 Y49.911
X57.764 Y51.092
X57.33 Y52.245
X56.802 Y53.366
X56.18 Y54.45
X55.467 Y55.491
X54.665 Y56.481
X53.774 Y57.415
X52.798 Y58.287
X51.74 Y59.089
X50.605 Y59.813
X49.399 Y60.454
X48.129 Y61.002
X46.801 Y61.453
X45.425 Y61.8
X44.009 Y62.038
X42.562 Y62.163
X41.096 Y62.171
X39.62 Y62.061
X38.146 Y61.831
X36.684 Y61.481
X35.244 Y61.011
X33.836 Y60.423
X32.472 Y59.719
X31.161 Y58.903
X29.912 Y57.98
X28.736 Y56.954
X27.641 Y55.832
X26.636 Y54.621
X25.727 Y53.328
X24.923 Y51.963
X24.229 Y50.532
X23.65 Y49.047
X23.192 Y47.519
X22.858 Y45.958
X22.65 Y44.376
X22.568 Y42.783
X22.614 Y41.187
X22.787 Y39.601
X23.086 Y38.034
X23.508 Y36.495
X24.05 Y34.994
X24.71 Y33.541
X25.483 Y32.145
X26.364 Y30.814
X27.347 Y29.558
X28.427 Y28.383
X29.596 Y27.297
X30.848 Y26.307
X32.174 Y25.419
X33.565 Y24.638
X35.014 Y23.97
X36.511 Y23.418
X38.048 Y22.985
X39.613 Y22.676
X41.198 Y22.491
X42.793 Y22.431
X44.387 Y22.498
X45.971 Y22.69
X47.535 Y23.006
X49.069 Y23.445
X50.564 Y24.003
X52.01 Y24.678
X53.399 Y25.464
X54.721 Y26.358
X55.97 Y27.351
X57.14 Y28.436
X58.238 Y29.594
X59.261 Y30.819
X60.208 Y32.103
X61.078 Y33.441
X61.866 Y34.828
X62.569 Y36.261
X63.179 Y37.735
X63.692 Y39.247
X64.102 Y40.789
X64.407 Y42.355
X64.603 Y43.939
X64.688 Y45.532
X64.66 Y47.128
X64.519 Y48.717
X64.264 Y50.292
X63.896 Y51.845
X63.417 Y53.367
X62.828 Y54.85
X62.132 Y56.286
X61.333 Y57.668
X60.436 Y58.987
X59.446 Y60.239
X58.37 Y61.417
X57.214 Y62.517
X55.984 Y63.534
X54.686 Y64.461
X53.325 Y65.295
X51.91 Y66.032
X50.447 Y66.671
X48.945 Y67.21
X47.925 Y67.501
X47.628 Y67.571
X47.325 Y67.613
X47.019 Y67.627
X39.937
X38.344 Y67.548
X36.756 Y67.386
X35.186 Y67.102
X33.641 Y66.701
X32.131 Y66.187
X30.661 Y65.566
X29.238 Y64.844
X27.866 Y64.029
X26.551 Y63.125
X25.299 Y62.135
X24.115 Y61.065
X23.002 Y59.922
X21.962 Y58.712
X21.002 Y57.437
X20.125 Y56.104
X19.332 Y54.719
X18.626 Y53.288
X18.009 Y51.816
X17.854 Y51.369
X17.754 Y51.016
X17.693 Y50.655
X17.673 Y50.289
Y39.289
X17.752 Y37.696
X17.837 Y36.902
X18.058 Y35.4
X18.416 Y33.845
X18.895 Y32.323
X19.486 Y30.841
X20.181 Y29.404
X20.976 Y28.021
X21.865 Y26.696
X22.84 Y25.432
X23.893 Y24.234
X25.022 Y23.106
X26.222 Y22.054
X27.486 Y21.079
X28.807 Y20.184
X30.181 Y19.372
X31.603 Y18.649
X33.067 Y18.014
X33.462 Y17.871
X33.829 Y17.761
X34.206 Y17.695
X34.588 Y17.673
X46.108
X47.701 Y17.752
X49.18 Y17.891
X50.698 Y18.158
X52.243 Y18.559
X53.75 Y19.082
X55.214 Y19.717
X56.63 Y20.453
X57.994 Y21.281
X59.304 Y22.193
X60.555 Y23.183
X61.745 Y24.246
X62.874 Y25.374
X63.94 Y26.561
X64.943 Y27.803
X65.877 Y29.096
X66.74 Y30.438
X67.531 Y31.824
X68.249 Y33.249
X68.892 Y34.709
X69.455 Y36.203
X69.937 Y37.724
X70.337 Y39.269
X70.654 Y40.833
X70.886 Y42.411
X71.03 Y44.001
X71.087 Y45.595
X71.057 Y47.191
X70.94 Y48.782
X70.733 Y50.365
X70.438 Y51.933
X70.056 Y53.482
X69.59 Y55.008
X69.039 Y56.506
X68.403 Y57.969
X67.686 Y59.395
X66.891 Y60.779
X66.023 Y62.117
X65.079 Y63.404
X64.066 Y64.637
X62.986 Y65.812
X62.089 Y66.688
X61.766 Y66.965
X61.411 Y67.198
X61.028 Y67.384
X60.625 Y67.518
X60.207 Y67.6
X59.783 Y67.627
X47.019
G3 X46.263 Y67.439 I0.065 J-1.873 F1000
X45.784 Y67.104 I0.822 J-1.685 F1400
G1 X18.245 Y40.574
G3 X17.861 Y40.046 I1.301 J-1.35
X17.673 Y39.289 I1.685 J-0.822 F1000
G1 Y28.088 F1400
X17.718 Y27.175
X17.829 Y26.328
X18.035 Y25.366
X18.341 Y24.346
X18.764 Y23.259
X19.334 Y22.084
X20.061 Y20.849
X20.942 Y19.595
X21.548 Y18.865
X21.882 Y18.517
X22.264 Y18.222
X22.685 Y17.986
X23.135 Y17.813
X23.606 Y17.708
X24.087 Y17.673
X34.588
G3 X35.345 Y17.861 I-0.065 J1.873 F1000
X35.446 Y21.177 I-0.822 J1.685 F1400
G1 X20.469 Y29.654
G3 X17.861 Y28.844 I-0.923 J-1.631
X17.673 Y28.088 I1.685 J-0.822 F1000
G1 Y20.247 F1400
X17.695 Y19.796
X17.777 Y19.414
X17.918 Y19.05
X18.115 Y18.714
X18.364 Y18.413
X18.657 Y18.156
X18.988 Y17.949
X19.347 Y17.797
X19.726 Y17.704
X20.115 Y17.673
G3 X20.884 Y17.818 I-0.09 J2.591 F1000
X21.809 Y18.383 I-0.859 J2.446 F1400
X18.435 Y21.939 I-1.687 J1.778
X17.824 Y21.014 I1.687 J-1.778
X17.673 Y20.247 I2.298 J-0.853 F1000
G1 Y19.686 F1400
X17.679 Y19.406
X17.724 Y19.126
X17.815 Y18.846
X17.959 Y18.566
X18.061 Y18.42
X18.279 Y18.181
X18.498 Y18.006
X18.622 Y17.928
X18.902 Y17.794
X19.183 Y17.712
X19.463 Y17.675
X19.744 Y17.673
X24.087
G3 X24.844 Y17.861 I-0.065 J1.873 F1000
X25.795 Y18.938 I-0.822 J1.685 F1400
G1 X41.645 Y65.146
G3 X40.694 Y67.439 I-1.773 J0.608
X39.937 Y67.627 I-0.822 J-1.685 F1000
G1 X28.158 F1400
X27.443 Y67.592
X26.563 Y67.476
X25.591 Y67.268
X24.568 Y66.962
X23.443 Y66.524
X22.252 Y65.946
X21.038 Y65.231
X19.774 Y64.343
X18.865 Y63.589
X18.517 Y63.254
X18.222 Y62.873
X17.986 Y62.452
X17.813 Y62.002
X17.708 Y61.531
X17.673 Y61.049
Y50.289
G3 X17.861 Y49.532 I1.873 J0.065 F1000
X21.185 Y49.445 I1.685 J0.822 F1400
G1 X29.731 Y64.844
G3 X28.914 Y67.439 I-1.639 J0.91
X28.158 Y67.627 I-0.822 J-1.685 F1000
G1 X20.304 F1400
X19.91 Y67.608
X19.508 Y67.522
X19.125 Y67.373
X18.77 Y67.165
X18.453 Y66.903
X18.182 Y66.594
X17.963 Y66.246
X17.803 Y65.867
X17.705 Y65.467
X17.673 Y65.058
G3 X17.818 Y64.289 I2.591 J0.09 F1000
X18.409 Y63.337 I2.446 J0.859 F1400
X22.024 Y66.867 I1.808 J1.765
X21.073 Y67.479 I-1.808 J-1.765
X20.304 Y67.627 I-0.856 J-2.377 F1000
G1 X19.744 F1400
X19.463 Y67.625
X19.183 Y67.588
X18.902 Y67.506
X18.622 Y67.372
X18.498 Y67.294
X18.279 Y67.119
X18.061 Y66.88
X17.959 Y66.734
X17.815 Y66.454
X17.724 Y66.174
X17.679 Y65.894
X17.673 Y65.614
Y61.049
G3 X17.861 Y60.293 I1.873 J0.065 F1000
G1 X17.912 Y60.197 F1400
X17.968 Y60.104
X44.595 Y18.535
G3 X45.351 Y17.861 I1.578 J1.011
X46.108 Y17.673 I0.822 J1.685 F1000
G1 X57.327 F1400
X58.424 Y17.728
X59.314 Y17.844
X60.315 Y18.058
X61.374 Y18.376
X62.539 Y18.829
X63.798 Y19.44
X65.132 Y20.226
X66.438 Y21.143
X67.671 Y22.156
X68.83 Y23.253
X69.916 Y24.422
X70.93 Y25.654
X71.873 Y26.941
X72.746 Y28.277
X73.548 Y29.656
X74.279 Y31.075
X74.938 Y32.528
X75.525 Y34.012
X76.041 Y35.522
X76.486 Y37.054
X76.86 Y38.606
X77.16 Y40.173
X77.387 Y41.752
X77.541 Y43.341
X77.623 Y44.934
X77.633 Y46.53
X77.57 Y48.125
X77.433 Y49.714
X77.223 Y51.296
X76.942 Y52.867
X76.59 Y54.424
X76.169 Y55.963
X75.676 Y57.48
X75.115 Y58.974
X74.486 Y60.441
X73.792 Y61.878
X73.035 Y63.282
X72.214 Y64.65
X71.331 Y65.98
X71.1 Y66.291
X70.816 Y66.626
X70.489 Y66.921
X70.126 Y67.169
X69.733 Y67.367
X69.318 Y67.511
X68.887 Y67.598
X68.448 Y67.627
X59.783
G3 X59.027 Y67.439 I0.065 J-1.873 F1000
X57.977 Y65.854 I0.822 J-1.685 F1400
G1 X55.52 Y19.645
G3 X56.57 Y17.861 I1.872 J-0.1
X57.327 Y17.673 I0.822 J1.685 F1000
G1 X65.741 F1400
X66.508 Y17.711
X67.278 Y17.812
X68.119 Y17.992
X69.06 Y18.274
X70.044 Y18.657
X71.122 Y19.18
X72.281 Y19.862
X73.497 Y20.716
X74.725 Y21.736
X75.869 Y22.848
X76.931 Y24.039
X77.914 Y25.296
X78.82 Y26.609
X79.652 Y27.971
X80.411 Y29.375
X81.1 Y30.814
X81.719 Y32.285
X82.269 Y33.783
X82.75 Y35.304
X83.164 Y36.845
X83.513 Y38.403
X83.796 Y39.973
X84.016 Y41.554
X84.171 Y43.142
X84.26 Y44.735
X84.286 Y46.331
X84.248 Y47.926
X84.148 Y49.518
X83.988 Y51.106
X83.765 Y52.686
X83.48 Y54.256
X83.134 Y55.814
X82.727 Y57.357
X82.263 Y58.884
X81.741 Y60.392
X81.161 Y61.879
X80.525 Y63.342
X79.827 Y64.777
X79.045 Y66.168
X78.764 Y66.532
X78.434 Y66.853
X78.062 Y67.124
X77.657 Y67.341
X77.225 Y67.499
X76.775 Y67.595
X76.316 Y67.627
X68.448
G3 X67.692 Y67.439 I0.065 J-1.873 F1000
X66.642 Y65.864 I0.822 J-1.685 F1400
G1 X63.935 Y19.656
G3 X64.984 Y17.861 I1.871 J-0.11
X65.741 Y17.673 I0.822 J1.685 F1000
G1 X73.033 F1400
X73.909 Y17.716
X74.642 Y17.813
X75.411 Y17.977
X76.287 Y18.24
X77.199 Y18.595
X78.197 Y19.079
X79.274 Y19.713
X80.395 Y20.5
X81.564 Y21.471
X82.706 Y22.585
X83.761 Y23.782
X84.732 Y25.048
X85.623 Y26.372
X86.437 Y27.745
X87.178 Y29.158
X87.847 Y30.607
X88.447 Y32.085
X88.98 Y33.59
X89.447 Y35.116
X89.85 Y36.66
X90.19 Y38.218
X90.47 Y39.789
X90.691 Y41.37
X90.853 Y42.957
X90.956 Y44.55
X91.001 Y46.145
X90.99 Y47.741
X90.922 Y49.335
X90.799 Y50.926
X90.621 Y52.512
X90.39 Y54.091
X90.106 Y55.661
X89.768 Y57.22
X89.377 Y58.767
X88.934 Y60.3
X88.438 Y61.817
X87.887 Y63.315
X87.259 Y64.782
X86.714 Y65.838
X86.481 Y66.225
X86.197 Y66.575
X85.867 Y66.884
X85.499 Y67.145
X85.098 Y67.353
X84.673 Y67.504
X84.231 Y67.597
X83.781 Y67.627
X76.316
G3 X75.559 Y67.439 I0.065 J-1.873 F1000
X74.511 Y65.887 I0.822 J-1.685 F1400
G1 X71.228 Y19.679
G3 X72.276 Y17.861 I1.87 J-0.133
X73.033 Y17.673 I0.822 J1.685 F1000
G1 X80.325 F1400
X80.963 Y17.705
X81.674 Y17.798
X82.413 Y17.956
X83.256 Y18.208
X84.141 Y18.553
X85.099 Y19.018
X86.137 Y19.629
X87.217 Y20.388
X88.343 Y21.322
X89.485 Y22.437
X90.537 Y23.637
X91.502 Y24.907
X92.386 Y26.236
X93.191 Y27.614
X93.922 Y29.032
X94.582 Y30.485
X95.173 Y31.967
X95.698 Y33.474
X96.16 Y35.002
X96.56 Y36.546
X96.9 Y38.106
X97.182 Y39.676
X97.408 Y41.256
X97.579 Y42.842
X97.697 Y44.434
X97.761 Y46.028
X97.772 Y47.624
X97.732 Y49.219
X97.641 Y50.812
X97.501 Y52.402
X97.312 Y53.986
X97.074 Y55.564
X96.789 Y57.134
X96.455 Y58.695
X96.069 Y60.243
X95.627 Y61.776
X95.121 Y63.29
X94.528 Y64.771
X93.914 Y66.019
X93.634 Y66.417
X93.299 Y66.77
X92.916 Y67.069
X92.493 Y67.309
X92.04 Y67.485
X91.565 Y67.592
X91.08 Y67.627
X83.781
G3 X83.024 Y67.439 I0.065 J-1.873 F1000
X81.977 Y65.894 I0.822 J-1.685 F1400
G1 X78.521 Y19.686
G3 X79.569 Y17.861 I1.869 J-0.14
X80.325 Y17.673 I0.822 J1.685 F1000
G1 X87.056 F1400
X87.877 Y17.714
X88.571 Y17.805
X89.298 Y17.96
X90.119 Y18.206
X90.992 Y18.546
X91.926 Y19
X92.942 Y19.597
X94.003 Y20.343
X95.106 Y21.259
X96.249 Y22.373
X97.299 Y23.575
X98.261 Y24.847
X99.141 Y26.179
X99.941 Y27.559
X100.667 Y28.98
X101.323 Y30.435
X101.911 Y31.918
X102.434 Y33.426
X102.895 Y34.954
X103.296 Y36.498
X103.639 Y38.057
X103.927 Y39.626
X104.161 Y41.205
X104.342 Y42.79
X104.473 Y44.38
X104.555 Y45.974
X104.587 Y47.57
X104.571 Y49.165
X104.509 Y50.76
X104.399 Y52.352
X104.244 Y53.94
X104.043 Y55.523
X103.795 Y57.099
X103.5 Y58.667
X103.15 Y60.224
X102.741 Y61.767
X102.266 Y63.29
X101.701 Y64.764
X101.122 Y65.976
X101.117 Y65.985
X100.838 Y66.391
X100.503 Y66.751
X100.118 Y67.057
X99.692 Y67.302
X99.233 Y67.482
X98.754 Y67.591
X98.263 Y67.627
X91.08
G3 X90.323 Y67.439 I0.065 J-1.873 F1000
X89.278 Y65.917 I0.822 J-1.685 F1400
G1 X85.254 Y19.709
G3 X86.3 Y17.861 I1.867 J-0.163
X87.056 Y17.673 I0.822 J1.685 F1000
G1 X93.788 F1400
X94.698 Y17.718
X95.383 Y17.808
X96.105 Y17.963
X96.917 Y18.206
X97.783 Y18.543
X98.707 Y18.991
X99.713 Y19.583
X100.765 Y20.323
X101.859 Y21.23
X103.001 Y22.345
X104.05 Y23.547
X105.012 Y24.821
X105.89 Y26.153
X106.689 Y27.534
X107.414 Y28.955
X108.07 Y30.411
X108.658 Y31.894
X109.183 Y33.401
X109.647 Y34.928
X110.052 Y36.471
X110.401 Y38.028
X110.697 Y39.596
X110.94 Y41.173
X111.134 Y42.757
X111.279 Y44.346
X111.377 Y45.939
X111.429 Y47.534
X111.436 Y49.13
X111.397 Y50.725
X111.313 Y52.318
X111.185 Y53.909
X111.011 Y55.495
X110.79 Y57.076
X110.521 Y58.648
X110.197 Y60.211
X109.81 Y61.759
X109.353 Y63.288
X108.816 Y64.73
X108.257 Y65.926
X108.239 Y65.959
X107.962 Y66.371
X107.626 Y66.736
X107.239 Y67.047
X106.81 Y67.297
X106.349 Y67.479
X105.865 Y67.59
X105.37 Y67.627
X98.263
G3 X97.507 Y67.439 I0.065 J-1.873 F1000
X96.463 Y65.935 I0.822 J-1.685 F1400
G1 X91.987 Y19.727
G3 X93.031 Y17.861 I1.866 J-0.181
X93.788 Y17.673 I0.822 J1.685 F1000
G1 X100.827 F1400
X101.462 Y17.704
X102.145 Y17.794
X102.866 Y17.948
X103.675 Y18.19
X104.539 Y18.527
X105.461 Y18.974
X106.464 Y19.565
X107.515 Y20.303
X108.607 Y21.21
X109.749 Y22.324
X110.799 Y23.526
X111.76 Y24.8
X112.639 Y26.132
X113.439 Y27.513
X114.166 Y28.933
X114.823 Y30.387
X115.415 Y31.869
X115.944 Y33.375
X116.413 Y34.9
X116.825 Y36.442
X117.182 Y37.997
X117.487 Y39.563
X117.742 Y41.138
X117.949 Y42.721
X118.108 Y44.308
X118.222 Y45.9
X118.292 Y47.494
X118.317 Y49.09
X118.298 Y50.685
X118.236 Y52.28
X118.128 Y53.872
X117.975 Y55.46
X117.775 Y57.044
X117.525 Y58.62
X117.219 Y60.186
X116.848 Y61.738
X116.403 Y63.27
X115.883 Y64.696
X115.338 Y65.884
X115.307 Y65.94
X115.031 Y66.356
X114.695 Y66.725
X114.307 Y67.04
X113.876 Y67.292
X113.412 Y67.477
X112.926 Y67.59
X112.428 Y67.627
X105.37
G3 X104.614 Y67.439 I0.065 J-1.873 F1000
X103.57 Y65.937 I0.822 J-1.685 F1400
G1 X99.027 Y19.729
G3 X100.071 Y17.861 I1.866 J-0.183
X100.827 Y17.673 I0.822 J1.685 F1000
G1 X107.811 F1400
X108.219 Y17.693
X108.9 Y17.782
X109.621 Y17.937
X110.429 Y18.179
X111.294 Y18.515
X112.216 Y18.963
X113.219 Y19.554
X114.273 Y20.293
X115.367 Y21.202
X116.509 Y22.316
X117.559 Y23.518
X118.521 Y24.791
X119.401 Y26.123
X120.203 Y27.502
X120.933 Y28.921
X121.593 Y30.374
X122.189 Y31.854
X122.723 Y33.358
X123.199 Y34.881
X123.618 Y36.421
X123.984 Y37.974
X124.299 Y39.538
X124.565 Y41.112
X124.784 Y42.692
X124.957 Y44.279
X125.017 Y45.026
X125.023 Y45.114
X125.026 Y45.202
X125.027 Y45.291
Y50.491
X124.948 Y52.085
X124.9 Y53.68
X124.799 Y55.273
X124.645 Y56.861
X124.437 Y58.443
X124.166 Y60.015
X123.826 Y61.575
X123.41 Y63.115
X122.92 Y64.536
X122.4 Y65.724
X122.312 Y65.889
X122.075 Y66.265
X121.791 Y66.606
X121.463 Y66.906
X121.098 Y67.16
X120.702 Y67.361
X120.283 Y67.508
X119.848 Y67.597
X119.404 Y67.627
X112.428
G3 X111.671 Y67.439 I0.065 J-1.873 F1000
X110.959 Y64.678 I0.822 J-1.685 F1400
G1 X121.619 Y49.48
G3 X124.839 Y49.735 I1.535 J1.076
X125.027 Y50.491 I-1.685 J0.822 F1000
G1 Y65.614 F1400
X125.021 Y65.894
X124.976 Y66.174
X124.885 Y66.454
X124.741 Y66.734
X124.639 Y66.88
X124.421 Y67.119
X124.202 Y67.294
X124.078 Y67.372
X123.798 Y67.506
X123.517 Y67.588
X123.237 Y67.625
X122.956 Y67.627
X119.404
G3 X118.648 Y67.439 I0.065 J-1.873 F1000
X117.652 Y66.21 I0.822 J-1.685 F1400
G1 X106.058 Y20.002
G3 X107.055 Y17.861 I1.818 J-0.456
X107.811 Y17.673 I0.822 J1.685 F1000
G1 X114.542 F1400
X114.987 Y17.695
X115.668 Y17.784
X116.39 Y17.939
X117.197 Y18.18
X118.064 Y18.518
X118.986 Y18.965
X119.991 Y19.557
X121.048 Y20.3
X122.147 Y21.212
X123.289 Y22.326
X124.339 Y23.528
X124.359 Y23.553
X124.594 Y23.91
X124.781 Y24.294
X124.917 Y24.699
X125 Y25.118
X125.027 Y25.545
Y45.291
G3 X124.839 Y46.047 I-1.873 J-0.065 F1000
X121.375 Y45.817 I-1.685 J-0.822 F1400
G1 X112.829 Y20.138
G3 X113.786 Y17.861 I1.779 J-0.592
X114.542 Y17.673 I0.822 J1.685 F1000
G1 X121.274 F1400
X121.761 Y17.697
X122.442 Y17.786
X123.093 Y17.926
X123.497 Y18.083
X123.871 Y18.302
X124.205 Y18.578
X124.491 Y18.904
X124.721 Y19.272
X124.89 Y19.671
X124.993 Y20.092
X125.027 Y20.524
G3 X124.839 Y21.28 I-1.873 J-0.065 F1000
X122.312 Y22.133 I-1.685 J-0.822 F1400
G1 X120.497 Y21.221
G3 X120.517 Y17.861 I0.842 J-1.675
X121.274 Y17.673 I0.822 J1.685 F1000
G1 X122.956 F1400
X123.237 Y17.675
X123.517 Y17.712
X123.798 Y17.794
X124.078 Y17.928
X124.202 Y18.006
X124.421 Y18.181
X124.639 Y18.42
X124.741 Y18.566
X124.885 Y18.846
X124.976 Y19.126
X125.021 Y19.406
X125.027 Y19.686
Y25.545
X125.014 Y25.645 Z-9.993 F1000
X125 Y25.743 Z-9.974
X124.987 Y25.837 Z-9.942
X124.974 Y25.927 Z-9.898
X124.946 Y26.005 Z-9.844
X124.921 Y26.076 Z-9.78
X124.898 Y26.139 Z-9.707
X124.879 Y26.192 Z-9.627
X124.864 Y26.236 Z-9.539
X124.852 Y26.269 Z-9.447
X124.844 Y26.291 Z-9.351
X124.84 Y26.299 Z-9.283
X124.839 Y26.301 Z-9.215
G0 Z5
X47.464 Y50.199
Z-7.5
G3 X38.02 Y35.101 Z-8.477 I-4.722 J-7.549 F670
X47.464 Y50.199 Z-9.454 I4.722 J7.549
X38.02 Y35.101 Z-10.43 I-4.722 J-7.549
X47.464 Y50.199 Z-11.407 I4.722 J7.549
X38.02 Y35.101 Z-12.384 I-4.722 J-7.549
X47.464 Y50.199 Z-13.361 I4.722 J7.549
X38.02 Y35.101 Z-14.338 I-4.722 J-7.549
X51.646 Y42.65 Z-15 I4.722 J7.549
X33.838 I-8.904
X51.646 I8.904
G1 X51.648 Y43.049 F1400
X51.686 Y43.446
X51.76 Y43.838
X52.199 Y45.372
X52.262 Y45.5
X52.385 Y45.775
X52.497 Y46.09
X52.592 Y46.446
X52.664 Y46.842
X52.707 Y47.276
X52.716 Y47.746
X52.685 Y48.25
X52.609 Y48.785
X52.483 Y49.344
X52.302 Y49.925
X52.063 Y50.521
X51.761 Y51.125
X51.395 Y51.732
X50.963 Y52.333
X50.463 Y52.921
X49.898 Y53.488
X49.266 Y54.027
X48.571 Y54.529
X47.816 Y54.987
X47.005 Y55.394
X46.143 Y55.744
X45.235 Y56.029
X44.288 Y56.245
X43.308 Y56.387
X42.304 Y56.451
X41.283 Y56.434
X40.253 Y56.333
X39.222 Y56.148
X38.198 Y55.878
X37.19 Y55.524
X36.205 Y55.086
X35.252 Y54.566
X34.337 Y53.968
X33.469 Y53.294
X32.653 Y52.55
X31.896 Y51.738
X31.204 Y50.865
X30.582 Y49.936
X30.035 Y48.957
X29.567 Y47.934
X29.182 Y46.875
X28.882 Y45.787
X28.671 Y44.675
X28.549 Y43.549
X28.518 Y42.415
X28.578 Y41.28
X28.729 Y40.153
X28.97 Y39.041
X29.3 Y37.951
X29.717 Y36.89
X30.218 Y35.865
X30.799 Y34.884
X31.458 Y33.951
X32.19 Y33.075
X32.99 Y32.259
X33.854 Y31.51
X34.775 Y30.833
X35.747 Y30.232
X36.765 Y29.71
X37.822 Y29.272
X38.91 Y28.92
X40.024 Y28.657
X41.155 Y28.483
X42.296 Y28.401
X43.441 Y28.411
X44.581 Y28.513
X45.709 Y28.706
X46.818 Y28.988
X47.902 Y29.359
X48.951 Y29.816
X49.961 Y30.356
X50.925 Y30.974
X51.835 Y31.669
X52.687 Y32.434
X53.475 Y33.265
X54.193 Y34.156
X54.886 Y35.172
X55.675 Y36.559
X56.415 Y37.973
X57.08 Y39.423
X57.645 Y40.916
X58.05 Y42.309
X58.325 Y43.649
X58.486 Y44.957
X58.539 Y46.232
X58.492 Y47.481
X58.345 Y48.707
X58.102 Y49.911
X57.764 Y51.092
X57.33 Y52.245
X56.802 Y53.366
X56.18 Y54.45
X55.467 Y55.491
X54.665 Y56.481
X53.774 Y57.415
X52.798 Y58.287
X51.74 Y59.089
X50.605 Y59.813
X49.399 Y60.454
X48.129 Y61.002
X46.801 Y61.453
X45.425 Y61.8
X44.009 Y62.038
X42.562 Y62.163
X41.096 Y62.171
X39.62 Y62.061
X38.146 Y61.831
X36.684 Y61.481
X35.244 Y61.011
X33.836 Y60.423
X32.472 Y59.719
X31.161 Y58.903
X29.912 Y57.98
X28.736 Y56.954
X27.641 Y55.832
X26.636 Y54.621
X25.727 Y53.328
X24.923 Y51.963
X24.229 Y50.532
X23.65 Y49.047
X23.192 Y47.519
X22.858 Y45.958
X22.65 Y44.376
X22.568 Y42.783
X22.614 Y41.187
X22.787 Y39.601
X23.086 Y38.034
X23.508 Y36.495
X24.05 Y34.994
X24.71 Y33.541
X25.483 Y32.145
X26.364 Y30.814
X27.347 Y29.558
X28.427 Y28.383
X29.596 Y27.297
X30.848 Y26.307
X32.174 Y25.419
X33.565 Y24.638
X35.014 Y23.97
X36.511 Y23.418
X38.048 Y22.985
X39.613 Y22.676
X41.198 Y22.491
X42.793 Y22.431
X44.387 Y22.498
X45.971 Y22.69
X47.535 Y23.006
X49.069 Y23.445
X50.564 Y24.003
X52.01 Y24.678
X53.399 Y25.464
X54.721 Y26.358
X55.97 Y27.351
X57.14 Y28.436
X58.238 Y29.594
X59.261 Y30.819
X60.208 Y32.103
X61.078 Y33.441
X61.866 Y34.828
X62.569 Y36.261
X63.179 Y37.735
X63.692 Y39.247
X64.102 Y40.789
X64.407 Y42.355
X64.603 Y43.939
X64.688 Y45.532
X64.66 Y47.128
X64.519 Y48.717
X64.264 Y50.292
X63.896 Y51.845
X63.417 Y53.367
X62.828 Y54.85
X62.132 Y56.286
X61.333 Y57.668
X60.436 Y58.987
X59.446 Y60.239
X58.37 Y61.417
X57.214 Y62.517
X55.984 Y63.534
X54.686 Y64.461
X53.325 Y65.295
X51.91 Y66.032
X50.447 Y66.671
X48.945 Y67.21
X47.925 Y67.501
X47.628 Y67.571
X47.325 Y67.613
X47.019 Y67.627
X39.937
X38.344 Y67.548
X36.756 Y67.386
X35.186 Y67.102
X33.641 Y66.701
X32.131 Y66.187
X30.661 Y65.566
X29.238 Y64.844
X27.866 Y64.029
X26.551 Y63.125
X25.299 Y62.135
X24.115 Y61.065
X23.002 Y59.922
X21.962 Y58.712
X21.002 Y57.437
X20.125 Y56.104
X19.332 Y54.719
X18.626 Y53.288
X18.009 Y51.816
X17.854 Y51.369
X17.754 Y51.016
X17.693 Y50.655
X17.673 Y50.289
Y39.289
X17.752 Y37.696
X17.837 Y36.902
X18.058 Y35.4
X18.416 Y33.845
X18.895 Y32.323
X19.486 Y30.841
X20.181 Y29.404
X20.976 Y28.021
X21.865 Y26.696
X22.84 Y25.432
X23.893 Y24.234
X25.022 Y23.106
X26.222 Y22.054
X27.486 Y21.079
X28.807 Y20.184
X30.181 Y19.372
X31.603 Y18.649
X33.067 Y18.014
X33.462 Y17.871
X33.829 Y17.761
X34.206 Y17.695
X34.588 Y17.673
X46.108
X47.701 Y17.752
X49.18 Y17.891
X50.698 Y18.158
X52.243 Y18.559
X53.75 Y19.082
X55.214 Y19.717
X56.63 Y20.453
X57.994 Y21.281
X59.304 Y22.193
X60.555 Y23.183
X61.745 Y24.246
X62.874 Y25.374
X63.94 Y26.561
X64.943 Y27.803
X65.877 Y29.096
X66.74 Y30.438
X67.531 Y31.824
X68.249 Y33.249
X68.892 Y34.709
X69.455 Y36.203
X69.937 Y37.724
X70.337 Y39.269
X70.654 Y40.833
X70.886 Y42.411
X71.03 Y44.001
X71.087 Y45.595
X71.057 Y47.191
X70.94 Y48.782
X70.733 Y50.365
X70.438 Y51.933
X70.056 Y53.482
X69.59 Y55.008
X69.039 Y56.506
X68.403 Y57.969
X67.686 Y59.395
X66.891 Y60.779
X66.023 Y62.117
X65.079 Y63.404
X64.066 Y64.637
X62.986 Y65.812
X62.089 Y66.688
X61.766 Y66.965
X61.411 Y67.198
X61.028 Y67.384
X60.625 Y67.518
X60.207 Y67.6
X59.783 Y67.627
X47.019
G3 X46.263 Y67.439 I0.065 J-1.873 F1000
X45.784 Y67.104 I0.822 J-1.685 F1400
G1 X18.245 Y40.574
G3 X17.861 Y40.046 I1.301 J-1.35
X17.673 Y39.289 I1.685 J-0.822 F1000
G1 Y28.088 F1400
X17.718 Y27.175
X17.829 Y26.328
X18.035 Y25.366
X18.341 Y24.346
X18.764 Y23.259
X19.334 Y22.084
X20.061 Y20.849
X20.942 Y19.595
X21.548 Y18.865
X21.882 Y18.517
X22.264 Y18.222
X22.685 Y17.986
X23.135 Y17.813
X23.606 Y17.708
X24.087 Y17.673
X34.588
G3 X35.345 Y17.861 I-0.065 J1.873 F1000
X35.446 Y21.177 I-0.822 J1.685 F1400
G1 X20.469 Y29.654
G3 X17.861 Y28.844 I-0.923 J-1.631
X17.673 Y28.088 I1.685 J-0.822 F1000
G1 Y20.247 F1400
X17.695 Y19.796
X17.777 Y19.414
X17.918 Y19.05
X18.115 Y18.714
X18.364 Y18.413
X18.657 Y18.156
X18.988 Y17.949
X19.347 Y17.797
X19.726 Y17.704
X20.115 Y17.673
G3 X20.884 Y17.818 I-0.09 J2.591 F1000
X21.809 Y18.383 I-0.859 J2.446 F1400
X18.435 Y21.939 I-1.687 J1.778
X17.824 Y21.014 I1.687 J-1.778
X17.673 Y20.247 I2.298 J-0.853 F1000
G1 Y19.686 F1400
X17.679 Y19.406
X17.724 Y19.126
X17.815 Y18.846
X17.959 Y18.566
X18.061 Y18.42
X18.279 Y18.181
X18.498 Y18.006
X18.622 Y17.928
X18.902 Y17.794
X19.183 Y17.712
X19.463 Y17.675
X19.744 Y17.673
X24.087
G3 X24.844 Y17.861 I-0.065 J1.873 F1000
X25.795 Y18.938 I-0.822 J1.685 F1400
G1 X41.645 Y65.146
G3 X40.694 Y67.439 I-1.773 J0.608
X39.937 Y67.627 I-0.822 J-1.685 F1000
G1 X28.158 F1400
X27.443 Y67.592
X26.563 Y67.476
X25.591 Y67.268
X24.568 Y66.962
X23.443 Y66.524
X22.252 Y65.946
X21.038 Y65.231
X19.774 Y64.343
X18.865 Y63.589
X18.517 Y63.254
X18.222 Y62.873
X17.986 Y62.452
X17.813 Y62.002
X17.708 Y61.531
X17.673 Y61.049
Y50.289
G3 X17.861 Y49.532 I1.873 J0.065 F1000
X21.185 Y49.445 I1.685 J0.822 F1400
G1 X29.731 Y64.844
G3 X28.914 Y67.439 I-1.639 J0.91
X28.158 Y67.627 I-0.822 J-1.685 F1000
G1 X20.304 F1400
X19.91 Y67.608
X19.508 Y67.522
X19.125 Y67.373
X18.77 Y67.165
X18.453 Y66.903
X18.182 Y66.594
X17.963 Y66.246
X17.803 Y65.867
X17.705 Y65.467
X17.673 Y65.058
G3 X17.818 Y64.289 I2.591 J0.09 F1000
X18.409 Y63.337 I2.446 J0.859 F1400
X22.024 Y66.867 I1.808 J1.765
X21.073 Y67.479 I-1.808 J-1.765
X20.304 Y67.627 I-0.856 J-2.377 F1000
G1 X19.744 F1400
X19.463 Y67.625
X19.183 Y67.588
X18.902 Y67.506
X18.622 Y67.372
X18.498 Y67.294
X18.279 Y67.119
X18.061 Y66.88
X17.959 Y66.734
X17.815 Y66.454
X17.724 Y66.174
X17.679 Y65.894
X17.673 Y65.614
Y61.049
G3 X17.861 Y60.293 I1.873 J0.065 F1000
G1 X17.912 Y60.197 F1400
X17.968 Y60.104
X44.595 Y18.535
G3 X45.351 Y17.861 I1.578 J1.011
X46.108 Y17.673 I0.822 J1.685 F1000
G1 X57.327 F1400
X58.424 Y17.728
X59.314 Y17.844
X60.315 Y18.058
X61.374 Y18.376
X62.539 Y18.829
X63.798 Y19.44
X65.132 Y20.226
X66.438 Y21.143
X67.671 Y22.156
X68.83 Y23.253
X69.916 Y24.422
X70.93 Y25.654
X71.873 Y26.941
X72.746 Y28.277
X73.548 Y29.656
X74.279 Y31.075
X74.938 Y32.528
X75.525 Y34.012
X76.041 Y35.522
X76.486 Y37.054
X76.86 Y38.606
X77.16 Y40.173
X77.387 Y41.752
X77.541 Y43.341
X77.623 Y44.934
X77.633 Y46.53
X77.57 Y48.125
X77.433 Y49.714
X77.223 Y51.296
X76.942 Y52.867
X76.59 Y54.424
X76.169 Y55.963
X75.676 Y57.48
X75.115 Y58.974
X74.486 Y60.441
X73.792 Y61.878
X73.035 Y63.282
X72.214 Y64.65
X71.331 Y65.98
X71.1 Y66.291
X70.816 Y66.626
X70.489 Y66.921
X70.126 Y67.169
X69.733 Y67.367
X69.318 Y67.511
X68.887 Y67.598
X68.448 Y67.627
X59.783
G3 X59.027 Y67.439 I0.065 J-1.873 F1000
X57.977 Y65.854 I0.822 J-1.685 F1400
G1 X55.52 Y19.645
G3 X56.57 Y17.861 I1.872 J-0.1
X57.327 Y17.673 I0.822 J1.685 F1000
G1 X65.741 F1400
X66.508 Y17.711
X67.278 Y17.812
X68.119 Y17.992
X69.06 Y18.274
X70.044 Y18.657
X71.122 Y19.18
X72.281 Y19.862
X73.497 Y20.716
X74.725 Y21.736
X75.869 Y22.848
X76.931 Y24.039
X77.914 Y25.296
X78.82 Y26.609
X79.652 Y27.971
X80.411 Y29.375
X81.1 Y30.814
X81.719 Y32.285
X82.269 Y33.783
X82.75 Y35.304
X83.164 Y36.845
X83.513 Y38.403
X83.796 Y39.973
X84.016 Y41.554
X84.171 Y43.142
X84.26 Y44.735
X84.286 Y46.331
X84.248 Y47.926
X84.148 Y49.518
X83.988 Y51.106
X83.765 Y52.686
X83.48 Y54.256
X83.134 Y55.814
X82.727 Y57.357
X82.263 Y58.884
X81.741 Y60.392
X81.161 Y61.879
X80.525 Y63.342
X79.827 Y64.777
X79.045 Y66.168
X78.764 Y66.532
X78.434 Y66.853
X78.062 Y67.124
X77.657 Y67.341
X77.225 Y67.499
X76.775 Y67.595
X76.316 Y67.627
X68.448
G3 X67.692 Y67.439 I0.065 J-1.873 F1000
X66.642 Y65.864 I0.822 J-1.685 F1400
G1 X63.935 Y19.656
G3 X64.984 Y17.861 I1.871 J-0.11
X65.741 Y17.673 I0.822 J1.685 F1000
G1 X73.033 F1400
X73.909 Y17.716
X74.642 Y17.813
X75.411 Y17.977
X76.287 Y18.24
X77.199 Y18.595
X78.197 Y19.079
X79.274 Y19.713
X80.395 Y20.5
X81.564 Y21.471
X82.706 Y22.585
X83.761 Y23.782
X84.732 Y25.048
X85.623 Y26.372
X86.437 Y27.745
X87.178 Y29.158
X87.847 Y30.607
X88.447 Y32.085
X88.98 Y33.59
X89.447 Y35.116
X89.85 Y36.66
X90.19 Y38.218
X90.47 Y39.789
X90.691 Y41.37
X90.853 Y42.957
X90.956 Y44.55
X91.001 Y46.145
X90.99 Y47.741
X90.922 Y49.335
X90.799 Y50.926
X90.621 Y52.512
X90.39 Y54.091
X90.106 Y55.661
X89.768 Y57.22
X89.377 Y58.767
X88.934 Y60.3
X88.438 Y61.817
X87.887 Y63.315
X87.259 Y64.782
X86.714 Y65.838
X86.481 Y66.225
X86.197 Y66.575
X85.867 Y66.884
X85.499 Y67.145
X85.098 Y67.353
X84.673 Y67.504
X84.231 Y67.597
X83.781 Y67.627
X76.316
G3 X75.559 Y67.439 I0.065 J-1.873 F1000
X74.511 Y65.887 I0.822 J-1.685 F1400
G1 X71.228 Y19.679
G3 X72.276 Y17.861 I1.87 J-0.133
X73.033 Y17.673 I0.822 J1.685 F1000
G1 X80.325 F1400
X80.963 Y17.705
X81.674 Y17.798
X82.413 Y17.956
X83.256 Y18.208
X84.141 Y18.553
X85.099 Y19.018
X86.137 Y19.629
X87.217 Y20.388
X88.343 Y21.322
X89.485 Y22.437
X90.537 Y23.637
X91.502 Y24.907
X92.386 Y26.236
X93.191 Y27.614
X93.922 Y29.032
X94.582 Y30.485
X95.173 Y31.967
X95.698 Y33.474
X96.16 Y35.002
X96.56 Y36.546
X96.9 Y38.106
X97.182 Y39.676
X97.408 Y41.256
X97.579 Y42.842
X97.697 Y44.434
X97.761 Y46.028
X97.772 Y47.624
X97.732 Y49.219
X97.641 Y50.812
X97.501 Y52.402
X97.312 Y53.986
X97.074 Y55.564
X96.789 Y57.134
X96.455 Y58.695
X96.069 Y60.243
X95.627 Y61.776
X95.121 Y63.29
X94.528 Y64.771
X93.914 Y66.019
X93.634 Y66.417
X93.299 Y66.77
X92.916 Y67.069
X92.493 Y67.309
X92.04 Y67.485
X91.565 Y67.592
X91.08 Y67.627
X83.781
G3 X83.024 Y67.439 I0.065 J-1.873 F1000
X81.977 Y65.894 I0.822 J-1.685 F1400
G1 X78.521 Y19.686
G3 X79.569 Y17.861 I1.869 J-0.14
X80.325 Y17.673 I0.822 J1.685 F1000
G1 X87.056 F1400
X87.877 Y17.714
X88.571 Y17.805
X89.298 Y17.96
X90.119 Y18.206
X90.992 Y18.546
X91.926 Y19
X92.942 Y19.597
X94.003 Y20.343
X95.106 Y21.259
X96.249 Y22.373
X97.299 Y23.575
X98.261 Y24.847
X99.141 Y26.179
X99.941 Y27.559
X100.667 Y28.98
X101.323 Y30.435
X101.911 Y31.918
X102.434 Y33.426
X102.895 Y34.954
X103.296 Y36.498
X103.639 Y38.057
X103.927 Y39.626
X104.161 Y41.205
X104.342 Y42.79
X104.473 Y44.38
X104.555 Y45.974
X104.587 Y47.57
X104.571 Y49.165
X104.509 Y50.76
X104.399 Y52.352
X104.244 Y53.94
X104.043 Y55.523
X103.795 Y57.099
X103.5 Y58.667
X103.15 Y60.224
X102.741 Y61.767
X102.266 Y63.29
X101.701 Y64.764
X101.122 Y65.976
X101.117 Y65.985
X100.838 Y66.391
X100.503 Y66.751
X100.118 Y67.057
X99.692 Y67.302
X99.233 Y67.482
X98.754 Y67.591
X98.263 Y67.627
X91.08
G3 X90.323 Y67.439 I0.065 J-1.873 F1000
X89.278 Y65.917 I0.822 J-1.685 F1400
G1 X85.254 Y19.709
G3 X86.3 Y17.861 I1.867 J-0.163
X87.056 Y17.673 I0.822 J1.685 F1000
G1 X93.788 F1400
X94.698 Y17.718
X95.383 Y17.808
X96.105 Y17.963
X96.917 Y18.206
X97.783 Y18.543
X98.707 Y18.991
X99.713 Y19.583
X100.765 Y20.323
X101.859 Y21.23
X103.001 Y22.345
X104.05 Y23.547
X105.012 Y24.821
X105.89 Y26.153
X106.689 Y27.534
X107.414 Y28.955
X108.07 Y30.411
X108.658 Y31.894
X109.183 Y33.401
X109.647 Y34.928
X110.052 Y36.471
X110.401 Y38.028
X110.697 Y39.596
X110.94 Y41.173
X111.134 Y42.757
X111.279 Y44.346
X111.377 Y45.939
X111.429 Y47.534
X111.436 Y49.13
X111.397 Y50.725
X111.313 Y52.318
X111.185 Y53.909
X111.011 Y55.495
X110.79 Y57.076
X110.521 Y58.648
X110.197 Y60.211
X109.81 Y61.759
X109.353 Y63.288
X108.816 Y64.73
X108.257 Y65.926
X108.239 Y65.959
X107.962 Y66.371
X107.626 Y66.736
X107.239 Y67.047
X106.81 Y67.297
X106.349 Y67.479
X105.865 Y67.59
X105.37 Y67.627
X98.263
G3 X97.507 Y67.439 I0.065 J-1.873 F1000
X96.463 Y65.935 I0.822 J-1.685 F1400
G1 X91.987 Y19.727
G3 X93.031 Y17.861 I1.866 J-0.181
X93.788 Y17.673 I0.822 J1.685 F1000
G1 X100.827 F1400
X101.462 Y17.704
X102.145 Y17.794
X102.866 Y17.948
X103.675 Y18.19
X104.539 Y18.527
X105.461 Y18.974
X106.464 Y19.565
X107.515 Y20.303
X108.607 Y21.21
X109.749 Y22.324
X110.799 Y23.526
X111.76 Y24.8
X112.639 Y26.132
X113.439 Y27.513
X114.166 Y28.933
X114.823 Y30.387
X115.415 Y31.869
X115.944 Y33.375
X116.413 Y34.9
X116.825 Y36.442
X117.182 Y37.997
X117.487 Y39.563
X117.742 Y41.138
X117.949 Y42.721
X118.108 Y44.308
X118.222 Y45.9
X118.292 Y47.494
X118.317 Y49.09
X118.298 Y50.685
X118.236 Y52.28
X118.128 Y53.872
X117.975 Y55.46
X117.775 Y57.044
X117.525 Y58.62
X117.219 Y60.186
X116.848 Y61.738
X116.403 Y63.27
X115.883 Y64.696
X115.338 Y65.884
X115.307 Y65.94
X115.031 Y66.356
X114.695 Y66.725
X114.307 Y67.04
X113.876 Y67.292
X113.412 Y67.477
X112.926 Y67.59
X112.428 Y67.627
X105.37
G3 X104.614 Y67.439 I0.065 J-1.873 F1000
X103.57 Y65.937 I0.822 J-1.685 F1400
G1 X99.027 Y19.729
G3 X100.071 Y17.861 I1.866 J-0.183
X100.827 Y17.673 I0.822 J1.685 F1000
G1 X107.811 F1400
X108.219 Y17.693
X108.9 Y17.782
X109.621 Y17.937
X110.429 Y18.179
X111.294 Y18.515
X112.216 Y18.963
X113.219 Y19.554
X114.273 Y20.293
X115.367 Y21.202
X116.509 Y22.316
X117.559 Y23.518
X118.521 Y24.791
X119.401 Y26.123
X120.203 Y27.502
X120.933 Y28.921
X121.593 Y30.374
X122.189 Y31.854
X122.723 Y33.358
X123.199 Y34.881
X123.618 Y36.421
X123.984 Y37.974
X124.299 Y39.538
X124.565 Y41.112
X124.784 Y42.692
X124.957 Y44.279
X125.017 Y45.026
X125.023 Y45.114
X125.026 Y45.202
X125.027 Y45.291
Y50.491
X124.948 Y52.085
X124.9 Y53.68
X124.799 Y55.273
X124.645 Y56.861
X124.437 Y58.443
X124.166 Y60.015
X123.826 Y61.575
X123.41 Y63.115
X122.92 Y64.536
X122.4 Y65.724
X122.312 Y65.889
X122.075 Y66.265
X121.791 Y66.606
X121.463 Y66.906
X121.098 Y67.16
X120.702 Y67.361
X120.283 Y67.508
X119.848 Y67.597
X119.404 Y67.627
X112.428
G3 X111.671 Y67.439 I0.065 J-1.873 F1000
X110.959 Y64.678 I0.822 J-1.685 F1400
G1 X121.619 Y49.48
G3 X124.839 Y49.735 I1.535 J1.076
X125.027 Y50.491 I-1.685 J0.822 F1000
G1 Y65.614 F1400
X125.021 Y65.894
X124.976 Y66.174
X124.885 Y66.454
X124.741 Y66.734
X124.639 Y66.88
X124.421 Y67.119
X124.202 Y67.294
X124.078 Y67.372
X123.798 Y67.506
X123.517 Y67.588
X123.237 Y67.625
X122.956 Y67.627
X119.404
G3 X118.648 Y67.439 I0.065 J-1.873 F1000
X117.652 Y66.21 I0.822 J-1.685 F1400
G1 X106.058 Y20.002
G3 X107.055 Y17.861 I1.818 J-0.456
X107.811 Y17.673 I0.822 J1.685 F1000
G1 X114.542 F1400
X114.987 Y17.695
X115.668 Y17.784
X116.39 Y17.939
X117.197 Y18.18
X118.064 Y18.518
X118.986 Y18.965
X119.991 Y19.557
X121.048 Y20.3
X122.147 Y21.212
X123.289 Y22.326
X124.339 Y23.528
X124.359 Y23.553
X124.594 Y23.91
X124.781 Y24.294
X124.917 Y24.699
X125 Y25.118
X125.027 Y25.545
Y45.291
G3 X124.839 Y46.047 I-1.873 J-0.065 F1000
X121.375 Y45.817 I-1.685 J-0.822 F1400
G1 X112.829 Y20.138
G3 X113.786 Y17.861 I1.779 J-0.592
X114.542 Y17.673 I0.822 J1.685 F1000
G1 X121.274 F1400
X121.761 Y17.697
X122.442 Y17.786
X123.093 Y17.926
X123.497 Y18.083
X123.871 Y18.302
X124.205 Y18.578
X124.491 Y18.904
X124.721 Y19.272
X124.89 Y19.671
X124.993 Y20.092
X125.027 Y20.524
G3 X124.839 Y21.28 I-1.873 J-0.065 F1000
X122.312 Y22.133 I-1.685 J-0.822 F1400
G1 X120.497 Y21.221
G3 X120.517 Y17.861 I0.842 J-1.675
X121.274 Y17.673 I0.822 J1.685 F1000
G1 X122.956 F1400
X123.237 Y17.675
X123.517 Y17.712
X123.798 Y17.794
X124.078 Y17.928
X124.202 Y18.006
X124.421 Y18.181
X124.639 Y18.42
X124.741 Y18.566
X124.885 Y18.846
X124.976 Y19.126
X125.021 Y19.406
X125.027 Y19.686
Y25.545
X125.014 Y25.645 Z-14.993 F1000
X125 Y25.743 Z-14.974
X124.987 Y25.837 Z-14.942
X124.974 Y25.927 Z-14.898
X124.946 Y26.005 Z-14.844
X124.921 Y26.076 Z-14.78
X124.898 Y26.139 Z-14.707
X124.879 Y26.192 Z-14.627
X124.864 Y26.236 Z-14.539
X124.852 Y26.269 Z-14.447
X124.844 Y26.291 Z-14.351
X124.84 Y26.299 Z-14.283
X124.839 Y26.301 Z-14.215
G0 Z5
X47.464 Y50.199
Z-12.5
G3 X38.02 Y35.101 Z-13.477 I-4.722 J-7.549 F670
X47.464 Y50.199 Z-14.454 I4.722 J7.549
X38.02 Y35.101 Z-15.43 I-4.722 J-7.549
X47.464 Y50.199 Z-16.407 I4.722 J7.549
X38.02 Y35.101 Z-17.384 I-4.722 J-7.549
X47.464 Y50.199 Z-18.361 I4.722 J7.549
X38.02 Y35.101 Z-19.338 I-4.722 J-7.549
X51.646 Y42.65 Z-20 I4.722 J7.549
X33.838 I-8.904
X51.646 I8.904
G1 X51.648 Y43.049 F1400
X51.686 Y43.446
X51.76 Y43.838
X52.199 Y45.372
X52.262 Y45.5
X52.385 Y45.775
X52.497 Y46.09
X52.592 Y46.446
X52.664 Y46.842
X52.707 Y47.276
X52.716 Y47.746
X52.685 Y48.25
X52.609 Y48.785
X52.483 Y49.344
X52.302 Y49.925
X52.063 Y50.521
X51.761 Y51.125
X51.395 Y51.732
X50.963 Y52.333
X50.463 Y52.921
X49.898 Y53.488
X49.266 Y54.027
X48.571 Y54.529
X47.816 Y54.987
X47.005 Y55.394
X46.143 Y55.744
X45.235 Y56.029
X44.288 Y56.245
X43.308 Y56.387
X42.304 Y56.451
X41.283 Y56.434
X40.253 Y56.333
X39.222 Y56.148
X38.198 Y55.878
X37.19 Y55.524
X36.205 Y55.086
X35.252 Y54.566
X34.337 Y53.968
X33.469 Y53.294
X32.653 Y52.55
X31.896 Y51.738
X31.204 Y50.865
X30.582 Y49.936
X30.035 Y48.957
X29.567 Y47.934
X29.182 Y46.875
X28.882 Y45.787
X28.671 Y44.675
X28.549 Y43.549
X28.518 Y42.415
X28.578 Y41.28
X28.729 Y40.153
X28.97 Y39.041
X29.3 Y37.951
X29.717 Y36.89
X30.218 Y35.865
X30.799 Y34.884
X31.458 Y33.951
X32.19 Y33.075
X32.99 Y32.259
X33.854 Y31.51
X34.775 Y30.833
X35.747 Y30.232
X36.765 Y29.71
X37.822 Y29.272
X38.91 Y28.92
X40.024 Y28.657
X41.155 Y28.483
X42.296 Y28.401
X43.441 Y28.411
X44.581 Y28.513
X45.709 Y28.706
X46.818 Y28.988
X47.902 Y29.359
X48.951 Y29.816
X49.961 Y30.356
X50.925 Y30.974
X51.835 Y31.669
X52.687 Y32.434
X53.475 Y33.265
X54.193 Y34.156
X54.886 Y35.172
X55.675 Y36.559
X56.415 Y37.973
X57.08 Y39.423
X57.645 Y40.916
X58.05 Y42.309
X58.325 Y43.649
X58.486 Y44.957
X58.539 Y46.232
X58.492 Y47.481
X58.345 Y48.707
X58.102 Y49.911
X57.764 Y51.092
X57.33 Y52.245
X56.802 Y53.366
X56.18 Y54.45
X55.467 Y55.491
X54.665 Y56.481
X53.774 Y57.415
X52.798 Y58.287
X51.74 Y59.089
X50.605 Y59.813
X49.399 Y60.454
X48.129 Y61.002
X46.801 Y61.453
X45.425 Y61.8
X44.009 Y62.038
X42.562 Y62.163
X41.096 Y62.171
X39.62 Y62.061
X38.146 Y61.831
X36.684 Y61.481
X35.244 Y61.011
X33.836 Y60.423
X32.472 Y59.719
X31.161 Y58.903
X29.912 Y57.98
X28.736 Y56.954
X27.641 Y55.832
X26.636 Y54.621
X25.727 Y53.328
X24.923 Y51.963
X24.229 Y50.532
X23.65 Y49.047
X23.192 Y47.519
X22.858 Y45.958
X22.65 Y44.376
X22.568 Y42.783
X22.614 Y41.187
X22.787 Y39.601
X23.086 Y38.034
X23.508 Y36.495
X24.05 Y34.994
X24.71 Y33.541
X25.483 Y32.145
X26.364 Y30.814
X27.347 Y29.558
X28.427 Y28.383
X29.596 Y27.297
X30.848 Y26.307
X32.174 Y25.419
X33.565 Y24.638
X35.014 Y23.97
X36.511 Y23.418
X38.048 Y22.985
X39.613 Y22.676
X41.198 Y22.491
X42.793 Y22.431
X44.387 Y22.498
X45.971 Y22.69
X47.535 Y23.006
X49.069 Y23.445
X50.564 Y24.003
X52.01 Y24.678
X53.399 Y25.464
X54.721 Y26.358
X55.97 Y27.351
X57.14 Y28.436
X58.238 Y29.594
X59.261 Y30.819
X60.208 Y32.103
X61.078 Y33.441
X61.866 Y34.828
X62.569 Y36.261
X63.179 Y37.735
X63.692 Y39.247
X64.102 Y40.789
X64.407 Y42.355
X64.603 Y43.939
X64.688 Y45.532
X64.66 Y47.128
X64.519 Y48.717
X64.264 Y50.292
X63.896 Y51.845
X63.417 Y53.367
X62.828 Y54.85
X62.132 Y56.286
X61.333 Y57.668
X60.436 Y58.987
X59.446 Y60.239
X58.37 Y61.417
X57.214 Y62.517
X55.984 Y63.534
X54.686 Y64.461
X53.325 Y65.295
X51.91 Y66.032
X50.447 Y66.671
X48.945 Y67.21
X47.925 Y67.501
X47.628 Y67.571
X47.325 Y67.613
X47.019 Y67.627
X39.937
X38.344 Y67.548
X36.756 Y67.386
X35.186 Y67.102
X33.641 Y66.701
X32.131 Y66.187
X30.661 Y65.566
X29.238 Y64.844
X27.866 Y64.029
X26.551 Y63.125
X25.299 Y62.135
X24.115 Y61.065
X23.002 Y59.922
X21.962 Y58.712
X21.002 Y57.437
X20.125 Y56.104
X19.332 Y54.719
X18.626 Y53.288
X18.009 Y51.816
X17.854 Y51.369
X17.754 Y51.016
X17.693 Y50.655
X17.673 Y50.289
Y39.289
X17.752 Y37.696
X17.837 Y36.902
X18.058 Y35.4
X18.416 Y33.845
X18.895 Y32.323
X19.486 Y30.841
X20.181 Y29.404
X20.976 Y28.021
X21.865 Y26.696
X22.84 Y25.432
X23.893 Y24.234
X25.022 Y23.106
X26.222 Y22.054
X27.486 Y21.079
X28.807 Y20.184
X30.181 Y19.372
X31.603 Y18.649
X33.067 Y18.014
X33.462 Y17.871
X33.829 Y17.761
X34.206 Y17.695
X34.588 Y17.673
X46.108
X47.701 Y17.752
X49.18 Y17.891
X50.698 Y18.158
X52.243 Y18.559
X53.75 Y19.082
X55.214 Y19.717
X56.63 Y20.453
X57.994 Y21.281
X59.304 Y22.193
X60.555 Y23.183
X61.745 Y24.246
X62.874 Y25.374
X63.94 Y26.561
X64.943 Y27.803
X65.877 Y29.096
X66.74 Y30.438
X67.531 Y31.824
X68.249 Y33.249
X68.892 Y34.709
X69.455 Y36.203
X69.937 Y37.724
X70.337 Y39.269
X70.654 Y40.833
X70.886 Y42.411
X71.03 Y44.001
X71.087 Y45.595
X71.057 Y47.191
X70.94 Y48.782
X70.733 Y50.365
X70.438 Y51.933
X70.056 Y53.482
X69.59 Y55.008
X69.039 Y56.506
X68.403 Y57.969
X67.686 Y59.395
X66.891 Y60.779
X66.023 Y62.117
X65.079 Y63.404
X64.066 Y64.637
X62.986 Y65.812
X62.089 Y66.688
X61.766 Y66.965
X61.411 Y67.198
X61.028 Y67.384
X60.625 Y67.518
X60.207 Y67.6
X59.783 Y67.627
X47.019
G3 X46.263 Y67.439 I0.065 J-1.873 F1000
X45.784 Y67.104 I0.822 J-1.685 F1400
G1 X18.245 Y40.574
G3 X17.861 Y40.046 I1.301 J-1.35
X17.673 Y39.289 I1.685 J-0.822 F1000
G1 Y28.088 F1400
X17.718 Y27.175
X17.829 Y26.328
X18.035 Y25.366
X18.341 Y24.346
X18.764 Y23.259
X19.334 Y22.084
X20.061 Y20.849
X20.942 Y19.595
X21.548 Y18.865
X21.882 Y18.517
X22.264 Y18.222
X22.685 Y17.986
X23.135 Y17.813
X23.606 Y17.708
X24.087 Y17.673
X34.588
G3 X35.345 Y17.861 I-0.065 J1.873 F1000
X35.446 Y21.177 I-0.822 J1.685 F1400
G1 X20.469 Y29.654
G3 X17.861 Y28.844 I-0.923 J-1.631
X17.673 Y28.088 I1.685 J-0.822 F1000
G1 Y20.247 F1400
X17.695 Y19.796
X17.777 Y19.414
X17.918 Y19.05
X18.115 Y18.714
X18.364 Y18.413
X18.657 Y18.156
X18.988 Y17.949
X19.347 Y17.797
X19.726 Y17.704
X20.115 Y17.673
G3 X20.884 Y17.818 I-0.09 J2.591 F1000
X21.809 Y18.383 I-0.859 J2.446 F1400
X18.435 Y21.939 I-1.687 J1.778
X17.824 Y21.014 I1.687 J-1.778
X17.673 Y20.247 I2.298 J-0.853 F1000
G1 Y19.686 F1400
X17.679 Y19.406
X17.724 Y19.126
X17.815 Y18.846
X17.959 Y18.566
X18.061 Y18.42
X18.279 Y18.181
X18.498 Y18.006
X18.622 Y17.928
X18.902 Y17.794
X19.183 Y17.712
X19.463 Y17.675
X19.744 Y17.673
X24.087
G3 X24.844 Y17.861 I-0.065 J1.873 F1000
X25.795 Y18.938 I-0.822 J1.685 F1400
G1 X41.645 Y65.146
G3 X40.694 Y67.439 I-1.773 J0.608
X39.937 Y67.627 I-0.822 J-1.685 F1000
G1 X28.158 F1400
X27.443 Y67.592
X26.563 Y67.476
X25.591 Y67.268
X24.568 Y66.962
X23.443 Y66.524
X22.252 Y65.946
X21.038 Y65.231
X19.774 Y64.343
X18.865 Y63.589
X18.517 Y63.254
X18.222 Y62.873
X17.986 Y62.452
X17.813 Y62.002
X17.708 Y61.531
X17.673 Y61.049
Y50.289
G3 X17.861 Y49.532 I1.873 J0.065 F1000
X21.185 Y49.445 I1.685 J0.822 F1400
G1 X29.731 Y64.844
G3 X28.914 Y67.439 I-1.639 J0.91
X28.158 Y67.627 I-0.822 J-1.685 F1000
G1 X20.304 F1400
X19.91 Y67.608
X19.508 Y67.522
X19.125 Y67.373
X18.77 Y67.165
X18.453 Y66.903
X18.182 Y66.594
X17.963 Y66.246
X17.803 Y65.867
X17.705 Y65.467
X17.673 Y65.058
G3 X17.818 Y64.289 I2.591 J0.09 F1000
X18.409 Y63.337 I2.446 J0.859 F1400
X22.024 Y66.867 I1.808 J1.765
X21.073 Y67.479 I-1.808 J-1.765
X20.304 Y67.627 I-0.856 J-2.377 F1000
G1 X19.744 F1400
X19.463 Y67.625
X19.183 Y67.588
X18.902 Y67.506
X18.622 Y67.372
X18.498 Y67.294
X18.279 Y67.119
X18.061 Y66.88
X17.959 Y66.734
X17.815 Y66.454
X17.724 Y66.174
X17.679 Y65.894
X17.673 Y65.614
Y61.049
G3 X17.861 Y60.293 I1.873 J0.065 F1000
G1 X17.912 Y60.197 F1400
X17.968 Y60.104
X44.595 Y18.535
G3 X45.351 Y17.861 I1.578 J1.011
X46.108 Y17.673 I0.822 J1.685 F1000
G1 X57.327 F1400
X58.424 Y17.728
X59.314 Y17.844
X60.315 Y18.058
X61.374 Y18.376
X62.539 Y18.829
X63.798 Y19.44
X65.132 Y20.226
X66.438 Y21.143
X67.671 Y22.156
X68.83 Y23.253
X69.916 Y24.422
X70.93 Y25.654
X71.873 Y26.941
X72.746 Y28.277
X73.548 Y29.656
X74.279 Y31.075
X74.938 Y32.528
X75.525 Y34.012
X76.041 Y35.522
X76.486 Y37.054
X76.86 Y38.606
X77.16 Y40.173
X77.387 Y41.752
X77.541 Y43.341
X77.623 Y44.934
X77.633 Y46.53
X77.57 Y48.125
X77.433 Y49.714
X77.223 Y51.296
X76.942 Y52.867
X76.59 Y54.424
X76.169 Y55.963
X75.676 Y57.48
X75.115 Y58.974
X74.486 Y60.441
X73.792 Y61.878
X73.035 Y63.282
X72.214 Y64.65
X71.331 Y65.98
X71.1 Y66.291
X70.816 Y66.626
X70.489 Y66.921
X70.126 Y67.169
X69.733 Y67.367
X69.318 Y67.511
X68.887 Y67.598
X68.448 Y67.627
X59.783
G3 X59.027 Y67.439 I0.065 J-1.873 F1000
X57.977 Y65.854 I0.822 J-1.685 F1400
G1 X55.52 Y19.645
G3 X56.57 Y17.861 I1.872 J-0.1
X57.327 Y17.673 I0.822 J1.685 F1000
G1 X65.741 F1400
X66.508 Y17.711
X67.278 Y17.812
X68.119 Y17.992
X69.06 Y18.274
X70.044 Y18.657
X71.122 Y19.18
X72.281 Y19.862
X73.497 Y20.716
X74.725 Y21.736
X75.869 Y22.848
X76.931 Y24.039
X77.914 Y25.296
X78.82 Y26.609
X79.652 Y27.971
X80.411 Y29.375
X81.1 Y30.814
X81.719 Y32.285
X82.269 Y33.783
X82.75 Y35.304
X83.164 Y36.845
X83.513 Y38.403
X83.796 Y39.973
X84.016 Y41.554
X84.171 Y43.142
X84.26 Y44.735
X84.286 Y46.331
X84.248 Y47.926
X84.148 Y49.518
X83.988 Y51.106
X83.765 Y52.686
X83.48 Y54.256
X83.134 Y55.814
X82.727 Y57.357
X82.263 Y58.884
X81.741 Y60.392
X81.161 Y61.879
X80.525 Y63.342
X79.827 Y64.777
X79.045 Y66.168
X78.764 Y66.532
X78.434 Y66.853
X78.062 Y67.124
X77.657 Y67.341
X77.225 Y67.499
X76.775 Y67.595
X76.316 Y67.627
X68.448
G3 X67.692 Y67.439 I0.065 J-1.873 F1000
X66.642 Y65.864 I0.822 J-1.685 F1400
G1 X63.935 Y19.656
G3 X64.984 Y17.861 I1.871 J-0.11
X65.741 Y17.673 I0.822 J1.685 F1000
G1 X73.033 F1400
X73.909 Y17.716
X74.642 Y17.813
X75.411 Y17.977
X76.287 Y18.24
X77.199 Y18.595
X78.197 Y19.079
X79.274 Y19.713
X80.395 Y20.5
X81.564 Y21.471
X82.706 Y22.585
X83.761 Y23.782
X84.732 Y25.048
X85.623 Y26.372
X86.437 Y27.745
X87.178 Y29.158
X87.847 Y30.607
X88.447 Y32.085
X88.98 Y33.59
X89.447 Y35.116
X89.85 Y36.66
X90.19 Y38.218
X90.47 Y39.789
X90.691 Y41.37
X90.853 Y42.957
X90.956 Y44.55
X91.001 Y46.145
X90.99 Y47.741
X90.922 Y49.335
X90.799 Y50.926
X90.621 Y52.512
X90.39 Y54.091
X90.106 Y55.661
X89.768 Y57.22
X89.377 Y58.767
X88.934 Y60.3
X88.438 Y61.817
X87.887 Y63.315
X87.259 Y64.782
X86.714 Y65.838
X86.481 Y66.225
X86.197 Y66.575
X85.867 Y66.884
X85.499 Y67.145
X85.098 Y67.353
X84.673 Y67.504
X84.231 Y67.597
X83.781 Y67.627
X76.316
G3 X75.559 Y67.439 I0.065 J-1.873 F1000
X74.511 Y65.887 I0.822 J-1.685 F1400
G1 X71.228 Y19.679
G3 X72.276 Y17.861 I1.87 J-0.133
X73.033 Y17.673 I0.822 J1.685 F1000
G1 X80.325 F1400
X80.963 Y17.705
X81.674 Y17.798
X82.413 Y17.956
X83.256 Y18.208
X84.141 Y18.553
X85.099 Y19.018
X86.137 Y19.629
X87.217 Y20.388
X88.343 Y21.322
X89.485 Y22.437
X90.537 Y23.637
X91.502 Y24.907
X92.386 Y26.236
X93.191 Y27.614
X93.922 Y29.032
X94.582 Y30.485
X95.173 Y31.967
X95.698 Y33.474
X96.16 Y35.002
X96.56 Y36.546
X96.9 Y38.106
X97.182 Y39.676
X97.408 Y41.256
X97.579 Y42.842
X97.697 Y44.434
X97.761 Y46.028
X97.772 Y47.624
X97.732 Y49.219
X97.641 Y50.812
X97.501 Y52.402
X97.312 Y53.986
X97.074 Y55.564
X96.789 Y57.134
X96.455 Y58.695
X96.069 Y60.243
X95.627 Y61.776
X95.121 Y63.29
X94.528 Y64.771
X93.914 Y66.019
X93.634 Y66.417
X93.299 Y66.77
X92.916 Y67.069
X92.493 Y67.309
X92.04 Y67.485
X91.565 Y67.592
X91.08 Y67.627
X83.781
G3 X83.024 Y67.439 I0.065 J-1.873 F1000
X81.977 Y65.894 I0.822 J-1.685 F1400
G1 X78.521 Y19.686
G3 X79.569 Y17.861 I1.869 J-0.14
X80.325 Y17.673 I0.822 J1.685 F1000
G1 X87.056 F1400
X87.877 Y17.714
X88.571 Y17.805
X89.298 Y17.96
X90.119 Y18.206
X90.992 Y18.546
X91.926 Y19
X92.942 Y19.597
X94.003 Y20.343
X95.106 Y21.259
X96.249 Y22.373
X97.299 Y23.575
X98.261 Y24.847
X99.141 Y26.179
X99.941 Y27.559
X100.667 Y28.98
X101.323 Y30.435
X101.911 Y31.918
X102.434 Y33.426
X102.895 Y34.954
X103.296 Y36.498
X103.639 Y38.057
X103.927 Y39.626
X104.161 Y41.205
X104.342 Y42.79
X104.473 Y44.38
X104.555 Y45.974
X104.587 Y47.57
X104.571 Y49.165
X104.509 Y50.76
X104.399 Y52.352
X104.244 Y53.94
X104.043 Y55.523
X103.795 Y57.099
X103.5 Y58.667
X103.15 Y60.224
X102.741 Y61.767
X102.266 Y63.29
X101.701 Y64.764
X101.122 Y65.976
X101.117 Y65.985
X100.838 Y66.391
X100.503 Y66.751
X100.118 Y67.057
X99.692 Y67.302
X99.233 Y67.482
X98.754 Y67.591
X98.263 Y67.627
X91.08
G3 X90.323 Y67.439 I0.065 J-1.873 F1000
X89.278 Y65.917 I0.822 J-1.685 F1400
G1 X85.254 Y19.709
G3 X86.3 Y17.861 I1.867 J-0.163
X87.056 Y17.673 I0.822 J1.685 F1000
G1 X93.788 F1400
X94.698 Y17.718
X95.383 Y17.808
X96.105 Y17.963
X96.917 Y18.206
X97.783 Y18.543
X98.707 Y18.991
X99.713 Y19.583
X100.765 Y20.323
X101.859 Y21.23
X103.001 Y22.345
X104.05 Y23.547
X105.012 Y24.821
X105.89 Y26.153
X106.689 Y27.534
X107.414 Y28.955
X108.07 Y30.411
X108.658 Y31.894
X109.183 Y33.401
X109.647 Y34.928
X110.052 Y36.471
X110.401 Y38.028
X110.697 Y39.596
X110.94 Y41.173
X111.134 Y42.757
X111.279 Y44.346
X111.377 Y45.939
X111.429 Y47.534
X111.436 Y49.13
X111.397 Y50.725
X111.313 Y52.318
X111.185 Y53.909
X111.011 Y55.495
X110.79 Y57.076
X110.521 Y58.648
X110.197 Y60.211
X109.81 Y61.759
X109.353 Y63.288
X108.816 Y64.73
X108.257 Y65.926
X108.239 Y65.959
X107.962 Y66.371
X107.626 Y66.736
X107.239 Y67.047
X106.81 Y67.297
X106.349 Y67.479
X105.865 Y67.59
X105.37 Y67.627
X98.263
G3 X97.507 Y67.439 I0.065 J-1.873 F1000
X96.463 Y65.935 I0.822 J-1.685 F1400
G1 X91.987 Y19.727
G3 X93.031 Y17.861 I1.866 J-0.181
X93.788 Y17.673 I0.822 J1.685 F1000
G1 X100.827 F1400
X101.462 Y17.704
X102.145 Y17.794
X102.866 Y17.948
X103.675 Y18.19
X104.539 Y18.527
X105.461 Y18.974
X106.464 Y19.565
X107.515 Y20.303
X108.607 Y21.21
X109.749 Y22.324
X110.799 Y23.526
X111.76 Y24.8
X112.639 Y26.132
X113.439 Y27.513
X114.166 Y28.933
X114.823 Y30.387
X115.415 Y31.869
X115.944 Y33.375
X116.413 Y34.9
X116.825 Y36.442
X117.182 Y37.997
X117.487 Y39.563
X117.742 Y41.138
X117.949 Y42.721
X118.108 Y44.308
X118.222 Y45.9
X118.292 Y47.494
X118.317 Y49.09
X118.298 Y50.685
X118.236 Y52.28
X118.128 Y53.872
X117.975 Y55.46
X117.775 Y57.044
X117.525 Y58.62
X117.219 Y60.186
X116.848 Y61.738
X116.403 Y63.27
X115.883 Y64.696
X115.338 Y65.884
X115.307 Y65.94
X115.031 Y66.356
X114.695 Y66.725
X114.307 Y67.04
X113.876 Y67.292
X113.412 Y67.477
X112.926 Y67.59
X112.428 Y67.627
X105.37
G3 X104.614 Y67.439 I0.065 J-1.873 F1000
X103.57 Y65.937 I0.822 J-1.685 F1400
G1 X99.027 Y19.729
G3 X100.071 Y17.861 I1.866 J-0.183
X100.827 Y17.673 I0.822 J1.685 F1000
G1 X107.811 F1400
X108.219 Y17.693
X108.9 Y17.782
X109.621 Y17.937
X110.429 Y18.179
X111.294 Y18.515
X112.216 Y18.963
X113.219 Y19.554
X114.273 Y20.293
X115.367 Y21.202
X116.509 Y22.316
X117.559 Y23.518
X118.521 Y24.791
X119.401 Y26.123
X120.203 Y27.502
X120.933 Y28.921
X121.593 Y30.374
X122.189 Y31.854
X122.723 Y33.358
X123.199 Y34.881
X123.618 Y36.421
X123.984 Y37.974
X124.299 Y39.538
X124.565 Y41.112
X124.784 Y42.692
X124.957 Y44.279
X125.017 Y45.026
X125.023 Y45.114
X125.026 Y45.202
X125.027 Y45.291
Y50.491
X124.948 Y52.085
X124.9 Y53.68
X124.799 Y55.273
X124.645 Y56.861
X124.437 Y58.443
X124.166 Y60.015
X123.826 Y61.575
X123.41 Y63.115
X122.92 Y64.536
X122.4 Y65.724
X122.312 Y65.889
X122.075 Y66.265
X121.791 Y66.606
X121.463 Y66.906
X121.098 Y67.16
X120.702 Y67.361
X120.283 Y67.508
X119.848 Y67.597
X119.404 Y67.627
X112.428
G3 X111.671 Y67.439 I0.065 J-1.873 F1000
X110.959 Y64.678 I0.822 J-1.685 F1400
G1 X121.619 Y49.48
G3 X124.839 Y49.735 I1.535 J1.076
X125.027 Y50.491 I-1.685 J0.822 F1000
G1 Y65.614 F1400
X125.021 Y65.894
X124.976 Y66.174
X124.885 Y66.454
X124.741 Y66.734
X124.639 Y66.88
X124.421 Y67.119
X124.202 Y67.294
X124.078 Y67.372
X123.798 Y67.506
X123.517 Y67.588
X123.237 Y67.625
X122.956 Y67.627
X119.404
G3 X118.648 Y67.439 I0.065 J-1.873 F1000
X117.652 Y66.21 I0.822 J-1.685 F1400
G1 X106.058 Y20.002
G3 X107.055 Y17.861 I1.818 J-0.456
X107.811 Y17.673 I0.822 J1.685 F1000
G1 X114.542 F1400
X114.987 Y17.695
X115.668 Y17.784
X116.39 Y17.939
X117.197 Y18.18
X118.064 Y18.518
X118.986 Y18.965
X119.991 Y19.557
X121.048 Y20.3
X122.147 Y21.212
X123.289 Y22.326
X124.339 Y23.528
X124.359 Y23.553
X124.594 Y23.91
X124.781 Y24.294
X124.917 Y24.699
X125 Y25.118
X125.027 Y25.545
Y45.291
G3 X124.839 Y46.047 I-1.873 J-0.065 F1000
X121.375 Y45.817 I-1.685 J-0.822 F1400
G1 X112.829 Y20.138
G3 X113.786 Y17.861 I1.779 J-0.592
X114.542 Y17.673 I0.822 J1.685 F1000
G1 X121.274 F1400
X121.761 Y17.697
X122.442 Y17.786
X123.093 Y17.926
X123.497 Y18.083
X123.871 Y18.302
X124.205 Y18.578
X124.491 Y18.904
X124.721 Y19.272
X124.89 Y19.671
X124.993 Y20.092
X125.027 Y20.524
G3 X124.839 Y21.28 I-1.873 J-0.065 F1000
X122.312 Y22.133 I-1.685 J-0.822 F1400
G1 X120.497 Y21.221
G3 X120.517 Y17.861 I0.842 J-1.675
X121.274 Y17.673 I0.822 J1.685 F1000
G1 X122.956 F1400
X123.237 Y17.675
X123.517 Y17.712
X123.798 Y17.794
X124.078 Y17.928
X124.202 Y18.006
X124.421 Y18.181
X124.639 Y18.42
X124.741 Y18.566
X124.885 Y18.846
X124.976 Y19.126
X125.021 Y19.406
X125.027 Y19.686
Y25.545
X125.014 Y25.645 Z-19.993 F1000
X125 Y25.743 Z-19.974
X124.987 Y25.837 Z-19.942
X124.974 Y25.927 Z-19.898
X124.946 Y26.005 Z-19.844
X124.921 Y26.076 Z-19.78
X124.898 Y26.139 Z-19.707
X124.879 Y26.192 Z-19.627
X124.864 Y26.236 Z-19.539
X124.852 Y26.269 Z-19.447
X124.844 Y26.291 Z-19.351
X124.84 Y26.299 Z-19.283
X124.839 Y26.301 Z-19.215
G0 Z5
X50.48 Y47.056
Z-17.5
G3 X35.005 Y38.244 Z-18.477 I-7.738 J-4.406 F670
X50.48 Y47.056 Z-19.454 I7.738 J4.406
X35.005 Y38.244 Z-20.43 I-7.738 J-4.406
X50.48 Y47.056 Z-21.407 I7.738 J4.406
X35.005 Y38.244 Z-22.384 I-7.738 J-4.406
X51.646 Y42.65 Z-23.2 I7.738 J4.406
X33.838 I-8.904
X51.646 I8.904
G1 X51.648 Y43.049 F1400
X51.686 Y43.446
X51.76 Y43.838
X52.199 Y45.372
X52.262 Y45.5
X52.385 Y45.775
X52.497 Y46.09
X52.592 Y46.446
X52.664 Y46.842
X52.707 Y47.276
X52.716 Y47.746
X52.685 Y48.25
X52.609 Y48.785
X52.483 Y49.344
X52.302 Y49.925
X52.063 Y50.521
X51.761 Y51.125
X51.395 Y51.732
X50.963 Y52.333
X50.463 Y52.921
X49.898 Y53.488
X49.266 Y54.027
X48.571 Y54.529
X47.816 Y54.987
X47.005 Y55.394
X46.143 Y55.744
X45.235 Y56.029
X44.288 Y56.245
X43.308 Y56.387
X42.304 Y56.451
X41.283 Y56.434
X40.253 Y56.333
X39.222 Y56.148
X38.198 Y55.878
X37.19 Y55.524
X36.205 Y55.086
X35.252 Y54.566
X34.337 Y53.968
X33.469 Y53.294
X32.653 Y52.55
X31.896 Y51.738
X31.204 Y50.865
X30.582 Y49.936
X30.035 Y48.957
X29.567 Y47.934
X29.182 Y46.875
X28.882 Y45.787
X28.671 Y44.675
X28.549 Y43.549
X28.518 Y42.415
X28.578 Y41.28
X28.729 Y40.153
X28.97 Y39.041
X29.3 Y37.951
X29.717 Y36.89
X30.218 Y35.865
X30.799 Y34.884
X31.458 Y33.951
X32.19 Y33.075
X32.99 Y32.259
X33.854 Y31.51
X34.775 Y30.833
X35.747 Y30.232
X36.765 Y29.71
X37.822 Y29.272
X38.91 Y28.92
X40.024 Y28.657
X41.155 Y28.483
X42.296 Y28.401
X43.441 Y28.411
X44.581 Y28.513
X45.709 Y28.706
X46.818 Y28.988
X47.902 Y29.359
X48.951 Y29.816
X49.961 Y30.356
X50.925 Y30.974
X51.835 Y31.669
X52.687 Y32.434
X53.475 Y33.265
X54.193 Y34.156
X54.886 Y35.172
X55.675 Y36.559
X56.415 Y37.973
X57.08 Y39.423
X57.645 Y40.916
X58.05 Y42.309
X58.325 Y43.649
X58.486 Y44.957
X58.539 Y46.232
X58.492 Y47.481
X58.345 Y48.707
X58.102 Y49.911
X57.764 Y51.092
X57.33 Y52.245
X56.802 Y53.366
X56.18 Y54.45
X55.467 Y55.491
X54.665 Y56.481
X53.774 Y57.415
X52.798 Y58.287
X51.74 Y59.089
X50.605 Y59.813
X49.399 Y60.454
X48.129 Y61.002
X46.801 Y61.453
X45.425 Y61.8
X44.009 Y62.038
X42.562 Y62.163
X41.096 Y62.171
X39.62 Y62.061
X38.146 Y61.831
X36.684 Y61.481
X35.244 Y61.011
X33.836 Y60.423
X32.472 Y59.719
X31.161 Y58.903
X29.912 Y57.98
X28.736 Y56.954
X27.641 Y55.832
X26.636 Y54.621
X25.727 Y53.328
X24.923 Y51.963
X24.229 Y50.532
X23.65 Y49.047
X23.192 Y47.519
X22.858 Y45.958
X22.65 Y44.376
X22.568 Y42.783
X22.614 Y41.187
X22.787 Y39.601
X23.086 Y38.034
X23.508 Y36.495
X24.05 Y34.994
X24.71 Y33.541
X25.483 Y32.145
X26.364 Y30.814
X27.347 Y29.558
X28.427 Y28.383
X29.596 Y27.297
X30.848 Y26.307
X32.174 Y25.419
X33.565 Y24.638
X35.014 Y23.97
X36.511 Y23.418
X38.048 Y22.985
X39.613 Y22.676
X41.198 Y22.491
X42.793 Y22.431
X44.387 Y22.498
X45.971 Y22.69
X47.535 Y23.006
X49.069 Y23.445
X50.564 Y24.003
X52.01 Y24.678
X53.399 Y25.464
X54.721 Y26.358
X55.97 Y27.351
X57.14 Y28.436
X58.238 Y29.594
X59.261 Y30.819
X60.208 Y32.103
X61.078 Y33.441
X61.866 Y34.828
X62.569 Y36.261
X63.179 Y37.735
X63.692 Y39.247
X64.102 Y40.789
X64.407 Y42.355
X64.603 Y43.939
X64.688 Y45.532
X64.66 Y47.128
X64.519 Y48.717
X64.264 Y50.292
X63.896 Y51.845
X63.417 Y53.367
X62.828 Y54.85
X62.132 Y56.286
X61.333 Y57.668
X60.436 Y58.987
X59.446 Y60.239
X58.37 Y61.417
X57.214 Y62.517
X55.984 Y63.534
X54.686 Y64.461
X53.325 Y65.295
X51.91 Y66.032
X50.447 Y66.671
X48.945 Y67.21
X47.925 Y67.501
X47.628 Y67.571
X47.325 Y67.613
X47.019 Y67.627
X39.937
X38.344 Y67.548
X36.756 Y67.386
X35.186 Y67.102
X33.641 Y66.701
X32.131 Y66.187
X30.661 Y65.566
X29.238 Y64.844
X27.866 Y64.029
X26.551 Y63.125
X25.299 Y62.135
X24.115 Y61.065
X23.002 Y59.922
X21.962 Y58.712
X21.002 Y57.437
X20.125 Y56.104
X19.332 Y54.719
X18.626 Y53.288
X18.009 Y51.816
X17.854 Y51.369
X17.754 Y51.016
X17.693 Y50.655
X17.673 Y50.289
Y39.289
X17.752 Y37.696
X17.837 Y36.902
X18.058 Y35.4
X18.416 Y33.845
X18.895 Y32.323
X19.486 Y30.841
X20.181 Y29.404
X20.976 Y28.021
X21.865 Y26.696
X22.84 Y25.432
X23.893 Y24.234
X25.022 Y23.106
X26.222 Y22.054
X27.486 Y21.079
X28.807 Y20.184
X30.181 Y19.372
X31.603 Y18.649
X33.067 Y18.014
X33.462 Y17.871
X33.829 Y17.761
X34.206 Y17.695
X34.588 Y17.673
X46.108
X47.701 Y17.752
X49.18 Y17.891
X50.698 Y18.158
X52.243 Y18.559
X53.75 Y19.082
X55.214 Y19.717
X56.63 Y20.453
X57.994 Y21.281
X59.304 Y22.193
X60.555 Y23.183
X61.745 Y24.246
X62.874 Y25.374
X63.94 Y26.561
X64.943 Y27.803
X65.877 Y29.096
X66.74 Y30.438
X67.531 Y31.824
X68.249 Y33.249
X68.892 Y34.709
X69.455 Y36.203
X69.937 Y37.724
X70.337 Y39.269
X70.654 Y40.833
X70.886 Y42.411
X71.03 Y44.001
X71.087 Y45.595
X71.057 Y47.191
X70.94 Y48.782
X70.733 Y50.365
X70.438 Y51.933
X70.056 Y53.482
X69.59 Y55.008
X69.039 Y56.506
X68.403 Y57.969
X67.686 Y59.395
X66.891 Y60.779
X66.023 Y62.117
X65.079 Y63.404
X64.066 Y64.637
X62.986 Y65.812
X62.089 Y66.688
X61.766 Y66.965
X61.411 Y67.198
X61.028 Y67.384
X60.625 Y67.518
X60.207 Y67.6
X59.783 Y67.627
X47.019
G3 X46.263 Y67.439 I0.065 J-1.873 F1000
X45.784 Y67.104 I0.822 J-1.685 F1400
G1 X18.245 Y40.574
G3 X17.861 Y40.046 I1.301 J-1.35
X17.673 Y39.289 I1.685 J-0.822 F1000
G1 Y28.088 F1400
X17.718 Y27.175
X17.829 Y26.328
X18.035 Y25.366
X18.341 Y24.346
X18.764 Y23.259
X19.334 Y22.084
X20.061 Y20.849
X20.942 Y19.595
X21.548 Y18.865
X21.882 Y18.517
X22.264 Y18.222
X22.685 Y17.986
X23.135 Y17.813
X23.606 Y17.708
X24.087 Y17.673
X34.588
G3 X35.345 Y17.861 I-0.065 J1.873 F1000
X35.446 Y21.177 I-0.822 J1.685 F1400
G1 X20.469 Y29.654
G3 X17.861 Y28.844 I-0.923 J-1.631
X17.673 Y28.088 I1.685 J-0.822 F1000
G1 Y20.247 F1400
X17.695 Y19.796
X17.777 Y19.414
X17.918 Y19.05
X18.115 Y18.714
X18.364 Y18.413
X18.657 Y18.156
X18.988 Y17.949
X19.347 Y17.797
X19.726 Y17.704
X20.115 Y17.673
G3 X20.884 Y17.818 I-0.09 J2.591 F1000
X21.809 Y18.383 I-0.859 J2.446 F1400
X18.435 Y21.939 I-1.687 J1.778
X17.824 Y21.014 I1.687 J-1.778
X17.673 Y20.247 I2.298 J-0.853 F1000
G1 Y19.686 F1400
X17.679 Y19.406
X17.724 Y19.126
X17.815 Y18.846
X17.959 Y18.566
X18.061 Y18.42
X18.279 Y18.181
X18.498 Y18.006
X18.622 Y17.928
X18.902 Y17.794
X19.183 Y17.712
X19.463 Y17.675
X19.744 Y17.673
X24.087
G3 X24.844 Y17.861 I-0.065 J1.873 F1000
X25.795 Y18.938 I-0.822 J1.685 F1400
G1 X41.645 Y65.146
G3 X40.694 Y67.439 I-1.773 J0.608
X39.937 Y67.627 I-0.822 J-1.685 F1000
G1 X28.158 F1400
X27.443 Y67.592
X26.563 Y67.476
X25.591 Y67.268
X24.568 Y66.962
X23.443 Y66.524
X22.252 Y65.946
X21.038 Y65.231
X19.774 Y64.343
X18.865 Y63.589
X18.517 Y63.254
X18.222 Y62.873
X17.986 Y62.452
X17.813 Y62.002
X17.708 Y61.531
X17.673 Y61.049
Y50.289
G3 X17.861 Y49.532 I1.873 J0.065 F1000
X21.185 Y49.445 I1.685 J0.822 F1400
G1 X29.731 Y64.844
G3 X28.914 Y67.439 I-1.639 J0.91
X28.158 Y67.627 I-0.822 J-1.685 F1000
G1 X20.304 F1400
X19.91 Y67.608
X19.508 Y67.522
X19.125 Y67.373
X18.77 Y67.165
X18.453 Y66.903
X18.182 Y66.594
X17.963 Y66.246
X17.803 Y65.867
X17.705 Y65.467
X17.673 Y65.058
G3 X17.818 Y64.289 I2.591 J0.09 F1000
X18.409 Y63.337 I2.446 J0.859 F1400
X22.024 Y66.867 I1.808 J1.765
X21.073 Y67.479 I-1.808 J-1.765
X20.304 Y67.627 I-0.856 J-2.377 F1000
G1 X19.744 F1400
X19.463 Y67.625
X19.183 Y67.588
X18.902 Y67.506
X18.622 Y67.372
X18.498 Y67.294
X18.279 Y67.119
X18.061 Y66.88
X17.959 Y66.734
X17.815 Y66.454
X17.724 Y66.174
X17.679 Y65.894
X17.673 Y65.614
Y61.049
G3 X17.861 Y60.293 I1.873 J0.065 F1000
G1 X17.912 Y60.197 F1400
X17.968 Y60.104
X44.595 Y18.535
G3 X45.351 Y17.861 I1.578 J1.011
X46.108 Y17.673 I0.822 J1.685 F1000
G1 X57.327 F1400
X58.424 Y17.728
X59.314 Y17.844
X60.315 Y18.058
X61.374 Y18.376
X62.539 Y18.829
X63.798 Y19.44
X65.132 Y20.226
X66.438 Y21.143
X67.671 Y22.156
X68.83 Y23.253
X69.916 Y24.422
X70.93 Y25.654
X71.873 Y26.941
X72.746 Y28.277
X73.548 Y29.656
X74.279 Y31.075
X74.938 Y32.528
X75.525 Y34.012
X76.041 Y35.522
X76.486 Y37.054
X76.86 Y38.606
X77.16 Y40.173
X77.387 Y41.752
X77.541 Y43.341
X77.623 Y44.934
X77.633 Y46.53
X77.57 Y48.125
X77.433 Y49.714
X77.223 Y51.296
X76.942 Y52.867
X76.59 Y54.424
X76.169 Y55.963
X75.676 Y57.48
X75.115 Y58.974
X74.486 Y60.441
X73.792 Y61.878
X73.035 Y63.282
X72.214 Y64.65
X71.331 Y65.98
X71.1 Y66.291
X70.816 Y66.626
X70.489 Y66.921
X70.126 Y67.169
X69.733 Y67.367
X69.318 Y67.511
X68.887 Y67.598
X68.448 Y67.627
X59.783
G3 X59.027 Y67.439 I0.065 J-1.873 F1000
X57.977 Y65.854 I0.822 J-1.685 F1400
G1 X55.52 Y19.645
G3 X56.57 Y17.861 I1.872 J-0.1
X57.327 Y17.673 I0.822 J1.685 F1000
G1 X65.741 F1400
X66.508 Y17.711
X67.278 Y17.812
X68.119 Y17.992
X69.06 Y18.274
X70.044 Y18.657
X71.122 Y19.18
X72.281 Y19.862
X73.497 Y20.716
X74.725 Y21.736
X75.869 Y22.848
X76.931 Y24.039
X77.914 Y25.296
X78.82 Y26.609
X79.652 Y27.971
X80.411 Y29.375
X81.1 Y30.814
X81.719 Y32.285
X82.269 Y33.783
X82.75 Y35.304
X83.164 Y36.845
X83.513 Y38.403
X83.796 Y39.973
X84.016 Y41.554
X84.171 Y43.142
X84.26 Y44.735
X84.286 Y46.331
X84.248 Y47.926
X84.148 Y49.518
X83.988 Y51.106
X83.765 Y52.686
X83.48 Y54.256
X83.134 Y55.814
X82.727 Y57.357
X82.263 Y58.884
X81.741 Y60.392
X81.161 Y61.879
X80.525 Y63.342
X79.827 Y64.777
X79.045 Y66.168
X78.764 Y66.532
X78.434 Y66.853
X78.062 Y67.124
X77.657 Y67.341
X77.225 Y67.499
X76.775 Y67.595
X76.316 Y67.627
X68.448
G3 X67.692 Y67.439 I0.065 J-1.873 F1000
X66.642 Y65.864 I0.822 J-1.685 F1400
G1 X63.935 Y19.656
G3 X64.984 Y17.861 I1.871 J-0.11
X65.741 Y17.673 I0.822 J1.685 F1000
G1 X73.033 F1400
X73.909 Y17.716
X74.642 Y17.813
X75.411 Y17.977
X76.287 Y18.24
X77.199 Y18.595
X78.197 Y19.079
X79.274 Y19.713
X80.395 Y20.5
X81.564 Y21.471
X82.706 Y22.585
X83.761 Y23.782
X84.732 Y25.048
X85.623 Y26.372
X86.437 Y27.745
X87.178 Y29.158
X87.847 Y30.607
X88.447 Y32.085
X88.98 Y33.59
X89.447 Y35.116
X89.85 Y36.66
X90.19 Y38.218
X90.47 Y39.789
X90.691 Y41.37
X90.853 Y42.957
X90.956 Y44.55
X91.001 Y46.145
X90.99 Y47.741
X90.922 Y49.335
X90.799 Y50.926
X90.621 Y52.512
X90.39 Y54.091
X90.106 Y55.661
X89.768 Y57.22
X89.377 Y58.767
X88.934 Y60.3
X88.438 Y61.817
X87.887 Y63.315
X87.259 Y64.782
X86.714 Y65.838
X86.481 Y66.225
X86.197 Y66.575
X85.867 Y66.884
X85.499 Y67.145
X85.098 Y67.353
X84.673 Y67.504
X84.231 Y67.597
X83.781 Y67.627
X76.316
G3 X75.559 Y67.439 I0.065 J-1.873 F1000
X74.511 Y65.887 I0.822 J-1.685 F1400
G1 X71.228 Y19.679
G3 X72.276 Y17.861 I1.87 J-0.133
X73.033 Y17.673 I0.822 J1.685 F1000
G1 X80.325 F1400
X80.963 Y17.705
X81.674 Y17.798
X82.413 Y17.956
X83.256 Y18.208
X84.141 Y18.553
X85.099 Y19.018
X86.137 Y19.629
X87.217 Y20.388
X88.343 Y21.322
X89.485 Y22.437
X90.537 Y23.637
X91.502 Y24.907
X92.386 Y26.236
X93.191 Y27.614
X93.922 Y29.032
X94.582 Y30.485
X95.173 Y31.967
X95.698 Y33.474
X96.16 Y35.002
X96.56 Y36.546
X96.9 Y38.106
X97.182 Y39.676
X97.408 Y41.256
X97.579 Y42.842
X97.697 Y44.434
X97.761 Y46.028
X97.772 Y47.624
X97.732 Y49.219
X97.641 Y50.812
X97.501 Y52.402
X97.312 Y53.986
X97.074 Y55.564
X96.789 Y57.134
X96.455 Y58.695
X96.069 Y60.243
X95.627 Y61.776
X95.121 Y63.29
X94.528 Y64.771
X93.914 Y66.019
X93.634 Y66.417
X93.299 Y66.77
X92.916 Y67.069
X92.493 Y67.309
X92.04 Y67.485
X91.565 Y67.592
X91.08 Y67.627
X83.781
G3 X83.024 Y67.439 I0.065 J-1.873 F1000
X81.977 Y65.894 I0.822 J-1.685 F1400
G1 X78.521 Y19.686
G3 X79.569 Y17.861 I1.869 J-0.14
X80.325 Y17.673 I0.822 J1.685 F1000
G1 X87.056 F1400
X87.877 Y17.714
X88.571 Y17.805
X89.298 Y17.96
X90.119 Y18.206
X90.992 Y18.546
X91.926 Y19
X92.942 Y19.597
X94.003 Y20.343
X95.106 Y21.259
X96.249 Y22.373
X97.299 Y23.575
X98.261 Y24.847
X99.141 Y26.179
X99.941 Y27.559
X100.667 Y28.98
X101.323 Y30.435
X101.911 Y31.918
X102.434 Y33.426
X102.895 Y34.954
X103.296 Y36.498
X103.639 Y38.057
X103.927 Y39.626
X104.161 Y41.205
X104.342 Y42.79
X104.473 Y44.38
X104.555 Y45.974
X104.587 Y47.57
X104.571 Y49.165
X104.509 Y50.76
X104.399 Y52.352
X104.244 Y53.94
X104.043 Y55.523
X103.795 Y57.099
X103.5 Y58.667
X103.15 Y60.224
X102.741 Y61.767
X102.266 Y63.29
X101.701 Y64.764
X101.122 Y65.976
X101.117 Y65.985
X100.838 Y66.391
X100.503 Y66.751
X100.118 Y67.057
X99.692 Y67.302
X99.233 Y67.482
X98.754 Y67.591
X98.263 Y67.627
X91.08
G3 X90.323 Y67.439 I0.065 J-1.873 F1000
X89.278 Y65.917 I0.822 J-1.685 F1400
G1 X85.254 Y19.709
G3 X86.3 Y17.861 I1.867 J-0.163
X87.056 Y17.673 I0.822 J1.685 F1000
G1 X93.788 F1400
X94.698 Y17.718
X95.383 Y17.808
X96.105 Y17.963
X96.917 Y18.206
X97.783 Y18.543
X98.707 Y18.991
X99.713 Y19.583
X100.765 Y20.323
X101.859 Y21.23
X103.001 Y22.345
X104.05 Y23.547
X105.012 Y24.821
X105.89 Y26.153
X106.689 Y27.534
X107.414 Y28.955
X108.07 Y30.411
X108.658 Y31.894
X109.183 Y33.401
X109.647 Y34.928
X110.052 Y36.471
X110.401 Y38.028
X110.697 Y39.596
X110.94 Y41.173
X111.134 Y42.757
X111.279 Y44.346
X111.377 Y45.939
X111.429 Y47.534
X111.436 Y49.13
X111.397 Y50.725
X111.313 Y52.318
X111.185 Y53.909
X111.011 Y55.495
X110.79 Y57.076
X110.521 Y58.648
X110.197 Y60.211
X109.81 Y61.759
X109.353 Y63.288
X108.816 Y64.73
X108.257 Y65.926
X108.239 Y65.959
X107.962 Y66.371
X107.626 Y66.736
X107.239 Y67.047
X106.81 Y67.297
X106.349 Y67.479
X105.865 Y67.59
X105.37 Y67.627
X98.263
G3 X97.507 Y67.439 I0.065 J-1.873 F1000
X96.463 Y65.935 I0.822 J-1.685 F1400
G1 X91.987 Y19.727
G3 X93.031 Y17.861 I1.866 J-0.181
X93.788 Y17.673 I0.822 J1.685 F1000
G1 X100.827 F1400
X101.462 Y17.704
X102.145 Y17.794
X102.866 Y17.948
X103.675 Y18.19
X104.539 Y18.527
X105.461 Y18.974
X106.464 Y19.565
X107.515 Y20.303
X108.607 Y21.21
X109.749 Y22.324
X110.799 Y23.526
X111.76 Y24.8
X112.639 Y26.132
X113.439 Y27.513
X114.166 Y28.933
X114.823 Y30.387
X115.415 Y31.869
X115.944 Y33.375
X116.413 Y34.9
X116.825 Y36.442
X117.182 Y37.997
X117.487 Y39.563
X117.742 Y41.138
X117.949 Y42.721
X118.108 Y44.308
X118.222 Y45.9
X118.292 Y47.494
X118.317 Y49.09
X118.298 Y50.685
X118.236 Y52.28
X118.128 Y53.872
X117.975 Y55.46
X117.775 Y57.044
X117.525 Y58.62
X117.219 Y60.186
X116.848 Y61.738
X116.403 Y63.27
X115.883 Y64.696
X115.338 Y65.884
X115.307 Y65.94
X115.031 Y66.356
X114.695 Y66.725
X114.307 Y67.04
X113.876 Y67.292
X113.412 Y67.477
X112.926 Y67.59
X112.428 Y67.627
X105.37
G3 X104.614 Y67.439 I0.065 J-1.873 F1000
X103.57 Y65.937 I0.822 J-1.685 F1400
G1 X99.027 Y19.729
G3 X100.071 Y17.861 I1.866 J-0.183
X100.827 Y17.673 I0.822 J1.685 F1000
G1 X107.811 F1400
X108.219 Y17.693
X108.9 Y17.782
X109.621 Y17.937
X110.429 Y18.179
X111.294 Y18.515
X112.216 Y18.963
X113.219 Y19.554
X114.273 Y20.293
X115.367 Y21.202
X116.509 Y22.316
X117.559 Y23.518
X118.521 Y24.791
X119.401 Y26.123
X120.203 Y27.502
X120.933 Y28.921
X121.593 Y30.374
X122.189 Y31.854
X122.723 Y33.358
X123.199 Y34.881
X123.618 Y36.421
X123.984 Y37.974
X124.299 Y39.538
X124.565 Y41.112
X124.784 Y42.692
X124.957 Y44.279
X125.017 Y45.026
X125.023 Y45.114
X125.026 Y45.202
X125.027 Y45.291
Y50.491
X124.948 Y52.085
X124.9 Y53.68
X124.799 Y55.273
X124.645 Y56.861
X124.437 Y58.443
X124.166 Y60.015
X123.826 Y61.575
X123.41 Y63.115
X122.92 Y64.536
X122.4 Y65.724
X122.312 Y65.889
X122.075 Y66.265
X121.791 Y66.606
X121.463 Y66.906
X121.098 Y67.16
X120.702 Y67.361
X120.283 Y67.508
X119.848 Y67.597
X119.404 Y67.627
X112.428
G3 X111.671 Y67.439 I0.065 J-1.873 F1000
X110.959 Y64.678 I0.822 J-1.685 F1400
G1 X121.619 Y49.48
G3 X124.839 Y49.735 I1.535 J1.076
X125.027 Y50.491 I-1.685 J0.822 F1000
G1 Y65.614 F1400
X125.021 Y65.894
X124.976 Y66.174
X124.885 Y66.454
X124.741 Y66.734
X124.639 Y66.88
X124.421 Y67.119
X124.202 Y67.294
X124.078 Y67.372
X123.798 Y67.506
X123.517 Y67.588
X123.237 Y67.625
X122.956 Y67.627
X119.404
G3 X118.648 Y67.439 I0.065 J-1.873 F1000
X117.652 Y66.21 I0.822 J-1.685 F1400
G1 X106.058 Y20.002
G3 X107.055 Y17.861 I1.818 J-0.456
X107.811 Y17.673 I0.822 J1.685 F1000
G1 X114.542 F1400
X114.987 Y17.695
X115.668 Y17.784
X116.39 Y17.939
X117.197 Y18.18
X118.064 Y18.518
X118.986 Y18.965
X119.991 Y19.557
X121.048 Y20.3
X122.147 Y21.212
X123.289 Y22.326
X124.339 Y23.528
X124.359 Y23.553
X124.594 Y23.91
X124.781 Y24.294
X124.917 Y24.699
X125 Y25.118
X125.027 Y25.545
Y45.291
G3 X124.839 Y46.047 I-1.873 J-0.065 F1000
X121.375 Y45.817 I-1.685 J-0.822 F1400
G1 X112.829 Y20.138
G3 X113.786 Y17.861 I1.779 J-0.592
X114.542 Y17.673 I0.822 J1.685 F1000
G1 X121.274 F1400
X121.761 Y17.697
X122.442 Y17.786
X123.093 Y17.926
X123.497 Y18.083
X123.871 Y18.302
X124.205 Y18.578
X124.491 Y18.904
X124.721 Y19.272
X124.89 Y19.671
X124.993 Y20.092
X125.027 Y20.524
G3 X124.839 Y21.28 I-1.873 J-0.065 F1000
X122.312 Y22.133 I-1.685 J-0.822 F1400
G1 X120.497 Y21.221
G3 X120.517 Y17.861 I0.842 J-1.675
X121.274 Y17.673 I0.822 J1.685 F1000
G1 X122.956 F1400
X123.237 Y17.675
X123.517 Y17.712
X123.798 Y17.794
X124.078 Y17.928
X124.202 Y18.006
X124.421 Y18.181
X124.639 Y18.42
X124.741 Y18.566
X124.885 Y18.846
X124.976 Y19.126
X125.021 Y19.406
X125.027 Y19.686
Y25.545
G3 X124.839 Y26.301 I-1.873 J-0.065 F1000
G1 X124.767 Y26.448 Z-23.193
X124.696 Y26.594 Z-23.172
X124.626 Y26.737 Z-23.136
X124.558 Y26.878 Z-23.087
X124.491 Y27.013 Z-23.024
X124.428 Y27.144 Z-22.949
X124.367 Y27.268 Z-22.861
X124.31 Y27.384 Z-22.761
X124.258 Y27.493 Z-22.651
X124.209 Y27.592 Z-22.53
X124.165 Y27.681 Z-22.401
X124.127 Y27.76 Z-22.263
X124.094 Y27.828 Z-22.118
X124.066 Y27.884 Z-21.967
X124.045 Y27.929 Z-21.811
X124.029 Y27.96 Z-21.651
X124.02 Y27.98 Z-21.489
X124.017 Y27.986 Z-21.325
G0 Z10
M30
%
