%
(1001)
(T1  D=3.175 CR=0 - ZMIN=-23.2 - flat end mill)
G90 G94
G17
G21

(Contour - 1/8)
M9
T1 M6
S5000 M3
G54
G0 X132.16 Y42.333
Z11
G1 Z-9.683 F330
G18 G2 X132.477 Z-10 I0.317
G1 X132.795 F1000
G17 G3 X133.113 Y42.65 J0.318
G1 Y75.65
X133.108 Y75.674
X133.094 Y75.694
X133.074 Y75.708
X133.05 Y75.713
X9.65
X9.626 Y75.708
X9.606 Y75.694
X9.592 Y75.674
X9.587 Y75.65
Y9.65
X9.592 Y9.626
X9.606 Y9.606
X9.626 Y9.592
X9.65 Y9.587
X133.05
X133.074 Y9.592
X133.094 Y9.606
X133.108 Y9.626
X133.113 Y9.65
Y42.65
G3 X132.795 Y42.967 I-0.318
G1 X132.477
G18 G3 X132.16 Z-9.683 K0.318
G0 Z5
Y42.333
G1 Z1 F330
Z-19.683
G2 X132.477 Z-20 I0.317
G1 X132.795 F1000
G17 G3 X133.113 Y42.65 J0.318
G1 Y75.65
X133.108 Y75.674
X133.094 Y75.694
X133.074 Y75.708
X133.05 Y75.713
X9.65
X9.626 Y75.708
X9.606 Y75.694
X9.592 Y75.674
X9.587 Y75.65
Y9.65
X9.592 Y9.626
X9.606 Y9.606
X9.626 Y9.592
X9.65 Y9.587
X133.05
X133.074 Y9.592
X133.094 Y9.606
X133.108 Y9.626
X133.113 Y9.65
Y42.65
G3 X132.795 Y42.967 I-0.318
G1 X132.477
G18 G3 X132.16 Z-19.683 K0.317
G0 Z5
Y42.333
G1 Z-9 F330
Z-22.883
G2 X132.477 Z-23.2 I0.317
G1 X132.795 F1000
G17 G3 X133.113 Y42.65 J0.318
G1 Y75.65
X133.108 Y75.674
X133.094 Y75.694
X133.074 Y75.708
X133.05 Y75.713
X9.65
X9.626 Y75.708
X9.606 Y75.694
X9.592 Y75.674
X9.587 Y75.65
Y9.65
X9.592 Y9.626
X9.606 Y9.606
X9.626 Y9.592
X9.65 Y9.587
X133.05
X133.074 Y9.592
X133.094 Y9.606
X133.108 Y9.626
X133.113 Y9.65
Y42.65
G3 X132.795 Y42.967 I-0.318
G1 X132.477
G18 G3 X132.16 Z-22.883 K0.318
G0 Z11
G17
M30
%
